;FLAVOR:Marlin
;TIME:11313
;Filament used: 8.95841m
;Layer height: 0.2
;MINX:97.205
;MINY:34.977
;MINZ:0.2
;MAXX:174.212
;MAXY:167.65
;MAXZ:27.2
;Generated with Cura_SteamEngine 4.8.0
M140 S60
M105
M190 S60
M104 S200
M105
M109 S200
M82 ;absolute extrusion mode
; Ender 3 Custom Start G-code
G92 E0 ; Reset Extruder
G28 ; Home all axes
G1 Z2.0 F3000 ; Move Z Axis up little to prevent scratching of Heat Bed
G1 X0.1 Y20 Z0.3 F5000.0 ; Move to start position
G1 X0.1 Y200.0 Z0.3 F1500.0 E15 ; Draw the first line
G1 X0.4 Y200.0 Z0.3 F5000.0 ; Move to side a little
G1 X0.4 Y20 Z0.3 F1500.0 E30 ; Draw the second line
G92 E0 ; Reset Extruder
G1 Z2.0 F3000 ; Move Z Axis up little to prevent scratching of Heat Bed
G1 X5 Y20 Z0.3 F5000.0 ; Move over to prevent blob squish
G92 E0
G92 E0
G1 F1500 E-6.5
;LAYER_COUNT:138
;LAYER:0
M107
G0 F6000 X98.267 Y48.425 Z0.2
;TYPE:SKIRT
G1 F1500 E0
G1 F1200 X98.703 Y47.595 E0.03118
G1 X99.208 Y46.805 E0.06237
G1 X99.779 Y46.061 E0.09356
G1 X100.411 Y45.368 E0.12476
G1 X101.1 Y44.731 E0.15597
G1 X101.84 Y44.155 E0.18716
G1 X102.627 Y43.645 E0.21835
G1 X103.455 Y43.203 E0.24956
G1 X104.317 Y42.834 E0.28075
G1 X105.207 Y42.539 E0.31194
G1 X106.119 Y42.321 E0.34312
G1 X106.967 Y42.191 E0.37166
G1 X107.478 Y42.133 E0.38876
G1 X110.095 Y41.795 E0.47653
G1 X112.53 Y41.41 E0.55852
G1 X115.059 Y40.938 E0.64409
G1 X117.454 Y40.418 E0.7256
G1 X119.932 Y39.809 E0.81048
G1 X122.37 Y39.135 E0.8946
G1 X124.755 Y38.403 E0.97758
G1 X127.171 Y37.585 E1.06242
G1 X129.514 Y36.717 E1.14552
G1 X131.327 Y35.989 E1.2105
G1 X131.773 Y35.819 E1.22638
G1 X132.663 Y35.523 E1.25758
G1 X133.575 Y35.303 E1.28878
G1 X134.502 Y35.162 E1.31997
G1 X135.38 Y35.102 E1.34924
G1 X135.698 Y35.093 E1.35982
G1 X136.009 Y35.089 E1.37016
G1 X137.127 Y35.09 E1.40735
G1 X137.912 Y35.101 E1.43346
G1 X139.312 Y35.111 E1.48002
G1 X149.186 Y35.111 E1.80843
G1 X150.881 Y35.097 E1.86481
G1 X151.621 Y35.086 E1.88943
G1 X153.061 Y35.086 E1.93732
G1 X154.958 Y35.068 E2.00042
G1 X156.63 Y35.038 E2.05604
G1 X158.456 Y35.02 E2.11678
G1 X160.58 Y34.979 E2.18743
G1 X161.14 Y34.977 E2.20606
G1 X161.996 Y34.988 E2.23453
G1 X162.933 Y35.042 E2.26575
G1 X163.861 Y35.174 E2.29692
G1 X164.775 Y35.386 E2.32813
G1 X165.667 Y35.675 E2.35932
G1 X166.532 Y36.038 E2.39052
G1 X167.362 Y36.474 E2.4217
G1 X168.152 Y36.979 E2.45289
G1 X168.897 Y37.55 E2.48411
G1 X169.59 Y38.182 E2.5153
G1 X170.227 Y38.87 E2.54649
G1 X170.802 Y39.611 E2.57768
G1 X171.313 Y40.397 E2.60886
G1 X171.755 Y41.225 E2.64008
G1 X172.124 Y42.086 E2.67124
G1 X172.419 Y42.977 E2.70245
G1 X172.679 Y44.121 E2.74147
G1 X172.854 Y45.139 E2.77583
G1 X173 Y46.061 E2.80688
G1 X173.47 Y48.569 E2.89175
G1 X173.902 Y50.563 E2.9596
G1 X173.973 Y50.911 E2.97142
G1 X174.121 Y51.837 E3.00261
G1 X174.19 Y52.778 E3.03399
G1 X174.2 Y53.109 E3.045
G1 X174.205 Y53.441 E3.05605
G1 X174.206 Y146.514 E6.15167
G1 X174.212 Y147.391 E6.18084
G1 X174.205 Y147.584 E6.18726
G1 X174.204 Y154.887 E6.43016
G1 X174.194 Y155.616 E6.45441
G1 X174.141 Y156.552 E6.48559
G1 X174.009 Y157.481 E6.5168
G1 X173.798 Y158.395 E6.548
G1 X173.51 Y159.287 E6.57917
G1 X173.147 Y160.152 E6.61037
G1 X172.711 Y160.983 E6.64159
G1 X172.207 Y161.773 E6.67275
G1 X171.636 Y162.518 E6.70397
G1 X170.973 Y163.243 E6.73665
G1 X170.86 Y163.356 E6.74197
G1 X170.169 Y163.99 E6.77316
G1 X169.427 Y164.564 E6.80436
G1 X168.638 Y165.071 E6.83555
G1 X167.81 Y165.51 E6.86672
G1 X166.946 Y165.877 E6.89794
G1 X166.055 Y166.169 E6.92913
G1 X165.142 Y166.383 E6.96032
G1 X164.4 Y166.499 E6.9853
G1 X163.963 Y166.552 E6.99994
G1 X161.398 Y166.9 E7.08603
G1 X158.817 Y167.326 E7.17304
G1 X158.014 Y167.469 E7.20017
G1 X157.085 Y167.594 E7.23134
G1 X156.456 Y167.634 E7.25231
G1 X156.069 Y167.644 E7.26518
G1 X155.526 Y167.65 E7.28324
G1 X115.858 Y167.649 E8.60261
G1 X115.149 Y167.638 E8.62619
G1 X114.213 Y167.583 E8.65738
G1 X113.46 Y167.481 E8.68265
G1 X110.707 Y167.009 E8.77555
G1 X108.174 Y166.648 E8.86065
G1 X106.958 Y166.493 E8.90142
G1 X106.033 Y166.335 E8.93263
G1 X105.126 Y166.098 E8.96381
G1 X104.242 Y165.785 E8.995
G1 X103.387 Y165.398 E9.02622
G1 X102.569 Y164.939 E9.05742
G1 X101.793 Y164.413 E9.0886
G1 X101.208 Y163.947 E9.11347
G1 X101.071 Y163.83 E9.11946
G1 X100.385 Y163.191 E9.15065
G1 X99.755 Y162.496 E9.18184
G1 X99.187 Y161.75 E9.21303
G1 X98.684 Y160.958 E9.24424
G1 X98.251 Y160.126 E9.27543
G1 X97.89 Y159.26 E9.30664
G1 X97.605 Y158.367 E9.33781
G1 X97.396 Y157.453 E9.369
G1 X97.266 Y156.524 E9.4002
G1 X97.221 Y155.836 E9.42313
G1 X97.211 Y155.439 E9.43634
G1 X97.205 Y154.865 E9.45543
G1 X97.205 Y147.443 E9.70229
G1 X97.207 Y146.389 E9.73734
G1 X97.205 Y146.146 E9.74543
G1 X97.206 Y53.649 E12.82189
G1 X97.216 Y52.96 E12.84481
G1 X97.27 Y52.024 E12.87599
G1 X97.403 Y51.096 E12.90717
G1 X97.615 Y50.182 E12.93838
G1 X97.903 Y49.29 E12.96956
G1 X98.267 Y48.425 E13.00077
G0 F6000 X98.665 Y48.52
G1 F1200 X99.1 Y47.708 E13.03141
G1 X99.604 Y46.938 E13.06202
G1 X100.173 Y46.214 E13.09264
G1 X100.803 Y45.542 E13.12328
G1 X101.488 Y44.928 E13.15388
G1 X102.225 Y44.375 E13.18452
G1 X103.006 Y43.888 E13.21513
G1 X103.827 Y43.471 E13.24576
G1 X104.681 Y43.127 E13.27638
G1 X105.561 Y42.858 E13.30699
G1 X106.462 Y42.666 E13.33763
G1 X107.012 Y42.588 E13.35611
G1 X107.575 Y42.524 E13.37495
G1 X110.137 Y42.193 E13.46087
G1 X112.635 Y41.799 E13.54498
G1 X115.079 Y41.342 E13.62768
G1 X117.589 Y40.798 E13.7131
G1 X120.028 Y40.198 E13.79664
G1 X122.466 Y39.524 E13.88077
G1 X124.896 Y38.778 E13.96532
G1 X127.278 Y37.971 E14.04896
G1 X129.666 Y37.087 E14.13366
G1 X131.286 Y36.435 E14.19174
G1 X131.916 Y36.193 E14.21419
G1 X132.789 Y35.903 E14.24478
G1 X133.685 Y35.69 E14.27541
G1 X134.596 Y35.555 E14.30604
G1 X135.391 Y35.502 E14.33254
G1 X135.709 Y35.493 E14.34313
G1 X136.009 Y35.489 E14.3531
G1 X137.121 Y35.49 E14.39009
G1 X137.903 Y35.501 E14.4161
G1 X139.309 Y35.511 E14.46287
G1 X149.189 Y35.511 E14.79148
G1 X150.884 Y35.497 E14.84786
G1 X151.621 Y35.486 E14.87237
G1 X153.064 Y35.486 E14.92036
G1 X154.961 Y35.468 E14.98346
G1 X156.634 Y35.438 E15.03912
G1 X158.464 Y35.42 E15.09998
G1 X160.587 Y35.379 E15.17061
G1 X161.14 Y35.377 E15.189
G1 X161.991 Y35.388 E15.21731
G1 X162.91 Y35.441 E15.24793
G1 X163.821 Y35.574 E15.27855
G1 X164.717 Y35.785 E15.30916
G1 X165.591 Y36.073 E15.33977
G1 X166.437 Y36.436 E15.37039
G1 X167.249 Y36.871 E15.40103
G1 X168.019 Y37.375 E15.43164
G1 X168.743 Y37.944 E15.46226
G1 X169.415 Y38.573 E15.49288
G1 X170.03 Y39.259 E15.52352
G1 X170.583 Y39.995 E15.55414
G1 X171.07 Y40.776 E15.58475
G1 X171.487 Y41.597 E15.61538
G1 X171.832 Y42.451 E15.64601
G1 X172.101 Y43.331 E15.67662
G1 X172.285 Y44.188 E15.70577
G1 X172.459 Y45.201 E15.73996
G1 X172.607 Y46.132 E15.77131
G1 X173.075 Y48.628 E15.85578
G1 X173.51 Y50.643 E15.92434
G1 X173.581 Y50.991 E15.93615
G1 X173.726 Y51.9 E15.96677
G1 X173.79 Y52.79 E15.99645
G1 X173.8 Y53.121 E16.00746
G1 X173.805 Y53.441 E16.01811
G1 X173.806 Y146.514 E19.11373
G1 X173.812 Y147.394 E19.143
G1 X173.805 Y147.583 E19.14929
G1 X173.804 Y154.881 E19.39202
G1 X173.794 Y155.61 E19.41627
G1 X173.741 Y156.53 E19.44692
G1 X173.609 Y157.441 E19.47753
G1 X173.399 Y158.337 E19.50814
G1 X173.111 Y159.211 E19.53875
G1 X172.748 Y160.058 E19.5694
G1 X172.314 Y160.869 E19.59999
G1 X171.81 Y161.64 E19.63063
G1 X171.242 Y162.365 E19.66126
G1 X170.69 Y162.96 E19.68826
G1 X170.577 Y163.073 E19.69357
G1 X169.899 Y163.695 E19.72417
G1 X169.169 Y164.256 E19.75479
G1 X168.393 Y164.752 E19.78543
G1 X167.577 Y165.178 E19.81604
G1 X166.727 Y165.532 E19.84667
G1 X165.849 Y165.81 E19.8773
G1 X164.951 Y166.012 E19.90791
G1 X164.352 Y166.102 E19.92806
G1 X163.861 Y166.161 E19.94451
G1 X161.351 Y166.502 E20.02876
G1 X158.76 Y166.929 E20.1161
G1 X157.944 Y167.075 E20.14367
G1 X157.031 Y167.197 E20.1743
G1 X156.442 Y167.234 E20.19393
G1 X156.065 Y167.244 E20.20648
G1 X155.526 Y167.25 E20.2244
G1 X115.865 Y167.249 E21.54354
G1 X115.156 Y167.238 E21.56712
G1 X114.237 Y167.183 E21.59774
G1 X113.528 Y167.086 E21.62154
G1 X110.794 Y166.617 E21.7138
G1 X108.224 Y166.251 E21.80014
G1 X107.008 Y166.096 E21.84092
G1 X106.101 Y165.94 E21.87153
G1 X105.211 Y165.706 E21.90213
G1 X104.344 Y165.395 E21.93277
G1 X103.508 Y165.01 E21.96338
G1 X102.708 Y164.554 E21.99401
G1 X101.951 Y164.031 E22.02461
G1 X101.468 Y163.643 E22.04522
G1 X101.331 Y163.526 E22.05121
G1 X100.658 Y162.898 E22.08182
G1 X100.041 Y162.214 E22.11246
G1 X99.486 Y161.479 E22.1431
G1 X98.997 Y160.699 E22.17371
G1 X98.578 Y159.88 E22.20431
G1 X98.231 Y159.027 E22.23494
G1 X97.96 Y158.147 E22.26557
G1 X97.766 Y157.247 E22.29619
G1 X97.651 Y156.334 E22.32679
G1 X97.621 Y155.823 E22.34382
G1 X97.611 Y155.434 E22.35676
G1 X97.605 Y154.865 E22.37569
G1 X97.605 Y147.444 E22.62251
G1 X97.607 Y146.385 E22.65773
G1 X97.605 Y146.142 E22.66582
G1 X97.606 Y53.655 E25.74195
G1 X97.616 Y52.966 E25.76487
G1 X97.669 Y52.047 E25.79548
G1 X97.802 Y51.136 E25.8261
G1 X98.014 Y50.24 E25.85673
G1 X98.302 Y49.366 E25.88733
G1 X98.665 Y48.52 E25.91795
G0 F6000 X99.063 Y48.616
G1 F1200 X99.498 Y47.824 E25.94801
G1 X100 Y47.074 E25.97802
G1 X100.567 Y46.371 E26.00806
G1 X101.194 Y45.721 E26.0381
G1 X101.876 Y45.129 E26.06814
G1 X102.608 Y44.599 E26.0982
G1 X103.384 Y44.137 E26.12823
G1 X104.197 Y43.745 E26.15825
G1 X105.042 Y43.426 E26.1883
G1 X105.912 Y43.183 E26.21834
G1 X107.058 Y42.986 E26.25701
G1 X107.597 Y42.924 E26.27506
G1 X110.185 Y42.591 E26.36185
G1 X112.694 Y42.194 E26.44633
G1 X115.172 Y41.731 E26.53018
G1 X117.664 Y41.191 E26.61499
G1 X120.125 Y40.586 E26.69928
G1 X122.608 Y39.899 E26.78497
G1 X125.004 Y39.164 E26.86832
G1 X127.409 Y38.349 E26.95278
G1 X129.818 Y37.457 E27.03822
G1 X131.436 Y36.806 E27.09623
G1 X132.058 Y36.567 E27.11839
G1 X132.915 Y36.283 E27.14842
G1 X133.794 Y36.076 E27.17845
G1 X134.688 Y35.947 E27.2085
G1 X135.402 Y35.902 E27.23229
G1 X135.72 Y35.893 E27.24287
G1 X136.009 Y35.889 E27.25249
G1 X137.115 Y35.89 E27.28927
G1 X137.894 Y35.901 E27.31518
G1 X139.306 Y35.911 E27.36215
G1 X149.193 Y35.911 E27.69099
G1 X150.829 Y35.897 E27.74541
G1 X151.621 Y35.886 E27.77175
G1 X153.068 Y35.886 E27.81988
G1 X154.965 Y35.868 E27.88298
G1 X156.549 Y35.839 E27.93567
G1 X158.568 Y35.818 E28.00282
G1 X160.595 Y35.779 E28.07026
G1 X161.14 Y35.777 E28.08838
G1 X161.985 Y35.788 E28.11649
G1 X162.886 Y35.841 E28.14651
G1 X163.78 Y35.973 E28.17657
G1 X164.658 Y36.184 E28.2066
G1 X165.514 Y36.472 E28.23664
G1 X166.341 Y36.834 E28.26666
G1 X167.133 Y37.268 E28.2967
G1 X167.884 Y37.771 E28.32677
G1 X168.587 Y38.338 E28.3568
G1 X169.237 Y38.965 E28.38684
G1 X169.829 Y39.647 E28.41688
G1 X170.358 Y40.378 E28.44689
G1 X170.821 Y41.154 E28.47695
G1 X171.213 Y41.967 E28.50697
G1 X171.532 Y42.812 E28.53701
G1 X171.775 Y43.682 E28.56705
G1 X171.891 Y44.256 E28.58653
G1 X172.064 Y45.264 E28.62054
G1 X172.218 Y46.232 E28.65315
G1 X172.677 Y48.681 E28.73602
G1 X173.118 Y50.723 E28.8055
G1 X173.189 Y51.071 E28.81731
G1 X173.33 Y51.963 E28.84735
G1 X173.39 Y52.802 E28.87533
G1 X173.4 Y53.133 E28.88634
G1 X173.405 Y53.441 E28.89659
G1 X173.406 Y146.514 E31.99221
G1 X173.412 Y147.396 E32.02154
G1 X173.405 Y147.582 E32.02773
G1 X173.404 Y154.876 E32.27033
G1 X173.394 Y155.605 E32.29458
G1 X173.342 Y156.506 E32.3246
G1 X173.21 Y157.4 E32.35466
G1 X172.999 Y158.278 E32.38469
G1 X172.712 Y159.134 E32.41472
G1 X172.35 Y159.962 E32.44477
G1 X171.917 Y160.754 E32.4748
G1 X171.415 Y161.505 E32.50484
G1 X170.848 Y162.208 E32.53488
G1 X170.407 Y162.677 E32.55629
G1 X170.294 Y162.79 E32.56161
G1 X169.628 Y163.4 E32.59165
G1 X168.911 Y163.949 E32.62168
G1 X168.147 Y164.431 E32.65173
G1 X167.344 Y164.845 E32.68177
G1 X166.508 Y165.185 E32.71179
G1 X165.645 Y165.451 E32.74183
G1 X164.762 Y165.639 E32.77186
G1 X164.304 Y165.705 E32.78725
G1 X163.825 Y165.763 E32.80329
G1 X161.268 Y166.11 E32.88912
G1 X158.703 Y166.533 E32.97558
G1 X157.874 Y166.681 E33.00359
G1 X156.978 Y166.801 E33.03366
G1 X156.429 Y166.834 E33.05195
G1 X156.06 Y166.844 E33.06423
G1 X155.526 Y166.85 E33.08199
G1 X115.871 Y166.849 E34.40092
G1 X115.162 Y166.838 E34.42451
G1 X114.26 Y166.784 E34.45456
G1 X113.596 Y166.692 E34.47686
G1 X110.852 Y166.221 E34.56946
G1 X108.324 Y165.862 E34.65438
G1 X107.059 Y165.7 E34.6968
G1 X106.169 Y165.546 E34.72684
G1 X105.296 Y165.314 E34.75689
G1 X104.448 Y165.005 E34.7869
G1 X103.629 Y164.623 E34.81696
G1 X102.848 Y164.17 E34.84699
G1 X102.11 Y163.649 E34.87704
G1 X101.728 Y163.338 E34.89342
G1 X101.591 Y163.221 E34.89941
G1 X100.931 Y162.605 E34.92944
G1 X100.328 Y161.933 E34.95947
G1 X99.787 Y161.21 E34.9895
G1 X99.312 Y160.442 E35.01954
G1 X98.906 Y159.635 E35.04959
G1 X98.574 Y158.795 E35.07963
G1 X98.317 Y157.929 E35.10967
G1 X98.138 Y157.044 E35.1397
G1 X98.021 Y155.809 E35.18096
G1 X98.011 Y155.43 E35.19357
G1 X98.005 Y154.865 E35.21237
G1 X98.005 Y147.444 E35.45919
G1 X98.007 Y146.382 E35.49451
G1 X98.005 Y146.139 E35.50259
G1 X98.006 Y53.661 E38.57843
G1 X98.016 Y52.972 E38.60134
G1 X98.069 Y52.07 E38.6314
G1 X98.202 Y51.177 E38.66143
G1 X98.413 Y50.299 E38.69146
G1 X98.701 Y49.443 E38.7215
G1 X99.063 Y48.616 E38.75152
G1 F1500 E32.25152
G0 F6000 X138.705 Y49.111
G1 F1500 E38.75152
G1 F1200 X150.542 Y49.111 E39.14522
G1 X150.897 Y49.09 E39.15705
G1 X150.931 Y49.086 E39.15819
G1 X155.35 Y49.086 E39.30517
G1 X155.717 Y49.063 E39.3174
G1 X155.928 Y49.037 E39.32447
G1 X158.704 Y49.037 E39.4168
G1 X158.704 Y49.311 E39.42591
G1 X138.705 Y49.311 E40.09108
G1 X138.705 Y49.111 E40.09773
G0 F6000 X138.305 Y48.711
G1 F1200 X150.542 Y48.711 E40.50474
G1 X150.849 Y48.693 E40.51497
G1 X150.908 Y48.686 E40.51694
G1 X155.35 Y48.686 E40.66468
G1 X155.668 Y48.666 E40.67528
G1 X155.903 Y48.637 E40.68316
G1 X159.104 Y48.637 E40.78962
G1 X159.104 Y49.711 E40.82534
G1 X138.305 Y49.711 E41.51712
G1 X138.305 Y48.711 E41.55038
G0 F6000 X137.905 Y48.311
G1 F1200 X150.542 Y48.311 E41.97069
G1 X150.802 Y48.296 E41.97935
G1 X150.886 Y48.286 E41.98217
G1 X155.35 Y48.286 E42.13064
G1 X155.619 Y48.269 E42.1396
G1 X155.878 Y48.237 E42.14828
G1 X159.454 Y48.237 E42.26722
G1 X159.504 Y48.233 E42.26889
G1 X159.504 Y50.111 E42.33135
G1 X137.905 Y50.111 E43.04974
G1 X137.905 Y48.311 E43.10961
G0 F6000 X137.871 Y47.911
G1 F1200 X150.542 Y47.911 E43.53105
G1 X150.856 Y47.886 E43.54152
G1 X155.35 Y47.886 E43.69099
G1 X155.57 Y47.872 E43.69833
G1 X155.854 Y47.837 E43.70784
G1 X159.454 Y47.837 E43.82758
G1 X159.726 Y47.816 E43.83665
G1 X159.934 Y47.784 E43.84365
G1 X159.904 Y47.977 E43.85015
G1 X159.905 Y50.511 E43.93443
G1 X137.504 Y50.511 E44.67949
G1 X137.505 Y48.089 E44.76005
G1 X137.484 Y47.889 E44.76674
G1 X137.871 Y47.911 E44.77963
G0 F6000 X137.871 Y47.511
G1 F1200 X150.542 Y47.511 E45.20107
G1 X150.833 Y47.486 E45.21078
G1 X155.35 Y47.486 E45.36102
G1 X155.521 Y47.475 E45.36672
G1 X155.829 Y47.437 E45.37704
G1 X159.454 Y47.437 E45.49761
G1 X159.665 Y47.421 E45.50464
G1 X159.953 Y47.377 E45.51433
G1 X160.447 Y47.377 E45.53076
G1 X160.401 Y47.464 E45.53404
G1 X160.317 Y47.788 E45.54517
G1 X160.304 Y47.977 E45.55147
G1 X160.305 Y50.911 E45.64906
G1 X137.104 Y50.911 E46.42073
G1 X137.105 Y48.089 E46.51459
G1 X137.079 Y47.874 E46.52179
G1 X137.079 Y47.489 E46.53459
G1 X137.599 Y47.489 E46.55189
G1 X137.871 Y47.511 E46.56096
G0 F6000 X137.871 Y47.111
G1 F1200 X150.542 Y47.111 E46.9824
G1 X150.811 Y47.086 E46.99139
G1 X155.35 Y47.086 E47.14236
G1 X155.472 Y47.078 E47.14642
G1 X155.804 Y47.037 E47.15755
G1 X159.454 Y47.037 E47.27895
G1 X159.605 Y47.026 E47.28399
G1 X159.926 Y46.977 E47.29479
G1 X160.847 Y46.977 E47.32542
G1 X160.847 Y47.478 E47.34208
G1 X160.799 Y47.552 E47.34501
G1 X160.716 Y47.822 E47.35441
