;FLAVOR:Marlin
;TIME:492
;Filament used: 0.162204m
;Layer height: 0.2
;MINX:94
;MINY:96.5
;MINZ:0.2
;MAXX:126
;MAXY:123.5
;MAXZ:10
;Generated with Cura_SteamEngine 4.8.0
M140 S60
M105
M190 S60
M104 S200
M105
M109 S200
M82 ;absolute extrusion mode
; Ender 3 Custom Start G-code
G92 E0 ; Reset Extruder
G28 ; Home all axes
G1 Z2.0 F3000 ; Move Z Axis up little to prevent scratching of Heat Bed
G1 X0.1 Y20 Z0.3 F5000.0 ; Move to start position
G1 X0.1 Y200.0 Z0.3 F1500.0 E15 ; Draw the first line
G1 X0.4 Y200.0 Z0.3 F5000.0 ; Move to side a little
G1 X0.4 Y20 Z0.3 F1500.0 E30 ; Draw the second line
G92 E0 ; Reset Extruder
G1 Z2.0 F3000 ; Move Z Axis up little to prevent scratching of Heat Bed
G1 X5 Y20 Z0.3 F5000.0 ; Move over to prevent blob squish
G92 E0
G92 E0
G1 F1500 E-6.5
;LAYER_COUNT:50
;LAYER:0
M107
G0 F6000 X97.198 Y99.764 Z0.2
;TYPE:SKIRT
G1 F1500 E0
G1 F1200 X97.886 Y99.127 E0.03119
G1 X98.626 Y98.551 E0.06237
G1 X99.412 Y98.039 E0.09357
G1 X100.239 Y97.597 E0.12476
G1 X101.101 Y97.227 E0.15596
G1 X101.991 Y96.931 E0.18716
G1 X102.903 Y96.713 E0.21835
G1 X103.83 Y96.572 E0.24953
G1 X104.701 Y96.513 E0.27857
G1 X105.022 Y96.504 E0.28925
G1 X105.33 Y96.5 E0.29949
G1 X114.293 Y96.5 E0.59761
G1 X115.149 Y96.511 E0.62608
G1 X116.085 Y96.565 E0.65726
G1 X117.013 Y96.697 E0.68844
G1 X117.927 Y96.909 E0.71964
G1 X118.819 Y97.198 E0.75083
G1 X119.684 Y97.561 E0.78203
G1 X120.514 Y97.997 E0.81321
G1 X121.305 Y98.502 E0.84443
G1 X122.049 Y99.073 E0.87562
G1 X122.742 Y99.705 E0.90682
G1 X123.379 Y100.393 E0.938
G1 X123.954 Y101.134 E0.9692
G1 X124.465 Y101.92 E1.00038
G1 X124.907 Y102.748 E1.0316
G1 X125.276 Y103.61 E1.06278
G1 X125.571 Y104.5 E1.09397
G1 X125.789 Y105.412 E1.12516
G1 X125.929 Y106.34 E1.15637
G1 X125.987 Y107.201 E1.18507
G1 X125.996 Y107.521 E1.19572
G1 X126 Y107.83 E1.206
G1 X125.999 Y111.9 E1.34137
G1 X125.99 Y112.627 E1.36555
G1 X125.939 Y113.564 E1.39676
G1 X125.807 Y114.492 E1.42794
G1 X125.598 Y115.406 E1.45912
G1 X125.311 Y116.299 E1.49032
G1 X124.949 Y117.165 E1.52154
G1 X124.515 Y117.996 E1.55272
G1 X124.011 Y118.787 E1.58391
G1 X123.442 Y119.532 E1.61509
G1 X122.811 Y120.227 E1.64631
G1 X122.124 Y120.865 E1.6775
G1 X121.385 Y121.442 E1.70868
G1 X120.599 Y121.954 E1.73988
G1 X119.773 Y122.397 E1.77106
G1 X118.911 Y122.769 E1.80228
G1 X118.022 Y123.065 E1.83345
G1 X117.11 Y123.285 E1.86465
G1 X116.183 Y123.426 E1.89584
G1 X115.299 Y123.487 E1.92531
G1 X114.978 Y123.496 E1.93599
G1 X114.67 Y123.5 E1.94623
G1 X105.565 Y123.499 E2.24907
G1 X104.867 Y123.49 E2.27228
G1 X103.931 Y123.438 E2.30346
G1 X103.002 Y123.306 E2.33467
G1 X102.088 Y123.096 E2.36586
G1 X101.195 Y122.809 E2.39706
G1 X100.33 Y122.446 E2.42826
G1 X99.499 Y122.012 E2.45944
G1 X98.708 Y121.508 E2.49064
G1 X97.963 Y120.938 E2.52184
G1 X97.269 Y120.307 E2.55304
G1 X96.632 Y119.62 E2.5842
G1 X96.055 Y118.88 E2.61541
G1 X95.543 Y118.094 E2.64661
G1 X95.1 Y117.267 E2.67781
G1 X94.729 Y116.406 E2.70899
G1 X94.433 Y115.516 E2.74019
G1 X94.214 Y114.604 E2.77138
G1 X94.073 Y113.677 E2.80257
G1 X94.013 Y112.788 E2.83221
G1 X94.004 Y112.455 E2.84329
G1 X94 Y112.158 E2.85317
G1 X94.001 Y108.025 E2.99063
G1 X94.01 Y107.36 E3.01275
G1 X94.063 Y106.424 E3.04393
G1 X94.195 Y105.495 E3.07514
G1 X94.406 Y104.581 E3.10634
G1 X94.694 Y103.689 E3.13752
G1 X95.057 Y102.824 E3.16872
G1 X95.492 Y101.993 E3.19991
G1 X95.996 Y101.203 E3.23108
G1 X96.566 Y100.458 E3.26228
G1 X97.198 Y99.764 E3.2935
G0 F6000 X97.589 Y99.939
G1 F1200 X98.274 Y99.323 E3.32414
G1 X99.01 Y98.77 E3.35476
G1 X99.791 Y98.282 E3.38539
G1 X100.611 Y97.864 E3.416
G1 X101.465 Y97.519 E3.44664
G1 X102.345 Y97.249 E3.47725
G1 X103.245 Y97.057 E3.50786
G1 X104.159 Y96.943 E3.53849
G1 X104.712 Y96.913 E3.55691
G1 X105.033 Y96.904 E3.5676
G1 X105.33 Y96.9 E3.57747
G1 X114.293 Y96.9 E3.87558
G1 X115.143 Y96.911 E3.90386
G1 X116.062 Y96.964 E3.93448
G1 X116.973 Y97.097 E3.9651
G1 X117.869 Y97.308 E3.99571
G1 X118.743 Y97.596 E4.02632
G1 X119.59 Y97.959 E4.05697
G1 X120.401 Y98.394 E4.08758
G1 X121.171 Y98.898 E4.11819
G1 X121.895 Y99.467 E4.14881
G1 X122.567 Y100.097 E4.17945
G1 X123.182 Y100.782 E4.21007
G1 X123.735 Y101.518 E4.24069
G1 X124.222 Y102.299 E4.2713
G1 X124.639 Y103.12 E4.30193
G1 X124.984 Y103.974 E4.33256
G1 X125.253 Y104.854 E4.36317
G1 X125.445 Y105.755 E4.39381
G1 X125.558 Y106.668 E4.42441
G1 X125.587 Y107.212 E4.44253
G1 X125.596 Y107.532 E4.45317
G1 X125.6 Y107.83 E4.46309
G1 X125.599 Y111.895 E4.59829
G1 X125.59 Y112.622 E4.62247
G1 X125.539 Y113.541 E4.65308
G1 X125.408 Y114.453 E4.68373
G1 X125.198 Y115.349 E4.71434
G1 X124.912 Y116.224 E4.74495
G1 X124.551 Y117.071 E4.77558
G1 X124.117 Y117.883 E4.8062
G1 X123.615 Y118.655 E4.83683
G1 X123.047 Y119.38 E4.86746
G1 X122.419 Y120.053 E4.89808
G1 X121.735 Y120.669 E4.92869
G1 X121 Y121.223 E4.95931
G1 X120.22 Y121.712 E4.98993
G1 X119.4 Y122.131 E5.02055
G1 X118.547 Y122.477 E5.05117
G1 X117.667 Y122.748 E5.08179
G1 X116.767 Y122.941 E5.11241
G1 X115.853 Y123.056 E5.14305
G1 X115.288 Y123.087 E5.16187
G1 X114.967 Y123.096 E5.17255
G1 X114.67 Y123.1 E5.18243
G1 X105.57 Y123.099 E5.4851
G1 X104.872 Y123.09 E5.50831
G1 X103.953 Y123.038 E5.53893
G1 X103.042 Y122.907 E5.56954
G1 X102.146 Y122.697 E5.60015
G1 X101.271 Y122.41 E5.63078
G1 X100.424 Y122.048 E5.66141
G1 X99.612 Y121.614 E5.69204
G1 X98.841 Y121.112 E5.72264
G1 X98.116 Y120.544 E5.75327
G1 X97.443 Y119.915 E5.78391
G1 X96.828 Y119.231 E5.8145
G1 X96.274 Y118.496 E5.84511
G1 X95.786 Y117.715 E5.87574
G1 X95.367 Y116.895 E5.90637
G1 X95.021 Y116.042 E5.93699
G1 X94.751 Y115.162 E5.9676
G1 X94.558 Y114.261 E5.99825
G1 X94.444 Y113.348 E6.02885
G1 X94.413 Y112.777 E6.04787
G1 X94.404 Y112.444 E6.05895
G1 X94.4 Y112.158 E6.06846
G1 X94.401 Y108.031 E6.20573
G1 X94.41 Y107.366 E6.22785
G1 X94.462 Y106.446 E6.2585
G1 X94.594 Y105.535 E6.28911
G1 X94.805 Y104.639 E6.31973
G1 X95.092 Y103.764 E6.35036
G1 X95.455 Y102.918 E6.38098
G1 X95.889 Y102.106 E6.4116
G1 X96.392 Y101.335 E6.44222
G1 X96.961 Y100.611 E6.47285
G1 X97.589 Y99.939 E6.50344
G0 F6000 X97.981 Y100.117
G1 F1200 X98.662 Y99.524 E6.53347
G1 X99.394 Y98.994 E6.56353
G1 X100.169 Y98.531 E6.59356
G1 X100.982 Y98.138 E6.62359
G1 X101.827 Y97.818 E6.65364
G1 X102.696 Y97.575 E6.68365
G1 X103.584 Y97.409 E6.7137
G1 X104.723 Y97.313 E6.75172
G1 X105.044 Y97.304 E6.7624
G1 X105.33 Y97.3 E6.77191
G1 X114.293 Y97.3 E7.07002
G1 X115.137 Y97.311 E7.0981
G1 X116.039 Y97.364 E7.12815
G1 X116.932 Y97.496 E7.15817
G1 X117.81 Y97.707 E7.18821
G1 X118.666 Y97.995 E7.21825
G1 X119.493 Y98.357 E7.24827
G1 X120.285 Y98.792 E7.27833
G1 X121.036 Y99.294 E7.30837
G1 X121.739 Y99.861 E7.33841
G1 X122.389 Y100.488 E7.36845
G1 X122.981 Y101.17 E7.39848
G1 X123.511 Y101.901 E7.42852
G1 X123.973 Y102.677 E7.45855
G1 X124.366 Y103.49 E7.48859
G1 X124.684 Y104.335 E7.51862
G1 X124.927 Y105.205 E7.54866
G1 X125.092 Y106.093 E7.5787
G1 X125.187 Y107.223 E7.61642
G1 X125.196 Y107.543 E7.62706
G1 X125.2 Y107.83 E7.63661
G1 X125.199 Y111.89 E7.77165
G1 X125.19 Y112.617 E7.79583
G1 X125.139 Y113.519 E7.82588
G1 X125.008 Y114.413 E7.85593
G1 X124.799 Y115.291 E7.88595
G1 X124.513 Y116.148 E7.916
G1 X124.152 Y116.976 E7.94604
G1 X123.72 Y117.768 E7.97605
G1 X123.219 Y118.52 E8.0061
G1 X122.653 Y119.224 E8.03615
G1 X122.028 Y119.875 E8.06616
G1 X121.347 Y120.469 E8.09622
G1 X120.616 Y121 E8.12627
G1 X119.842 Y121.464 E8.15628
G1 X119.029 Y121.858 E8.18633
G1 X118.185 Y122.178 E8.21635
G1 X117.315 Y122.423 E8.24641
G1 X116.428 Y122.589 E8.27643
G1 X115.277 Y122.687 E8.31485
G1 X114.956 Y122.696 E8.32553
G1 X114.67 Y122.7 E8.33504
G1 X105.575 Y122.699 E8.63754
G1 X104.877 Y122.69 E8.66076
G1 X103.976 Y122.639 E8.69078
G1 X103.082 Y122.507 E8.72083
G1 X102.204 Y122.298 E8.75085
G1 X101.347 Y122.011 E8.78091
G1 X100.52 Y121.65 E8.81092
G1 X99.727 Y121.217 E8.84098
G1 X98.976 Y120.716 E8.871
G1 X98.272 Y120.15 E8.90105
G1 X97.621 Y119.524 E8.93109
G1 X97.028 Y118.843 E8.96112
G1 X96.498 Y118.112 E8.99115
G1 X96.034 Y117.337 E9.02119
G1 X95.64 Y116.524 E9.05124
G1 X95.32 Y115.68 E9.08126
G1 X95.076 Y114.81 E9.11132
G1 X94.91 Y113.922 E9.14136
G1 X94.813 Y112.767 E9.17991
G1 X94.804 Y112.434 E9.19099
G1 X94.8 Y112.158 E9.20017
G1 X94.801 Y108.036 E9.33727
G1 X94.81 Y107.371 E9.35939
G1 X94.862 Y106.469 E9.38944
G1 X94.994 Y105.576 E9.41947
G1 X95.204 Y104.698 E9.44949
G1 X95.491 Y103.841 E9.47955
G1 X95.853 Y103.014 E9.50958
G1 X96.286 Y102.222 E9.5396
G1 X96.788 Y101.471 E9.56965
G1 X97.355 Y100.767 E9.59971
G1 X97.981 Y100.117 E9.62973
G1 F1500 E3.12973
;MESH:nuts2.5.STL
G0 F6000 X105.414 Y106.835
G0 X105.414 Y107.914
G0 X114.218 Y108.282
G0 X114.4 Y111.9
;TYPE:WALL-INNER
G1 F1500 E9.62973
G1 F1200 X105.6 Y111.9 E9.92241
G1 X105.6 Y108.1 E10.0488
G1 X114.4 Y108.1 E10.34149
G1 X114.4 Y111.9 E10.46788
G0 F6000 X114.8 Y112.3
;TYPE:WALL-OUTER
G1 F1200 X105.2 Y112.3 E10.78718
G1 X105.2 Y107.7 E10.94017
G1 X114.8 Y107.7 E11.25947
G1 X114.8 Y112.3 E11.41247
G0 F6000 X114.53 Y112.03
G0 X114.29 Y111.51
G0 X114.01 Y111.51
;TYPE:SKIN
G1 F1200 X105.99 Y111.51 E11.67921
G1 X105.99 Y108.49 E11.77966
G1 X114.01 Y108.49 E12.04641
G1 X114.01 Y111.51 E12.14685
G0 F6000 X114.29 Y111.51
G0 X114.29 Y108.757
G0 X113.849 Y108.757
G1 F1200 X113.741 Y108.65 E12.15191
G0 F6000 X113.175 Y108.65
G1 F1200 X113.849 Y109.323 E12.18359
G0 F6000 X113.849 Y109.889
G1 F1200 X112.61 Y108.65 E12.24187
G0 F6000 X112.044 Y108.65
G1 F1200 X113.849 Y110.455 E12.32677
G0 F6000 X113.849 Y111.02
G1 F1200 X111.478 Y108.65 E12.43827
G0 F6000 X110.913 Y108.65
G1 F1200 X113.612 Y111.349 E12.56522
G0 F6000 X113.046 Y111.349
G1 F1200 X110.347 Y108.65 E12.69218
G0 F6000 X109.781 Y108.649
G1 F1200 X112.48 Y111.349 E12.81915
G0 F6000 X111.915 Y111.349
G1 F1200 X109.215 Y108.649 E12.94615
G0 F6000 X108.649 Y108.649
G1 F1200 X111.349 Y111.349 E13.07315
G0 F6000 X110.783 Y111.349
G1 F1200 X108.084 Y108.649 E13.20013
G0 F6000 X107.518 Y108.649
G1 F1200 X110.218 Y111.349 E13.32713
G0 F6000 X109.651 Y111.348
G1 F1200 X106.952 Y108.649 E13.45408
G0 F6000 X106.387 Y108.649
G1 F1200 X109.086 Y111.348 E13.58103
G0 F6000 X108.52 Y111.348
G1 F1200 X106.15 Y108.978 E13.69251
G0 F6000 X106.15 Y109.544
G1 F1200 X107.954 Y111.348 E13.77736
G0 F6000 X107.389 Y111.348
G1 F1200 X106.15 Y110.109 E13.83564
G0 F6000 X106.15 Y110.675
G1 F1200 X106.823 Y111.348 E13.8673
G0 F6000 X106.257 Y111.348
G1 F1200 X106.15 Y111.241 E13.87233
G0 F6000 X105.8 Y111.241
;MESH:NONMESH
G0 F300 X105.8 Y111.241 Z0.4
G0 F6000 X105.71 Y111.241
G0 X105.782 Y111.718
G0 X114.4 Y111.9
;TIME_ELAPSED:28.992880
;LAYER:1
M106 S85
;TYPE:WALL-INNER
;MESH:nuts2.5.STL
G1 F778.7 X105.6 Y111.9 E14.16502
G1 X105.6 Y108.1 E14.29141
G1 X114.4 Y108.1 E14.5841
G1 X114.4 Y111.9 E14.71049
G0 F7500 X114.8 Y112.3
;TYPE:WALL-OUTER
G1 F778.7 X105.2 Y112.3 E15.02978
G1 X105.2 Y107.7 E15.18278
G1 X114.8 Y107.7 E15.50208
G1 X114.8 Y112.3 E15.65508
G0 F7500 X114.53 Y112.03
G0 X114.29 Y111.51
G0 X114.01 Y111.51
;TYPE:SKIN
G1 F778.7 X105.99 Y111.51 E15.92182
G1 X105.99 Y108.49 E16.02227
G1 X114.01 Y108.49 E16.28901
G1 X114.01 Y111.51 E16.38946
G0 F7500 X113.849 Y111.293
G1 F778.7 X113.792 Y111.35 E16.39214
G0 F7500 X113.226 Y111.35
G1 F778.7 X113.849 Y110.727 E16.42144
G0 F7500 X113.849 Y110.162
G1 F778.7 X112.661 Y111.35 E16.47732
G0 F7500 X112.095 Y111.35
G1 F778.7 X113.849 Y109.596 E16.55983
G0 F7500 X113.849 Y109.03
G1 F778.7 X111.529 Y111.35 E16.66895
G0 F7500 X110.964 Y111.35
G1 F778.7 X113.664 Y108.649 E16.79598
G0 F7500 X113.098 Y108.649
G1 F778.7 X110.398 Y111.35 E16.923
G0 F7500 X109.833 Y111.349
G1 F778.7 X112.533 Y108.649 E17.05
G0 F7500 X111.967 Y108.649
G1 F778.7 X109.267 Y111.349 E17.177
G0 F7500 X108.702 Y111.349
G1 F778.7 X111.401 Y108.649 E17.30397
G0 F7500 X110.836 Y108.649
G1 F778.7 X108.136 Y111.349 E17.43097
G0 F7500 X107.57 Y111.349
G1 F778.7 X110.27 Y108.649 E17.55797
G0 F7500 X109.705 Y108.649
G1 F778.7 X107.005 Y111.349 E17.68497
G0 F7500 X106.439 Y111.349
G1 F778.7 X109.139 Y108.649 E17.81197
G0 F7500 X108.574 Y108.649
G1 F778.7 X106.15 Y111.073 E17.92599
G0 F7500 X106.15 Y110.507
G1 F778.7 X108.008 Y108.649 E18.01339
G0 F7500 X107.442 Y108.649
G1 F778.7 X106.15 Y109.941 E18.07416
G0 F7500 X106.15 Y109.375
G1 F778.7 X106.877 Y108.649 E18.10833
G0 F7500 X106.311 Y108.649
G1 F778.7 X106.15 Y108.81 E18.1159
G0 F7500 X105.8 Y108.81
;MESH:NONMESH
G0 F300 X105.8 Y108.81 Z0.6
G0 F7500 X105.71 Y108.81
G0 X105.782 Y111.718
G0 X114.4 Y111.9
;TIME_ELAPSED:40.701965
;LAYER:2
M106 S170
;TYPE:WALL-INNER
;MESH:nuts2.5.STL
G1 F778.3 X105.6 Y111.9 E18.40859
G1 X105.6 Y108.1 E18.53498
G1 X114.4 Y108.1 E18.82767
G1 X114.4 Y111.9 E18.95406
G0 F9000 X114.8 Y112.3
;TYPE:WALL-OUTER
G1 F778.3 X105.2 Y112.3 E19.27336
G1 X105.2 Y107.7 E19.42635
G1 X114.8 Y107.7 E19.74565
G1 X114.8 Y112.3 E19.89865
G0 F9000 X114.53 Y112.03
G0 X114.29 Y111.51
G0 X114.01 Y111.51
;TYPE:SKIN
G1 F778.3 X105.99 Y111.51 E20.16539
G1 X105.99 Y108.49 E20.26584
G1 X114.01 Y108.49 E20.53258
G1 X114.01 Y111.51 E20.63303
G0 F9000 X114.29 Y111.51
G0 X114.29 Y108.757
G0 X113.849 Y108.757
G1 F778.3 X113.741 Y108.65 E20.63809
G0 F9000 X113.175 Y108.65
G1 F778.3 X113.849 Y109.323 E20.66977
G0 F9000 X113.849 Y109.889
G1 F778.3 X112.61 Y108.65 E20.72804
G0 F9000 X112.044 Y108.65
G1 F778.3 X113.849 Y110.455 E20.81295
G0 F9000 X113.849 Y111.02
G1 F778.3 X111.478 Y108.65 E20.92445
G0 F9000 X110.913 Y108.65
G1 F778.3 X113.612 Y111.349 E21.0514
G0 F9000 X113.046 Y111.349
G1 F778.3 X110.347 Y108.65 E21.17835
G0 F9000 X109.781 Y108.649
G1 F778.3 X112.48 Y111.349 E21.30533
G0 F9000 X111.915 Y111.349
G1 F778.3 X109.215 Y108.649 E21.43233
G0 F9000 X108.649 Y108.649
G1 F778.3 X111.349 Y111.349 E21.55933
G0 F9000 X110.783 Y111.349
G1 F778.3 X108.084 Y108.649 E21.6863
G0 F9000 X107.518 Y108.649
G1 F778.3 X110.218 Y111.349 E21.8133
G0 F9000 X109.651 Y111.348
G1 F778.3 X106.952 Y108.649 E21.94026
G0 F9000 X106.387 Y108.649
G1 F778.3 X109.086 Y111.348 E22.06721
G0 F9000 X108.52 Y111.348
G1 F778.3 X106.15 Y108.978 E22.17869
G0 F9000 X106.15 Y109.544
G1 F778.3 X107.954 Y111.348 E22.26354
G0 F9000 X107.389 Y111.348
G1 F778.3 X106.15 Y110.109 E22.32182
G0 F9000 X106.15 Y110.675
G1 F778.3 X106.823 Y111.348 E22.35348
G0 F9000 X106.257 Y111.348
G1 F778.3 X106.15 Y111.241 E22.35851
G0 F9000 X105.8 Y111.241
;MESH:NONMESH
G0 F300 X105.8 Y111.241 Z0.8
G0 F9000 X105.71 Y111.241
G0 X105.782 Y111.718
G0 X114.4 Y111.9
;TIME_ELAPSED:52.500770
;LAYER:3
M106 S255
;TYPE:WALL-INNER
;MESH:nuts2.5.STL
G1 F776.5 X105.6 Y111.9 E22.6512
G1 X105.6 Y108.1 E22.77759
G1 X114.4 Y108.1 E23.07028
G1 X114.4 Y111.9 E23.19666
G0 F9000 X114.8 Y112.3
;TYPE:WALL-OUTER
G1 F776.5 X105.2 Y112.3 E23.51596
G1 X105.2 Y107.7 E23.66896
G1 X114.8 Y107.7 E23.98826
G1 X114.8 Y112.3 E24.14125
G0 F9000 X114.53 Y112.03
G0 X114.29 Y111.51
G0 X114.01 Y111.51
;TYPE:SKIN
G1 F776.5 X105.99 Y111.51 E24.408
G1 X105.99 Y108.49 E24.50844
G1 X114.01 Y108.49 E24.77519
G1 X114.01 Y111.51 E24.87564
G0 F9000 X113.849 Y111.293
G1 F776.5 X113.792 Y111.35 E24.87832
G0 F9000 X113.226 Y111.35
G1 F776.5 X113.849 Y110.727 E24.90762
G0 F9000 X113.849 Y110.162
G1 F776.5 X112.661 Y111.35 E24.9635
G0 F9000 X112.095 Y111.35
G1 F776.5 X113.849 Y109.596 E25.046
G0 F9000 X113.849 Y109.03
G1 F776.5 X111.529 Y111.35 E25.15513
G0 F9000 X110.964 Y111.35
G1 F776.5 X113.664 Y108.649 E25.28215
G0 F9000 X113.098 Y108.649
G1 F776.5 X110.398 Y111.35 E25.40918
G0 F9000 X109.833 Y111.349
G1 F776.5 X112.533 Y108.649 E25.53618
G0 F9000 X111.967 Y108.649
G1 F776.5 X109.267 Y111.349 E25.66318
G0 F9000 X108.702 Y111.349
G1 F776.5 X111.401 Y108.649 E25.79015
