;FLAVOR:Marlin
;TIME:1043
;Filament used: 0.475441m
;Layer height: 0.2
;MINX:79.062
;MINY:96.5
;MINZ:0.2
;MAXX:145.616
;MAXY:123.5
;MAXZ:10
;Generated with Cura_SteamEngine 4.8.0
M140 S60
M105
M190 S60
M104 S200
M105
M109 S200
M82 ;absolute extrusion mode
; Ender 3 Custom Start G-code
G92 E0 ; Reset Extruder
G28 ; Home all axes
G1 Z2.0 F3000 ; Move Z Axis up little to prevent scratching of Heat Bed
G1 X0.1 Y20 Z0.3 F5000.0 ; Move to start position
G1 X0.1 Y200.0 Z0.3 F1500.0 E15 ; Draw the first line
G1 X0.4 Y200.0 Z0.3 F5000.0 ; Move to side a little
G1 X0.4 Y20 Z0.3 F1500.0 E30 ; Draw the second line
G92 E0 ; Reset Extruder
G1 Z2.0 F3000 ; Move Z Axis up little to prevent scratching of Heat Bed
G1 X5 Y20 Z0.3 F5000.0 ; Move over to prevent blob squish
G92 E0
G92 E0
G1 F1500 E-6.5
;LAYER_COUNT:50
;LAYER:0
M107
G0 F6000 X82.948 Y99.127 Z0.2
;TYPE:SKIRT
G1 F1500 E0
G1 F1200 X83.688 Y98.551 E0.03119
G1 X84.474 Y98.039 E0.06239
G1 X85.301 Y97.597 E0.09358
G1 X86.163 Y97.227 E0.12478
G1 X87.053 Y96.931 E0.15597
G1 X87.965 Y96.713 E0.18716
G1 X88.892 Y96.572 E0.21835
G1 X89.763 Y96.513 E0.24738
G1 X90.084 Y96.504 E0.25806
G1 X90.392 Y96.5 E0.26831
G1 X99.355 Y96.5 E0.56642
G1 X100.921 Y96.521 E0.61851
G1 X102.342 Y96.56 E0.66579
G1 X104.896 Y96.562 E0.75074
G1 X106.257 Y96.532 E0.79601
G1 X107.188 Y96.505 E0.82699
G1 X107.512 Y96.5 E0.83777
G1 X116.615 Y96.501 E1.14054
G1 X118.018 Y96.522 E1.18721
G1 X119.599 Y96.567 E1.23981
G1 X122.162 Y96.567 E1.32506
G1 X123.49 Y96.539 E1.36924
G1 X124.633 Y96.505 E1.40727
G1 X124.957 Y96.5 E1.41805
G1 X134.067 Y96.501 E1.72105
G1 X134.765 Y96.511 E1.74427
G1 X135.701 Y96.565 E1.77545
G1 X136.629 Y96.697 E1.80663
G1 X137.543 Y96.909 E1.83783
G1 X138.435 Y97.198 E1.86902
G1 X139.3 Y97.561 E1.90022
G1 X140.13 Y97.997 E1.9314
G1 X140.921 Y98.502 E1.96262
G1 X141.665 Y99.073 E1.99381
G1 X142.358 Y99.705 E2.025
G1 X142.995 Y100.393 E2.05619
G1 X143.57 Y101.134 E2.08738
G1 X144.081 Y101.92 E2.11857
G1 X144.523 Y102.748 E2.14978
G1 X144.892 Y103.61 E2.18097
G1 X145.187 Y104.5 E2.21216
G1 X145.405 Y105.412 E2.24334
G1 X145.545 Y106.34 E2.27456
G1 X145.603 Y107.201 E2.30326
G1 X145.612 Y107.521 E2.31391
G1 X145.616 Y107.83 E2.32419
G1 X145.615 Y111.9 E2.45955
G1 X145.606 Y112.627 E2.48374
G1 X145.555 Y113.564 E2.51495
G1 X145.423 Y114.492 E2.54612
G1 X145.214 Y115.406 E2.57731
G1 X144.927 Y116.299 E2.6085
G1 X144.565 Y117.165 E2.63972
G1 X144.131 Y117.996 E2.67091
G1 X143.627 Y118.787 E2.7021
G1 X143.058 Y119.532 E2.73328
G1 X142.427 Y120.227 E2.7645
G1 X141.74 Y120.865 E2.79568
G1 X141.001 Y121.442 E2.82687
G1 X140.215 Y121.954 E2.85807
G1 X139.389 Y122.397 E2.88924
G1 X138.527 Y122.769 E2.92047
G1 X137.638 Y123.065 E2.95163
G1 X136.726 Y123.285 E2.98284
G1 X135.799 Y123.426 E3.01402
G1 X134.915 Y123.487 E3.0435
G1 X134.594 Y123.496 E3.05418
G1 X134.286 Y123.5 E3.06442
G1 X125.164 Y123.499 E3.36782
G1 X123.762 Y123.478 E3.41446
G1 X122.18 Y123.433 E3.46709
G1 X119.618 Y123.433 E3.55231
G1 X118.286 Y123.461 E3.59662
G1 X117.145 Y123.495 E3.63459
G1 X116.822 Y123.5 E3.64533
G1 X107.714 Y123.499 E3.94826
G1 X106.147 Y123.476 E4.00039
G1 X104.884 Y123.44 E4.04241
G1 X102.329 Y123.438 E4.12739
G1 X100.968 Y123.468 E4.17267
G1 X100.037 Y123.495 E4.20365
G1 X99.713 Y123.5 E4.21443
G1 X90.611 Y123.499 E4.51716
G1 X89.913 Y123.489 E4.54038
G1 X88.977 Y123.435 E4.57156
G1 X88.049 Y123.303 E4.60274
G1 X87.135 Y123.091 E4.63394
G1 X86.243 Y122.802 E4.66513
G1 X85.378 Y122.439 E4.69633
G1 X84.548 Y122.003 E4.72751
G1 X83.757 Y121.498 E4.75873
G1 X83.013 Y120.927 E4.78992
G1 X82.32 Y120.295 E4.82112
G1 X81.683 Y119.607 E4.8523
G1 X81.108 Y118.866 E4.8835
G1 X80.597 Y118.08 E4.91468
G1 X80.155 Y117.252 E4.9459
G1 X79.786 Y116.39 E4.97708
G1 X79.491 Y115.5 E5.00827
G1 X79.273 Y114.588 E5.03945
G1 X79.133 Y113.66 E5.07067
G1 X79.075 Y112.788 E5.09974
G1 X79.066 Y112.456 E5.11078
G1 X79.062 Y112.158 E5.1207
G1 X79.063 Y108.025 E5.25816
G1 X79.072 Y107.36 E5.28028
G1 X79.125 Y106.424 E5.31146
G1 X79.257 Y105.495 E5.34267
G1 X79.468 Y104.581 E5.37387
G1 X79.756 Y103.689 E5.40505
G1 X80.119 Y102.824 E5.43625
G1 X80.554 Y101.993 E5.46744
G1 X81.058 Y101.203 E5.49861
G1 X81.628 Y100.458 E5.52981
G1 X82.26 Y99.764 E5.56103
G1 X82.948 Y99.127 E5.59221
G0 F6000 X83.336 Y99.323
G1 F1200 X84.072 Y98.77 E5.62283
G1 X84.853 Y98.282 E5.65346
G1 X85.673 Y97.864 E5.68408
G1 X86.527 Y97.519 E5.71471
G1 X87.407 Y97.249 E5.74533
G1 X88.307 Y97.057 E5.77593
G1 X89.221 Y96.943 E5.80657
G1 X89.774 Y96.913 E5.82499
G1 X90.095 Y96.904 E5.83567
G1 X90.392 Y96.9 E5.84555
G1 X99.505 Y96.901 E6.14865
G1 X101.068 Y96.924 E6.20064
G1 X102.33 Y96.96 E6.24263
G1 X104.86 Y96.962 E6.32678
G1 X106.334 Y96.931 E6.37582
G1 X107.199 Y96.905 E6.4046
G1 X107.512 Y96.9 E6.41501
G1 X116.609 Y96.901 E6.71758
G1 X118.007 Y96.922 E6.76408
G1 X119.588 Y96.967 E6.81669
G1 X122.124 Y96.967 E6.90103
G1 X123.576 Y96.936 E6.94934
G1 X124.645 Y96.905 E6.98491
G1 X124.957 Y96.9 E6.99529
G1 X134.061 Y96.901 E7.29809
G1 X134.759 Y96.911 E7.32131
G1 X135.678 Y96.964 E7.35192
G1 X136.589 Y97.097 E7.38254
G1 X137.485 Y97.308 E7.41316
G1 X138.359 Y97.596 E7.44377
G1 X139.206 Y97.959 E7.47442
G1 X140.017 Y98.394 E7.50503
G1 X140.787 Y98.898 E7.53563
G1 X141.511 Y99.467 E7.56626
G1 X142.183 Y100.097 E7.5969
G1 X142.798 Y100.782 E7.62752
G1 X143.351 Y101.518 E7.65814
G1 X143.838 Y102.299 E7.68875
G1 X144.255 Y103.12 E7.71937
G1 X144.6 Y103.974 E7.75001
G1 X144.869 Y104.854 E7.78062
G1 X145.061 Y105.755 E7.81126
G1 X145.174 Y106.668 E7.84185
G1 X145.203 Y107.212 E7.85997
G1 X145.212 Y107.532 E7.87062
G1 X145.216 Y107.83 E7.88053
G1 X145.215 Y111.895 E8.01574
G1 X145.206 Y112.622 E8.03992
G1 X145.155 Y113.541 E8.07053
G1 X145.024 Y114.453 E8.10117
G1 X144.814 Y115.349 E8.13178
G1 X144.528 Y116.224 E8.1624
G1 X144.167 Y117.071 E8.19302
G1 X143.733 Y117.883 E8.22365
G1 X143.231 Y118.655 E8.25428
G1 X142.663 Y119.38 E8.28491
G1 X142.035 Y120.053 E8.31552
G1 X141.351 Y120.669 E8.34614
G1 X140.616 Y121.223 E8.37675
G1 X139.836 Y121.712 E8.40737
G1 X139.016 Y122.131 E8.438
G1 X138.163 Y122.477 E8.46862
G1 X137.283 Y122.748 E8.49924
G1 X136.383 Y122.941 E8.52986
G1 X135.469 Y123.056 E8.5605
G1 X134.904 Y123.087 E8.57932
G1 X134.583 Y123.096 E8.59
G1 X134.286 Y123.1 E8.59988
G1 X125.17 Y123.099 E8.90307
G1 X123.774 Y123.078 E8.94951
G1 X122.192 Y123.033 E9.00215
G1 X119.655 Y123.033 E9.08653
G1 X118.204 Y123.064 E9.1348
G1 X117.134 Y123.095 E9.17041
G1 X116.822 Y123.1 E9.18078
G1 X107.72 Y123.099 E9.48352
G1 X106.158 Y123.076 E9.53548
G1 X104.895 Y123.04 E9.5775
G1 X102.365 Y123.038 E9.66165
G1 X100.891 Y123.069 E9.71068
G1 X100.026 Y123.095 E9.73947
G1 X99.713 Y123.1 E9.74988
G1 X90.617 Y123.099 E10.05241
G1 X89.919 Y123.089 E10.07563
G1 X89 Y123.036 E10.10625
G1 X88.089 Y122.903 E10.13687
G1 X87.193 Y122.692 E10.16749
G1 X86.319 Y122.404 E10.19809
G1 X85.472 Y122.041 E10.22874
G1 X84.661 Y121.606 E10.25935
G1 X83.891 Y121.102 E10.28996
G1 X83.167 Y120.533 E10.32059
G1 X82.495 Y119.903 E10.35122
G1 X81.88 Y119.218 E10.38184
G1 X81.327 Y118.482 E10.41246
G1 X80.84 Y117.701 E10.44307
G1 X80.423 Y116.88 E10.4737
G1 X80.078 Y116.026 E10.50434
G1 X79.809 Y115.146 E10.53494
G1 X79.617 Y114.245 E10.56558
G1 X79.504 Y113.332 E10.59618
G1 X79.475 Y112.777 E10.61466
G1 X79.466 Y112.445 E10.62571
G1 X79.462 Y112.158 E10.63526
G1 X79.463 Y108.031 E10.77252
G1 X79.472 Y107.366 E10.79464
G1 X79.524 Y106.446 E10.82529
G1 X79.656 Y105.535 E10.85591
G1 X79.867 Y104.639 E10.88652
G1 X80.154 Y103.764 E10.91715
G1 X80.517 Y102.918 E10.94777
G1 X80.951 Y102.106 E10.97839
G1 X81.454 Y101.335 E11.00901
G1 X82.023 Y100.611 E11.03964
G1 X82.651 Y99.939 E11.07023
G1 X83.336 Y99.323 E11.10087
G0 F6000 X83.724 Y99.524
G1 F1200 X84.456 Y98.994 E11.13093
G1 X85.231 Y98.531 E11.16095
G1 X86.044 Y98.138 E11.19099
G1 X86.889 Y97.818 E11.22104
G1 X87.758 Y97.575 E11.25105
G1 X88.646 Y97.409 E11.2811
G1 X89.785 Y97.313 E11.31912
G1 X90.106 Y97.304 E11.3298
G1 X90.392 Y97.3 E11.33931
G1 X99.355 Y97.3 E11.63742
G1 X100.91 Y97.321 E11.68915
G1 X102.319 Y97.36 E11.73603
G1 X104.868 Y97.362 E11.82081
G1 X106.296 Y97.331 E11.86831
G1 X107.211 Y97.304 E11.89876
G1 X107.512 Y97.3 E11.90877
G1 X116.603 Y97.301 E12.21114
G1 X117.995 Y97.322 E12.25744
G1 X119.576 Y97.367 E12.31005
G1 X122.132 Y97.367 E12.39506
G1 X123.533 Y97.337 E12.44167
G1 X124.657 Y97.304 E12.47907
G1 X124.957 Y97.3 E12.48905
G1 X134.055 Y97.301 E12.79165
G1 X134.753 Y97.311 E12.81487
G1 X135.655 Y97.364 E12.84492
G1 X136.548 Y97.496 E12.87495
G1 X137.426 Y97.707 E12.90498
G1 X138.282 Y97.995 E12.93502
G1 X139.109 Y98.357 E12.96504
G1 X139.901 Y98.792 E12.9951
G1 X140.652 Y99.294 E13.02514
G1 X141.355 Y99.861 E13.05518
G1 X142.005 Y100.488 E13.08522
G1 X142.597 Y101.17 E13.11526
G1 X143.127 Y101.901 E13.14529
G1 X143.589 Y102.677 E13.17533
G1 X143.982 Y103.49 E13.20536
G1 X144.3 Y104.335 E13.23539
G1 X144.543 Y105.205 E13.26543
G1 X144.708 Y106.093 E13.29547
G1 X144.803 Y107.223 E13.33319
G1 X144.812 Y107.543 E13.34384
G1 X144.816 Y107.83 E13.35338
G1 X144.815 Y111.89 E13.48842
G1 X144.806 Y112.617 E13.5126
G1 X144.755 Y113.519 E13.54265
G1 X144.624 Y114.413 E13.5727
G1 X144.415 Y115.291 E13.60272
G1 X144.129 Y116.148 E13.63277
G1 X143.768 Y116.976 E13.66281
G1 X143.336 Y117.768 E13.69282
G1 X142.835 Y118.52 E13.72287
G1 X142.269 Y119.224 E13.75292
G1 X141.644 Y119.875 E13.78293
G1 X140.963 Y120.469 E13.81299
G1 X140.232 Y121 E13.84304
G1 X139.458 Y121.464 E13.87305
G1 X138.645 Y121.858 E13.9031
G1 X137.801 Y122.178 E13.93312
G1 X136.931 Y122.423 E13.96319
G1 X136.044 Y122.589 E13.9932
G1 X134.893 Y122.687 E14.03162
G1 X134.572 Y122.696 E14.0423
G1 X134.286 Y122.7 E14.05182
G1 X125.176 Y122.699 E14.35482
G1 X123.785 Y122.678 E14.40109
G1 X122.203 Y122.633 E14.45372
G1 X119.647 Y122.633 E14.53874
G1 X118.247 Y122.663 E14.58531
G1 X117.122 Y122.696 E14.62275
G1 X116.822 Y122.7 E14.63272
G1 X107.725 Y122.699 E14.93529
G1 X106.169 Y122.676 E14.98705
G1 X104.906 Y122.64 E15.02908
G1 X102.357 Y122.638 E15.11386
G1 X100.929 Y122.669 E15.16136
G1 X100.014 Y122.696 E15.19181
G1 X99.713 Y122.7 E15.20182
G1 X90.623 Y122.699 E15.50416
G1 X89.925 Y122.689 E15.52737
G1 X89.023 Y122.636 E15.55743
G1 X88.13 Y122.504 E15.58745
G1 X87.252 Y122.293 E15.61748
G1 X86.396 Y122.005 E15.64752
G1 X85.569 Y121.643 E15.67755
G1 X84.777 Y121.208 E15.7076
G1 X84.026 Y120.706 E15.73765
G1 X83.323 Y120.139 E15.76769
G1 X82.673 Y119.512 E15.79772
G1 X82.081 Y118.83 E15.82776
G1 X81.551 Y118.099 E15.85779
G1 X81.089 Y117.323 E15.88783
G1 X80.696 Y116.51 E15.91786
G1 X80.378 Y115.665 E15.94789
G1 X80.135 Y114.795 E15.97794
G1 X79.97 Y113.907 E16.00798
G1 X79.875 Y112.766 E16.04606
G1 X79.866 Y112.434 E16.05711
G1 X79.862 Y112.158 E16.06629
G1 X79.863 Y108.036 E16.20338
G1 X79.872 Y107.371 E16.2255
G1 X79.924 Y106.469 E16.25555
G1 X80.056 Y105.576 E16.28558
G1 X80.266 Y104.698 E16.3156
G1 X80.553 Y103.841 E16.34566
G1 X80.915 Y103.014 E16.37569
G1 X81.348 Y102.222 E16.40571
G1 X81.85 Y101.471 E16.43576
G1 X82.417 Y100.767 E16.46582
G1 X83.043 Y100.117 E16.49584
G1 X83.724 Y99.524 E16.52587
G1 F1500 E10.02587
;MESH:nuts2.5.STL
G0 F6000 X90.476 Y106.835
G0 X90.476 Y107.914
G0 X99.28 Y108.282
G0 X99.462 Y111.9
;TYPE:WALL-INNER
G1 F1500 E16.52587
G1 F1200 X90.662 Y111.9 E16.81856
G1 X90.662 Y108.1 E16.94495
G1 X99.462 Y108.1 E17.23764
G1 X99.462 Y111.9 E17.36403
G0 F6000 X99.862 Y112.3
;TYPE:WALL-OUTER
G1 F1200 X90.262 Y112.3 E17.68332
G1 X90.262 Y107.7 E17.83632
G1 X99.862 Y107.7 E18.15562
G1 X99.862 Y112.3 E18.30861
G0 F6000 X99.592 Y112.03
G0 X99.352 Y111.51
G0 X99.072 Y111.51
;TYPE:SKIN
G1 F1200 X91.052 Y111.51 E18.57536
G1 X91.052 Y108.49 E18.67581
G1 X99.072 Y108.49 E18.94255
G1 X99.072 Y111.51 E19.043
G0 F6000 X99.352 Y111.51
G0 X99.352 Y109.094
G0 X98.912 Y109.094
G1 F1200 X98.466 Y108.649 E19.06395
G0 F6000 X97.901 Y108.649
G1 F1200 X98.912 Y109.66 E19.11151
G0 F6000 X98.912 Y110.225
G1 F1200 X97.335 Y108.649 E19.18566
G0 F6000 X96.769 Y108.649
G1 F1200 X98.912 Y110.791 E19.28644
G0 F6000 X98.903 Y111.348
G1 F1200 X96.203 Y108.649 E19.41341
G0 F6000 X95.638 Y108.649
G1 F1200 X98.338 Y111.348 E19.54039
G0 F6000 X97.772 Y111.348
G1 F1200 X95.072 Y108.649 E19.66737
G0 F6000 X94.506 Y108.649
G1 F1200 X97.206 Y111.348 E19.79434
G0 F6000 X96.64 Y111.348
G1 F1200 X93.941 Y108.649 E19.9213
G0 F6000 X93.375 Y108.649
G1 F1200 X96.075 Y111.348 E20.04827
G0 F6000 X95.509 Y111.348
G1 F1200 X92.809 Y108.649 E20.17525
G0 F6000 X92.244 Y108.649
G1 F1200 X94.943 Y111.348 E20.3022
G0 F6000 X94.378 Y111.348
G1 F1200 X91.678 Y108.649 E20.42918
G0 F6000 X91.211 Y108.748
G1 F1200 X93.812 Y111.348 E20.5515
G0 F6000 X93.246 Y111.348
G1 F1200 X91.211 Y109.313 E20.64722
G0 F6000 X91.211 Y109.879
G1 F1200 X92.681 Y111.348 E20.71634
G0 F6000 X92.115 Y111.348
G1 F1200 X91.211 Y110.445 E20.75884
G0 F6000 X91.211 Y111.01
G1 F1200 X91.549 Y111.348 E20.77473
G0 F6000 X91.549 Y111.7
G1 F1500 E14.27473
;MESH:nuts2.4.STL
G0 F6000 X91.549 Y111.79
G0 X99.642 Y111.9
G0 X100.727 Y111.9
G0 X106.498 Y111.9
G0 X107.583 Y111.9
G0 X107.763 Y111.9
;TYPE:WALL-INNER
G1 F1500 E20.77473
G1 F1200 X107.763 Y108.1 E20.90112
G1 X116.563 Y108.1 E21.19381
G1 X116.563 Y111.9 E21.3202
G1 X107.763 Y111.9 E21.61289
G0 F6000 X107.363 Y112.3
;TYPE:WALL-OUTER
G1 F1200 X107.363 Y107.7 E21.76589
G1 X116.963 Y107.7 E22.08518
G1 X116.963 Y112.3 E22.23818
G1 X107.363 Y112.3 E22.55748
G0 F6000 X107.633 Y112.03
G0 X107.873 Y111.51
G0 X108.153 Y111.51
;TYPE:SKIN
G1 F1200 X108.153 Y108.49 E22.65792
G1 X116.173 Y108.49 E22.92467
G1 X116.173 Y111.51 E23.02511
G1 X108.153 Y111.51 E23.29186
G0 F6000 X108.521 Y111.349
G1 F1200 X108.313 Y111.141 E23.30164
G0 F6000 X108.313 Y110.575
G1 F1200 X109.086 Y111.349 E23.33803
G0 F6000 X109.652 Y111.349
G1 F1200 X108.313 Y110.01 E23.40101
G0 F6000 X108.313 Y109.444
G1 F1200 X110.218 Y111.349 E23.49062
G0 F6000 X110.783 Y111.349
G1 F1200 X108.313 Y108.878 E23.60682
G0 F6000 X108.649 Y108.649
G1 F1200 X111.349 Y111.349 E23.73382
G0 F6000 X111.915 Y111.349
G1 F1200 X109.215 Y108.649 E23.86082
G0 F6000 X109.781 Y108.649
G1 F1200 X112.48 Y111.349 E23.9878
G0 F6000 X113.046 Y111.349
G1 F1200 X110.346 Y108.649 E24.1148
G0 F6000 X110.912 Y108.649
G1 F1200 X113.612 Y111.349 E24.24179
G0 F6000 X114.177 Y111.349
G1 F1200 X111.478 Y108.649 E24.36877
G0 F6000 X112.043 Y108.649
G1 F1200 X114.743 Y111.349 E24.49577
G0 F6000 X115.309 Y111.349
G1 F1200 X112.609 Y108.649 E24.62277
G0 F6000 X113.175 Y108.649
G1 F1200 X115.875 Y111.349 E24.74977
G0 F6000 X116.012 Y110.921
G1 F1200 X113.74 Y108.649 E24.85664
G0 F6000 X114.306 Y108.649
G1 F1200 X116.012 Y110.355 E24.93688
G0 F6000 X116.012 Y109.789
G1 F1200 X114.872 Y108.649 E24.99051
G0 F6000 X115.438 Y108.649
G1 F1200 X116.012 Y109.223 E25.0175
G0 F6000 X116.363 Y109.223
G1 F1500 E18.5175
;MESH:nuts2.3.STL
G0 F6000 X116.453 Y109.223
G0 X116.743 Y111.9
G0 X117.828 Y111.9
G0 X123.951 Y111.9
G0 X125.036 Y111.9
G0 X125.216 Y111.9
;TYPE:WALL-INNER
G1 F1500 E25.0175
G1 F1200 X125.216 Y108.1 E25.14389
G1 X134.016 Y108.1 E25.43658
G1 X134.016 Y111.9 E25.56297
G1 X125.216 Y111.9 E25.85566
G0 F6000 X124.816 Y112.3
;TYPE:WALL-OUTER
G1 F1200 X124.816 Y107.7 E26.00866
G1 X134.416 Y107.7 E26.32795
G1 X134.416 Y112.3 E26.48095
G1 X124.816 Y112.3 E26.80025
G0 F6000 X125.086 Y112.03
G0 X125.326 Y111.51
G0 X125.606 Y111.51
;TYPE:SKIN
G1 F1200 X125.606 Y108.49 E26.90069
G1 X133.626 Y108.49 E27.16744
G1 X133.626 Y111.51 E27.26789
G1 X125.606 Y111.51 E27.53463
G0 F6000 X126.058 Y111.35
G1 F1200 X125.765 Y111.057 E27.54841
