;FLAVOR:Marlin
;TIME:469
;Filament used: 0.3074m
;Layer height: 0.2
;MINX:71.5
;MINY:93.573
;MINZ:0.2
;MAXX:148.5
;MAXY:122.982
;MAXZ:3
;Generated with Cura_SteamEngine 4.8.0
M140 S60
M105
M190 S60
M104 S200
M105
M109 S200
M82 ;absolute extrusion mode
; Ender 3 Custom Start G-code
G92 E0 ; Reset Extruder
G28 ; Home all axes
G1 Z2.0 F3000 ; Move Z Axis up little to prevent scratching of Heat Bed
G1 X0.1 Y20 Z0.3 F5000.0 ; Move to start position
G1 X0.1 Y200.0 Z0.3 F1500.0 E15 ; Draw the first line
G1 X0.4 Y200.0 Z0.3 F5000.0 ; Move to side a little
G1 X0.4 Y20 Z0.3 F1500.0 E30 ; Draw the second line
G92 E0 ; Reset Extruder
G1 Z2.0 F3000 ; Move Z Axis up little to prevent scratching of Heat Bed
G1 X5 Y20 Z0.3 F5000.0 ; Move over to prevent blob squish
G92 E0
G92 E0
G1 F1500 E-6.5
;LAYER_COUNT:15
;LAYER:0
M107
G0 F6000 X75.386 Y96.201 Z0.2
;TYPE:SKIRT
G1 F1500 E0
G1 F1200 X76.126 Y95.624 E0.03121
G1 X76.912 Y95.113 E0.06239
G1 X77.739 Y94.671 E0.09358
G1 X78.601 Y94.301 E0.12478
G1 X79.491 Y94.005 E0.15598
G1 X80.403 Y93.786 E0.18717
G1 X81.33 Y93.646 E0.21835
G1 X82.183 Y93.588 E0.24679
G1 X82.487 Y93.579 E0.2569
G1 X82.813 Y93.574 E0.26775
G1 X136.792 Y93.573 E2.0631
G1 X137.648 Y93.584 E2.09157
G1 X138.584 Y93.638 E2.12275
G1 X139.512 Y93.77 E2.15393
G1 X140.426 Y93.982 E2.18514
G1 X141.318 Y94.271 E2.21632
G1 X142.183 Y94.634 E2.24752
G1 X143.013 Y95.07 E2.27871
G1 X143.804 Y95.575 E2.30992
G1 X144.548 Y96.146 E2.34111
G1 X145.241 Y96.778 E2.37231
G1 X145.878 Y97.466 E2.40349
G1 X146.453 Y98.207 E2.43469
G1 X146.964 Y98.993 E2.46587
G1 X147.406 Y99.821 E2.49709
G1 X147.775 Y100.683 E2.52827
G1 X148.07 Y101.573 E2.55946
G1 X148.288 Y102.485 E2.59065
G1 X148.428 Y103.413 E2.62186
G1 X148.485 Y104.26 E2.6501
G1 X148.495 Y104.6 E2.66141
G1 X148.5 Y104.923 E2.67216
G1 X148.499 Y106.208 E2.71489
G1 X148.492 Y106.71 E2.73159
G1 X148.493 Y109.357 E2.81963
G1 X148.5 Y110.106 E2.84455
G1 X148.499 Y111.397 E2.88748
G1 X148.489 Y112.124 E2.91167
G1 X148.436 Y113.061 E2.94288
G1 X148.304 Y113.989 E2.97406
G1 X148.093 Y114.903 E3.00526
G1 X147.804 Y115.795 E3.03644
G1 X147.441 Y116.66 E3.06764
G1 X147.006 Y117.491 E3.09884
G1 X146.501 Y118.281 E3.13003
G1 X145.931 Y119.026 E3.16122
G1 X145.3 Y119.72 E3.19242
G1 X144.611 Y120.357 E3.22363
G1 X143.871 Y120.933 E3.25482
G1 X143.085 Y121.444 E3.286
G1 X142.258 Y121.886 E3.31719
G1 X141.396 Y122.256 E3.34839
G1 X140.506 Y122.551 E3.37958
G1 X139.594 Y122.77 E3.41077
G1 X138.667 Y122.91 E3.44195
G1 X137.799 Y122.969 E3.47089
G1 X137.479 Y122.978 E3.48154
G1 X137.17 Y122.982 E3.49182
G1 X83.065 Y122.981 E5.29136
G1 X82.367 Y122.972 E5.31457
G1 X81.431 Y122.92 E5.34575
G1 X80.502 Y122.788 E5.37696
G1 X79.588 Y122.578 E5.40815
G1 X78.695 Y122.291 E5.43935
G1 X77.83 Y121.928 E5.47055
G1 X76.999 Y121.494 E5.50173
G1 X76.208 Y120.99 E5.53293
G1 X75.463 Y120.42 E5.56413
G1 X74.769 Y119.789 E5.59532
G1 X74.132 Y119.102 E5.62649
G1 X73.555 Y118.362 E5.6577
G1 X73.043 Y117.576 E5.6889
G1 X72.6 Y116.749 E5.7201
G1 X72.229 Y115.888 E5.75128
G1 X71.933 Y114.998 E5.78248
G1 X71.714 Y114.086 E5.81367
G1 X71.573 Y113.159 E5.84486
G1 X71.513 Y112.27 E5.8745
G1 X71.504 Y111.937 E5.88557
G1 X71.5 Y111.64 E5.89545
G1 X71.501 Y110.362 E5.93796
G1 X71.508 Y109.876 E5.95413
G1 X71.508 Y107.274 E6.04067
G1 X71.503 Y106.999 E6.04982
G1 X71.5 Y106.541 E6.06505
G1 X71.501 Y105.097 E6.11308
G1 X71.51 Y104.434 E6.13513
G1 X71.563 Y103.497 E6.16635
G1 X71.695 Y102.569 E6.19752
G1 X71.906 Y101.655 E6.22872
G1 X72.194 Y100.762 E6.25993
G1 X72.557 Y99.898 E6.2911
G1 X72.992 Y99.067 E6.3223
G1 X73.497 Y98.276 E6.35351
G1 X74.067 Y97.531 E6.38471
G1 X74.698 Y96.838 E6.41588
G1 X75.386 Y96.201 E6.44707
G0 F6000 X75.775 Y96.397
G1 F1200 X76.51 Y95.844 E6.47766
G1 X77.291 Y95.356 E6.50829
G1 X78.112 Y94.938 E6.53893
G1 X78.965 Y94.593 E6.56954
G1 X79.845 Y94.323 E6.60015
G1 X80.746 Y94.131 E6.63079
G1 X81.659 Y94.017 E6.66139
G1 X82.195 Y93.988 E6.67925
G1 X82.499 Y93.979 E6.68936
G1 X82.813 Y93.974 E6.69981
G1 X136.792 Y93.973 E8.49516
G1 X137.642 Y93.984 E8.52343
G1 X138.561 Y94.037 E8.55405
G1 X139.472 Y94.17 E8.58467
G1 X140.368 Y94.381 E8.61528
G1 X141.242 Y94.669 E8.64589
G1 X142.089 Y95.032 E8.67654
G1 X142.9 Y95.467 E8.70715
G1 X143.67 Y95.971 E8.73776
G1 X144.394 Y96.54 E8.76839
G1 X145.066 Y97.17 E8.79902
G1 X145.681 Y97.855 E8.82964
G1 X146.234 Y98.591 E8.86026
G1 X146.721 Y99.372 E8.89087
G1 X147.138 Y100.193 E8.9215
G1 X147.483 Y101.047 E8.95213
G1 X147.752 Y101.927 E8.98274
G1 X147.944 Y102.828 E9.01338
G1 X148.057 Y103.741 E9.04398
G1 X148.085 Y104.271 E9.06163
G1 X148.095 Y104.611 E9.07294
G1 X148.1 Y104.923 E9.08332
G1 X148.099 Y106.203 E9.1259
G1 X148.092 Y106.706 E9.14263
G1 X148.093 Y109.367 E9.23113
G1 X148.1 Y110.109 E9.25581
G1 X148.099 Y111.392 E9.29849
G1 X148.089 Y112.119 E9.32267
G1 X148.036 Y113.038 E9.35328
G1 X147.904 Y113.949 E9.3839
G1 X147.693 Y114.845 E9.41452
G1 X147.406 Y115.72 E9.44515
G1 X147.043 Y116.566 E9.47576
G1 X146.609 Y117.378 E9.50639
G1 X146.105 Y118.149 E9.53702
G1 X145.537 Y118.873 E9.56763
G1 X144.908 Y119.545 E9.59824
G1 X144.223 Y120.16 E9.62886
G1 X143.487 Y120.713 E9.65948
G1 X142.706 Y121.201 E9.69011
G1 X141.886 Y121.619 E9.72072
G1 X141.032 Y121.964 E9.75136
G1 X140.152 Y122.233 E9.78196
G1 X139.251 Y122.426 E9.81261
G1 X138.338 Y122.539 E9.84321
G1 X137.788 Y122.569 E9.86153
G1 X137.468 Y122.578 E9.87218
G1 X137.17 Y122.582 E9.88209
G1 X83.07 Y122.581 E11.68146
G1 X82.372 Y122.572 E11.70468
G1 X81.453 Y122.52 E11.7353
G1 X80.542 Y122.389 E11.76591
G1 X79.646 Y122.179 E11.79652
G1 X78.771 Y121.892 E11.82714
G1 X77.924 Y121.53 E11.85778
G1 X77.112 Y121.096 E11.8884
G1 X76.341 Y120.594 E11.919
G1 X75.616 Y120.026 E11.94964
G1 X74.943 Y119.397 E11.98028
G1 X74.328 Y118.713 E12.01087
G1 X73.774 Y117.978 E12.04148
G1 X73.286 Y117.197 E12.07211
G1 X72.867 Y116.377 E12.10274
G1 X72.521 Y115.524 E12.13336
G1 X72.251 Y114.644 E12.16397
G1 X72.058 Y113.743 E12.19462
G1 X71.944 Y112.83 E12.22522
G1 X71.913 Y112.259 E12.24424
G1 X71.904 Y111.926 E12.25532
G1 X71.9 Y111.64 E12.26483
G1 X71.901 Y110.367 E12.30717
G1 X71.908 Y109.881 E12.32334
G1 X71.908 Y107.265 E12.41035
G1 X71.903 Y106.996 E12.4193
G1 X71.9 Y106.538 E12.43453
G1 X71.901 Y105.102 E12.48229
G1 X71.91 Y104.439 E12.50434
G1 X71.962 Y103.52 E12.53496
G1 X72.094 Y102.609 E12.56558
G1 X72.305 Y101.713 E12.59619
G1 X72.593 Y100.838 E12.62683
G1 X72.955 Y99.992 E12.65744
G1 X73.389 Y99.18 E12.68806
G1 X73.893 Y98.409 E12.7187
G1 X74.461 Y97.685 E12.7493
G1 X75.09 Y97.012 E12.77994
G1 X75.775 Y96.397 E12.81056
G0 F6000 X76.163 Y96.598
G1 F1200 X76.894 Y96.068 E12.84059
G1 X77.669 Y95.604 E12.87063
G1 X78.482 Y95.211 E12.90067
G1 X79.327 Y94.892 E12.93071
G1 X80.197 Y94.649 E12.96075
G1 X81.084 Y94.483 E12.99077
G1 X82.207 Y94.387 E13.02825
G1 X82.511 Y94.378 E13.03837
G1 X82.813 Y94.374 E13.04841
G1 X136.792 Y94.373 E14.84376
G1 X137.636 Y94.384 E14.87184
G1 X138.538 Y94.437 E14.90189
G1 X139.431 Y94.569 E14.93191
G1 X140.309 Y94.78 E14.96195
G1 X141.165 Y95.068 E14.99199
G1 X141.992 Y95.43 E15.02201
G1 X142.784 Y95.865 E15.05207
G1 X143.535 Y96.367 E15.08211
G1 X144.238 Y96.934 E15.11215
G1 X144.888 Y97.561 E15.14219
G1 X145.48 Y98.243 E15.17223
G1 X146.01 Y98.974 E15.20226
G1 X146.472 Y99.75 E15.23229
G1 X146.865 Y100.563 E15.26233
G1 X147.183 Y101.408 E15.29236
G1 X147.426 Y102.278 E15.3224
G1 X147.591 Y103.166 E15.35244
G1 X147.686 Y104.283 E15.38973
G1 X147.696 Y104.623 E15.40104
G1 X147.7 Y104.923 E15.41102
G1 X147.699 Y106.197 E15.45339
G1 X147.692 Y106.7 E15.47012
G1 X147.693 Y109.376 E15.55913
G1 X147.7 Y110.112 E15.58361
G1 X147.699 Y111.386 E15.62598
G1 X147.689 Y112.113 E15.65017
G1 X147.637 Y113.015 E15.68022
G1 X147.505 Y113.908 E15.71024
G1 X147.294 Y114.787 E15.74031
G1 X147.007 Y115.643 E15.77033
G1 X146.645 Y116.47 E15.80036
G1 X146.211 Y117.262 E15.8304
G1 X145.709 Y118.013 E15.86044
G1 X145.143 Y118.716 E15.89046
G1 X144.516 Y119.367 E15.92052
G1 X143.835 Y119.959 E15.95054
G1 X143.104 Y120.489 E15.98057
G1 X142.328 Y120.952 E16.01062
G1 X141.515 Y121.345 E16.04066
G1 X140.67 Y121.665 E16.07071
G1 X139.801 Y121.908 E16.10072
G1 X138.913 Y122.073 E16.13076
G1 X137.777 Y122.169 E16.16868
G1 X137.457 Y122.178 E16.17933
G1 X137.17 Y122.182 E16.18887
G1 X83.075 Y122.181 E17.98808
G1 X82.377 Y122.172 E18.0113
G1 X81.476 Y122.121 E18.04131
G1 X80.582 Y121.989 E18.07137
G1 X79.704 Y121.78 E18.10139
G1 X78.847 Y121.493 E18.13145
G1 X78.02 Y121.132 E18.16146
G1 X77.227 Y120.699 E18.19151
G1 X76.476 Y120.198 E18.22154
G1 X75.772 Y119.632 E18.25158
G1 X75.121 Y119.006 E18.28162
G1 X74.528 Y118.325 E18.31165
G1 X73.998 Y117.594 E18.34169
G1 X73.534 Y116.819 E18.37173
G1 X73.14 Y116.006 E18.40178
G1 X72.82 Y115.162 E18.4318
G1 X72.576 Y114.292 E18.46185
G1 X72.41 Y113.404 E18.4919
G1 X72.313 Y112.249 E18.53045
G1 X72.304 Y111.916 E18.54153
G1 X72.3 Y111.64 E18.55071
G1 X72.301 Y110.373 E18.59285
G1 X72.308 Y109.887 E18.60902
G1 X72.308 Y107.255 E18.69656
G1 X72.303 Y106.994 E18.70524
G1 X72.3 Y106.536 E18.72047
G1 X72.301 Y105.108 E18.76797
G1 X72.31 Y104.445 E18.79002
G1 X72.362 Y103.543 E18.82007
G1 X72.494 Y102.65 E18.8501
G1 X72.704 Y101.771 E18.88015
G1 X72.991 Y100.915 E18.91018
G1 X73.353 Y100.088 E18.94021
G1 X73.787 Y99.295 E18.97028
G1 X74.289 Y98.544 E19.00032
G1 X74.855 Y97.841 E19.03034
G1 X75.481 Y97.19 E19.06038
G1 X76.163 Y96.598 E19.09042
G1 F1500 E12.59042
;MESH:Front_Side_lock.STL(1)
G0 F6000 X82.919 Y103.909
G0 X82.92 Y104.994
G0 X136.718 Y105.355
G0 X136.9 Y106.182
;TYPE:WALL-INNER
G1 F1500 E19.09042
G1 F1200 X83.1 Y106.182 E20.87981
G1 X83.1 Y105.174 E20.91334
G1 X136.701 Y105.173 E22.69611
G1 X136.9 Y105.173 E22.70273
G1 X136.9 Y105.372 E22.70701
G1 X136.9 Y106.182 E22.73395
G0 F6000 X137.3 Y106.582
;TYPE:WALL-OUTER
G1 F1200 X82.7 Y106.582 E24.54996
G1 X82.7 Y104.774 E24.61009
G1 X137.3 Y104.773 E26.4261
G1 X137.3 Y106.582 E26.48626
G0 F6000 X137.03 Y106.312
G0 X136.79 Y105.792
G0 X136.51 Y105.792
;TYPE:SKIN
G1 F1200 X83.49 Y105.792 E28.24972
G1 X83.49 Y105.564 E28.2573
G1 X136.51 Y105.563 E30.02075
G1 X136.51 Y105.792 E30.02837
G0 F6000 X136.51 Y105.982
G1 F1500 E23.52837
;MESH:Front_Side_lock.STL
G0 F6000 X136.51 Y106.072
G0 X136.9 Y106.362
G0 X136.9 Y107.447
G0 X136.899 Y109.109
G0 X136.9 Y110.174
G0 X136.9 Y111.382
;TYPE:WALL-INNER
G1 F1500 E30.02837
G1 F1200 X83.1 Y111.382 E31.81776
G1 X83.1 Y110.374 E31.85129
G1 X136.701 Y110.373 E33.63407
G1 X136.9 Y110.373 E33.64068
G1 X136.9 Y110.572 E33.64497
G1 X136.9 Y111.382 E33.67191
G0 F6000 X137.3 Y111.782
;TYPE:WALL-OUTER
G1 F1200 X82.7 Y111.782 E35.48791
G1 X82.7 Y109.974 E35.54805
G1 X137.3 Y109.973 E37.36405
G1 X137.3 Y111.782 E37.42422
G0 F6000 X137.03 Y111.512
G0 X136.51 Y111.272
G0 X136.51 Y110.992
;TYPE:SKIN
G1 F1200 X83.49 Y110.992 E39.18767
G1 X83.49 Y110.764 E39.19525
G1 X136.51 Y110.763 E40.9587
G1 X136.51 Y110.992 E40.96632
G0 F6000 X136.51 Y111.182
G1 F1500 E34.46632
;MESH:NONMESH
G0 F300 X136.51 Y111.182 Z0.4
G0 F6000 X136.51 Y111.272
G0 X136.9 Y110.174
G0 X136.899 Y109.109
G0 X136.9 Y107.447
G0 X136.9 Y106.362
G0 X136.9 Y106.041
;TIME_ELAPSED:69.988745
;LAYER:1
M106 S85
;TYPE:WALL-INNER
;MESH:Front_Side_lock.STL(1)
G1 F1500 E40.96632
G1 F1350 X83.1 Y106.041 E42.75572
G1 X83.1 Y105.041 E42.78898
G1 X136.701 Y105.04 E44.57175
G1 X136.9 Y105.04 E44.57837
G1 X136.9 Y105.239 E44.58265
G1 X136.9 Y106.041 E44.60933
G0 F7500 X137.3 Y106.441
;TYPE:WALL-OUTER
G1 F1350 X82.7 Y106.441 E46.42533
G1 X82.7 Y104.641 E46.4852
G1 X137.3 Y104.64 E48.3012
G1 X137.3 Y106.441 E48.36111
G0 F7500 X137.03 Y106.171
G0 X136.79 Y105.651
G0 X136.51 Y105.651
;TYPE:SKIN
G1 F1350 X83.49 Y105.651 E50.12456
G1 X83.49 Y105.431 E50.13187
G1 X136.51 Y105.43 E51.89533
G1 X136.51 Y105.651 E51.90268
G0 F7500 X136.51 Y105.841
G1 F1500 E45.40268
;MESH:Front_Side_lock.STL
G0 F7500 X136.51 Y105.931
G0 X136.9 Y106.221
G0 X136.9 Y107.306
G0 X136.899 Y108.976
G0 X136.9 Y110.041
G0 X136.9 Y111.241
;TYPE:WALL-INNER
G1 F1500 E51.90268
G1 F1350 X83.1 Y111.241 E53.69207
G1 X83.1 Y110.241 E53.72533
G1 X136.701 Y110.24 E55.50811
G1 X136.9 Y110.24 E55.51473
G1 X136.9 Y110.439 E55.51901
G1 X136.9 Y111.241 E55.54569
G0 F7500 X137.3 Y111.641
;TYPE:WALL-OUTER
G1 F1350 X82.7 Y111.641 E57.36169
G1 X82.7 Y109.841 E57.42156
G1 X137.3 Y109.84 E59.23756
G1 X137.3 Y111.641 E59.29746
G0 F7500 X137.03 Y111.371
G0 X136.51 Y111.131
G0 X136.51 Y110.851
;TYPE:SKIN
G1 F1350 X83.49 Y110.851 E61.06091
G1 X83.49 Y110.631 E61.06823
G1 X136.51 Y110.63 E62.83168
G1 X136.51 Y110.851 E62.83903
G0 F7500 X136.51 Y111.041
G1 F1500 E56.33903
;MESH:NONMESH
G0 F300 X136.51 Y111.041 Z0.6
G0 F7500 X136.51 Y111.131
G0 X136.702 Y110.59
G0 X136.9 Y110.041
G0 X136.899 Y108.976
G0 X136.9 Y107.306
G0 X136.9 Y106.221
G0 X136.9 Y105.899
;TIME_ELAPSED:101.724955
;LAYER:2
M106 S170
;TYPE:WALL-INNER
;MESH:Front_Side_lock.STL(1)
G1 F1500 E62.83903
G1 X83.1 Y105.899 E64.62843
G1 X83.1 Y104.908 E64.66139
G1 X136.701 Y104.907 E66.44417
G1 X136.9 Y104.907 E66.45079
G1 X136.9 Y105.106 E66.45507
G1 X136.9 Y105.899 E66.48144
G0 F9000 X137.3 Y106.299
;TYPE:WALL-OUTER
G1 F1500 X82.7 Y106.299 E68.29745
G1 X82.7 Y104.508 E68.35702
G1 X137.3 Y104.507 E70.17302
G1 X137.3 Y106.299 E70.23262
G0 F9000 X137.03 Y106.029
G0 X136.79 Y105.509
G0 X136.51 Y105.509
;TYPE:SKIN
G1 F1500 X83.49 Y105.509 E71.99607
G1 X83.49 Y105.298 E72.00309
G1 X136.51 Y105.297 E73.76654
G1 X136.51 Y105.509 E73.77359
G0 F9000 X136.51 Y105.699
G1 F1500 E67.27359
;MESH:Front_Side_lock.STL
G0 F9000 X136.51 Y105.789
G0 X136.9 Y106.079
G0 X136.9 Y107.164
G0 X136.899 Y108.843
G0 X136.9 Y109.908
G0 X136.9 Y111.099
;TYPE:WALL-INNER
G1 F1500 E73.77359
G1 X83.1 Y111.099 E75.56299
G1 X83.1 Y110.108 E75.59595
G1 X136.701 Y110.107 E77.37873
G1 X136.9 Y110.107 E77.38535
G1 X136.9 Y110.306 E77.38963
G1 X136.9 Y111.099 E77.416
G0 F9000 X137.3 Y111.499
;TYPE:WALL-OUTER
G1 F1500 X82.7 Y111.499 E79.23201
G1 X82.7 Y109.708 E79.29158
G1 X137.3 Y109.707 E81.10758
G1 X137.3 Y111.499 E81.16718
G0 F9000 X137.03 Y111.229
G0 X136.79 Y110.709
G0 X136.51 Y110.709
;TYPE:SKIN
G1 F1500 X83.49 Y110.709 E82.93063
G1 X83.49 Y110.498 E82.93765
G1 X136.51 Y110.497 E84.7011
G1 X136.51 Y110.709 E84.70816
G0 F9000 X136.51 Y110.899
G1 F1500 E78.20816
;MESH:NONMESH
G0 F300 X136.51 Y110.899 Z0.8
G0 F9000 X136.51 Y110.989
G0 X136.9 Y109.908
G0 X136.899 Y108.843
G0 X136.9 Y107.164
G0 X136.9 Y106.079
G0 X136.9 Y105.758
;TIME_ELAPSED:130.627728
;LAYER:3
M106 S255
;TYPE:WALL-INNER
;MESH:Front_Side_lock.STL(1)
G1 F1500 E84.70816
G1 X83.1 Y105.758 E86.49755
G1 X83.1 Y104.775 E86.53025
G1 X136.701 Y104.774 E88.31302
G1 X136.9 Y104.774 E88.31964
G1 X136.9 Y104.973 E88.32392
G1 X136.9 Y105.758 E88.35003
G0 F9000 X137.3 Y106.158
;TYPE:WALL-OUTER
G1 F1500 X82.7 Y106.158 E90.16604
G1 X82.7 Y104.375 E90.22534
G1 X137.3 Y104.374 E92.04134
G1 X137.3 Y106.158 E92.10068
G0 F9000 X137.03 Y105.888
G0 X136.51 Y105.648
G0 X136.51 Y105.368
;TYPE:SKIN
G1 F1500 X83.49 Y105.368 E93.86413
G1 X83.49 Y105.165 E93.87088
G1 X136.51 Y105.164 E95.63433
G1 X136.51 Y105.368 E95.64112
G0 F9000 X136.51 Y105.558
G1 F1500 E89.14112
;MESH:Front_Side_lock.STL
G0 F9000 X136.51 Y105.648
G0 X136.9 Y105.938
G0 X136.9 Y107.023
G0 X136.899 Y108.71
G0 X136.9 Y109.775
G0 X136.9 Y110.958
;TYPE:WALL-INNER
G1 F1500 E95.64112
G1 X83.1 Y110.958 E97.43051
G1 X83.1 Y109.975 E97.46321
G1 X136.701 Y109.974 E99.24599
G1 X136.9 Y109.974 E99.2526
G1 X136.9 Y110.173 E99.25689
G1 X136.9 Y110.958 E99.283
G0 F9000 X137.3 Y111.358
;TYPE:WALL-OUTER
G1 F1500 X82.7 Y111.358 E101.099
