;FLAVOR:Marlin
;TIME:18428
;Filament used: 12.3377m
;Layer height: 0.2
;MINX:71.497
;MINY:18.41
;MINZ:0.2
;MAXX:210.765
;MAXY:164.001
;MAXZ:27.2
;Generated with Cura_SteamEngine 4.8.0
M140 S60
M105
M190 S60
M104 S200
M105
M109 S200
M82 ;absolute extrusion mode
; Ender 3 Custom Start G-code
G92 E0 ; Reset Extruder
G28 ; Home all axes
G1 Z2.0 F3000 ; Move Z Axis up little to prevent scratching of Heat Bed
G1 X0.1 Y20 Z0.3 F5000.0 ; Move to start position
G1 X0.1 Y200.0 Z0.3 F1500.0 E15 ; Draw the first line
G1 X0.4 Y200.0 Z0.3 F5000.0 ; Move to side a little
G1 X0.4 Y20 Z0.3 F1500.0 E30 ; Draw the second line
G92 E0 ; Reset Extruder
G1 Z2.0 F3000 ; Move Z Axis up little to prevent scratching of Heat Bed
G1 X5 Y20 Z0.3 F5000.0 ; Move over to prevent blob squish
G92 E0
G92 E0
G1 F1500 E-6.5
;LAYER_COUNT:138
;LAYER:0
M107
G0 F6000 X72.568 Y36.99 Z0.2
;TYPE:SKIRT
G1 F1500 E0
G1 F1200 X73.005 Y36.161 E0.03117
G1 X73.667 Y35.156 E0.0712
G1 X74.036 Y34.658 E0.09181
G1 X75.082 Y33.283 E0.14927
G1 X76.547 Y31.239 E0.23291
G1 X77.962 Y29.142 E0.31705
G1 X79.301 Y27.031 E0.4002
G1 X79.525 Y26.66 E0.41461
G1 X80.145 Y25.654 E0.45392
G1 X80.67 Y24.877 E0.48511
G1 X81.26 Y24.148 E0.5163
G1 X81.731 Y23.647 E0.53917
G1 X81.844 Y23.534 E0.54449
G1 X82.535 Y22.9 E0.57568
G1 X83.277 Y22.326 E0.60688
G1 X84.066 Y21.819 E0.63807
G1 X84.894 Y21.38 E0.66924
G1 X85.758 Y21.013 E0.70046
G1 X86.649 Y20.721 E0.73165
G1 X87.562 Y20.507 E0.76284
G1 X88.49 Y20.37 E0.79404
G1 X89.251 Y20.318 E0.81941
G1 X89.636 Y20.308 E0.83222
G1 X90.179 Y20.302 E0.85028
G1 X129.833 Y20.303 E2.16918
G1 X130.535 Y20.313 E2.19253
G1 X131.471 Y20.366 E2.22371
G1 X132.286 Y20.479 E2.25108
G1 X133.166 Y20.669 E2.28102
G1 X135.733 Y21.336 E2.36923
G1 X138.191 Y21.9 E2.45311
G1 X140.624 Y22.386 E2.53563
G1 X143.111 Y22.811 E2.61955
G1 X145.622 Y23.167 E2.7039
G1 X148.098 Y23.447 E2.78678
G1 X150.614 Y23.66 E2.87076
G1 X153.128 Y23.8 E2.9545
G1 X155.658 Y23.871 E3.03869
G1 X158.181 Y23.869 E3.1226
G1 X160.662 Y23.798 E3.20515
G1 X163.195 Y23.653 E3.28954
G1 X165.696 Y23.439 E3.37303
G1 X168.19 Y23.154 E3.45652
G1 X170.715 Y22.793 E3.54135
G1 X173.174 Y22.371 E3.62433
G1 X175.631 Y21.876 E3.7077
G1 X178.085 Y21.311 E3.79145
G1 X180.538 Y20.671 E3.87577
G1 X182.947 Y19.969 E3.95923
G1 X184.843 Y19.366 E4.0254
G1 X186.024 Y18.976 E4.06677
G1 X186.926 Y18.72 E4.09795
G1 X187.847 Y18.542 E4.12915
G1 X189.05 Y18.429 E4.16934
G1 X189.206 Y18.423 E4.17453
G1 X189.495 Y18.416 E4.18415
G1 X190.038 Y18.41 E4.20221
G1 X197.335 Y18.41 E4.44491
G1 X198.193 Y18.421 E4.47345
G1 X199.129 Y18.474 E4.50463
G1 X200.058 Y18.607 E4.53584
G1 X200.971 Y18.819 E4.56702
G1 X201.864 Y19.107 E4.59823
G1 X202.728 Y19.471 E4.62941
G1 X203.559 Y19.907 E4.66062
G1 X204.349 Y20.412 E4.69181
G1 X205.093 Y20.982 E4.72298
G1 X205.744 Y21.572 E4.7522
G1 X205.856 Y21.682 E4.75742
G1 X206.496 Y22.367 E4.7886
G1 X207.076 Y23.104 E4.81979
G1 X207.591 Y23.888 E4.85099
G1 X208.037 Y24.713 E4.88219
G1 X208.412 Y25.573 E4.91339
G1 X208.711 Y26.462 E4.94459
G1 X208.915 Y27.278 E4.97256
G1 X209.181 Y28.554 E5.01591
G1 X209.243 Y28.873 E5.02672
G1 X209.797 Y31.36 E5.11147
G1 X210.271 Y33.265 E5.17676
G1 X210.361 Y33.607 E5.18852
G1 X210.561 Y34.523 E5.21971
G1 X210.663 Y35.253 E5.24422
G1 X210.687 Y35.48 E5.25182
G1 X210.741 Y36.258 E5.27775
G1 X210.756 Y36.773 E5.29489
G1 X210.759 Y37.074 E5.3049
G1 X210.759 Y131.904 E8.45896
G1 X210.765 Y132.842 E8.49016
G1 X210.759 Y133.003 E8.49552
G1 X210.758 Y140.409 E8.74184
G1 X210.748 Y141.111 E8.76519
G1 X210.695 Y142.047 E8.79637
G1 X210.562 Y142.975 E8.82756
G1 X210.35 Y143.889 E8.85876
G1 X210.062 Y144.782 E8.88997
G1 X209.698 Y145.646 E8.92115
G1 X209.262 Y146.477 E8.95237
G1 X208.757 Y147.267 E8.98355
G1 X208.187 Y148.011 E9.01472
G1 X207.597 Y148.662 E9.04395
G1 X207.487 Y148.774 E9.04917
G1 X206.802 Y149.414 E9.08035
G1 X206.065 Y149.994 E9.11154
G1 X205.281 Y150.509 E9.14274
G1 X204.456 Y150.955 E9.17393
G1 X203.596 Y151.33 E9.20514
G1 X202.707 Y151.629 E9.23633
G1 X201.796 Y151.852 E9.26753
G1 X200.87 Y151.997 E9.2987
G1 X200.008 Y152.06 E9.32745
G1 X199.615 Y152.07 E9.34052
G1 X198.957 Y152.078 E9.36241
G1 X196.26 Y152.145 E9.45214
G1 X194.066 Y152.258 E9.52521
G1 X193.334 Y152.305 E9.54961
G1 X192.871 Y152.325 E9.56502
G1 X192.623 Y152.331 E9.57327
G1 X192.078 Y152.337 E9.5914
G1 X167.734 Y152.338 E10.40108
G1 X165.125 Y152.375 E10.48787
G1 X162.604 Y152.482 E10.57179
G1 X160.121 Y152.658 E10.65458
G1 X157.601 Y152.909 E10.73881
G1 X155.098 Y153.229 E10.82274
G1 X152.637 Y153.615 E10.9056
G1 X150.13 Y154.081 E10.99041
G1 X147.675 Y154.61 E11.07393
G1 X145.272 Y155.199 E11.15622
G1 X142.787 Y155.883 E11.24195
G1 X141.186 Y156.374 E11.29765
G1 X140.571 Y156.553 E11.31895
G1 X139.66 Y156.776 E11.35015
G1 X138.446 Y156.95 E11.39094
G1 X137.753 Y157.01 E11.41407
G1 X135.126 Y157.274 E11.50189
G1 X132.686 Y157.589 E11.58371
G1 X130.164 Y157.987 E11.66863
G1 X127.677 Y158.453 E11.75279
G1 X125.24 Y158.981 E11.83573
G1 X122.836 Y159.572 E11.91807
G1 X120.357 Y160.258 E12.00362
G1 X117.945 Y161 E12.08755
G1 X115.605 Y161.792 E12.16972
G1 X112.546 Y162.936 E12.27834
G1 X111.803 Y163.228 E12.30489
G1 X110.917 Y163.534 E12.33607
G1 X110.007 Y163.763 E12.36728
G1 X109.081 Y163.914 E12.39849
G1 X108.148 Y163.985 E12.42961
G1 X107.764 Y163.995 E12.44238
G1 X107.221 Y164.001 E12.46044
G1 X84.767 Y164 E13.20727
G1 X84.066 Y163.99 E13.23058
G1 X83.13 Y163.937 E13.26177
G1 X82.201 Y163.804 E13.29298
G1 X81.288 Y163.592 E13.32415
G1 X80.395 Y163.304 E13.35536
G1 X79.531 Y162.94 E13.38655
G1 X78.7 Y162.504 E13.41776
G1 X77.91 Y161.999 E13.44894
G1 X77.166 Y161.429 E13.48012
G1 X76.411 Y160.735 E13.51422
G1 X76.298 Y160.621 E13.51956
G1 X75.666 Y159.927 E13.55078
G1 X75.097 Y159.182 E13.58196
G1 X74.592 Y158.392 E13.61315
G1 X74.157 Y157.561 E13.64434
G1 X73.794 Y156.696 E13.67554
G1 X73.506 Y155.803 E13.70675
G1 X73.343 Y155.13 E13.72978
G1 X73.086 Y153.901 E13.77154
G1 X72.512 Y151.33 E13.85916
G1 X72.066 Y149.54 E13.92052
G1 X71.873 Y148.808 E13.9457
G1 X71.673 Y147.892 E13.97688
G1 X71.552 Y146.962 E14.00807
G1 X71.515 Y146.328 E14.0292
G1 X71.505 Y145.989 E14.04048
G1 X71.5 Y145.665 E14.05125
G1 X71.501 Y46.422 E17.35209
G1 X71.503 Y46.303 E17.35605
G1 X71.497 Y44.223 E17.42523
G1 X71.501 Y42.229 E17.49155
G1 X71.512 Y41.524 E17.515
G1 X71.567 Y40.588 E17.54619
G1 X71.701 Y39.66 E17.57737
G1 X71.914 Y38.746 E17.60859
G1 X72.204 Y37.854 E17.63978
G1 X72.568 Y36.99 E17.67097
G0 F6000 X72.966 Y37.085
G1 F1200 X73.402 Y36.274 E17.70159
G1 X73.988 Y35.394 E17.73675
G1 X74.354 Y34.9 E17.7572
G1 X75.409 Y33.512 E17.81519
G1 X76.871 Y31.473 E17.89864
G1 X78.304 Y29.35 E17.98383
G1 X79.65 Y27.228 E18.06741
G1 X79.865 Y26.87 E18.0813
G1 X80.485 Y25.864 E18.1206
G1 X81.002 Y25.102 E18.15123
G1 X81.583 Y24.387 E18.18187
G1 X82.014 Y23.93 E18.20277
G1 X82.127 Y23.817 E18.20808
G1 X82.805 Y23.195 E18.23868
G1 X83.535 Y22.634 E18.2693
G1 X84.311 Y22.138 E18.29994
G1 X85.127 Y21.712 E18.33055
G1 X85.977 Y21.358 E18.36118
G1 X86.855 Y21.08 E18.39181
G1 X87.753 Y20.878 E18.42242
G1 X88.666 Y20.755 E18.45306
G1 X89.264 Y20.718 E18.47299
G1 X89.64 Y20.708 E18.4855
G1 X90.179 Y20.702 E18.50343
G1 X129.827 Y20.703 E19.82213
G1 X130.529 Y20.713 E19.84548
G1 X131.448 Y20.766 E19.8761
G1 X132.217 Y20.873 E19.90192
G1 X133.066 Y21.056 E19.9308
G1 X135.648 Y21.727 E20.01954
G1 X138.095 Y22.288 E20.10303
G1 X140.556 Y22.78 E20.18651
G1 X143.053 Y23.207 E20.27076
G1 X145.557 Y23.562 E20.35488
G1 X148.09 Y23.848 E20.43966
G1 X150.591 Y24.06 E20.52314
G1 X153.095 Y24.2 E20.60656
G1 X155.647 Y24.271 E20.69147
G1 X158.158 Y24.269 E20.77499
G1 X160.694 Y24.196 E20.85937
G1 X163.253 Y24.05 E20.94462
G1 X165.743 Y23.837 E21.02774
G1 X168.216 Y23.554 E21.11053
G1 X170.773 Y23.189 E21.19644
G1 X173.249 Y22.763 E21.28
G1 X175.728 Y22.265 E21.3641
G1 X178.171 Y21.702 E21.44748
G1 X180.646 Y21.056 E21.53256
G1 X183.091 Y20.344 E21.61726
G1 X184.91 Y19.765 E21.68075
G1 X186.149 Y19.356 E21.72415
G1 X187.035 Y19.105 E21.75478
G1 X187.939 Y18.933 E21.78538
G1 X189.066 Y18.829 E21.82303
G1 X189.499 Y18.816 E21.83743
G1 X190.038 Y18.81 E21.85536
G1 X197.335 Y18.81 E22.09806
G1 X198.187 Y18.821 E22.1264
G1 X199.106 Y18.874 E22.15702
G1 X200.017 Y19.007 E22.18764
G1 X200.913 Y19.218 E22.21826
G1 X201.788 Y19.506 E22.24889
G1 X202.634 Y19.869 E22.27951
G1 X203.445 Y20.304 E22.31012
G1 X204.216 Y20.808 E22.34076
G1 X204.94 Y21.377 E22.37139
G1 X205.464 Y21.857 E22.39502
G1 X205.576 Y21.967 E22.40024
G1 X206.204 Y22.64 E22.43086
G1 X206.771 Y23.365 E22.46147
G1 X207.274 Y24.137 E22.49212
G1 X207.707 Y24.949 E22.52272
G1 X208.069 Y25.796 E22.55336
G1 X208.355 Y26.671 E22.58398
G1 X208.523 Y27.36 E22.60757
G1 X208.788 Y28.63 E22.65072
G1 X208.853 Y28.964 E22.66203
G1 X209.4 Y31.423 E22.74582
G1 X209.888 Y33.382 E22.81297
G1 X209.974 Y33.708 E22.82418
G1 X210.17 Y34.608 E22.85482
G1 X210.265 Y35.296 E22.87792
G1 X210.289 Y35.523 E22.88551
G1 X210.342 Y36.272 E22.91048
G1 X210.351 Y36.533 E22.91917
G1 X210.358 Y36.954 E22.93317
G1 X210.359 Y131.904 E26.09122
G1 X210.365 Y132.845 E26.12252
G1 X210.359 Y133.003 E26.12778
G1 X210.358 Y140.403 E26.3739
G1 X210.348 Y141.105 E26.39726
G1 X210.295 Y142.024 E26.42787
G1 X210.162 Y142.935 E26.45849
G1 X209.951 Y143.831 E26.48911
G1 X209.663 Y144.706 E26.51975
G1 X209.3 Y145.552 E26.55037
G1 X208.865 Y146.363 E26.58098
G1 X208.361 Y147.134 E26.61161
G1 X207.793 Y147.858 E26.64222
G1 X207.312 Y148.382 E26.66588
G1 X207.202 Y148.494 E26.6711
G1 X206.529 Y149.122 E26.70171
G1 X205.804 Y149.689 E26.73233
G1 X205.032 Y150.192 E26.76297
G1 X204.22 Y150.625 E26.79358
G1 X203.373 Y150.987 E26.82422
G1 X202.498 Y151.273 E26.85483
G1 X201.602 Y151.483 E26.88544
G1 X200.69 Y151.614 E26.91609
G1 X199.995 Y151.66 E26.93925
G1 X199.611 Y151.67 E26.95203
G1 X198.942 Y151.678 E26.97428
G1 X196.267 Y151.745 E27.06328
G1 X193.944 Y151.864 E27.14065
G1 X193.309 Y151.905 E27.16181
G1 X193.001 Y151.921 E27.17207
G1 X192.618 Y151.931 E27.18481
G1 X192.078 Y151.937 E27.20277
G1 X167.728 Y151.938 E28.01266
G1 X165.102 Y151.975 E28.10001
G1 X162.594 Y152.082 E28.1835
G1 X160.09 Y152.259 E28.26699
G1 X157.547 Y152.512 E28.35199
G1 X155.052 Y152.831 E28.43565
G1 X152.533 Y153.226 E28.52045
G1 X150.084 Y153.682 E28.60331
G1 X147.602 Y154.217 E28.68776
G1 X145.143 Y154.819 E28.77196
G1 X142.701 Y155.492 E28.85621
G1 X141.074 Y155.99 E28.9128
G1 X140.459 Y156.169 E28.9341
G1 X139.565 Y156.387 E28.96471
G1 X138.412 Y156.551 E29.00344
G1 X137.748 Y156.609 E29.02561
G1 X135.107 Y156.874 E29.11389
G1 X132.575 Y157.201 E29.19881
G1 X130.134 Y157.586 E29.281
G1 X127.618 Y158.058 E29.36614
G1 X125.139 Y158.595 E29.45051
G1 X122.698 Y159.195 E29.53411
G1 X120.247 Y159.873 E29.61869
G1 X117.837 Y160.614 E29.70255
G1 X115.463 Y161.417 E29.78591
G1 X112.44 Y162.548 E29.89326
G1 X111.657 Y162.856 E29.92124
G1 X110.786 Y163.155 E29.95187
G1 X109.893 Y163.378 E29.98249
G1 X108.984 Y163.522 E30.0131
G1 X108.135 Y163.585 E30.04141
G1 X107.76 Y163.595 E30.05389
G1 X107.221 Y163.601 E30.07182
G1 X84.773 Y163.6 E30.81844
G1 X84.072 Y163.59 E30.84176
G1 X83.153 Y163.537 E30.87238
G1 X82.242 Y163.404 E30.903
G1 X81.346 Y163.193 E30.93361
G1 X80.471 Y162.905 E30.96425
G1 X79.625 Y162.542 E30.99487
G1 X78.814 Y162.107 E31.02548
G1 X78.043 Y161.603 E31.05612
G1 X77.319 Y161.034 E31.08674
G1 X76.695 Y160.453 E31.1151
G1 X76.582 Y160.339 E31.12044
G1 X75.963 Y159.658 E31.15105
G1 X75.405 Y158.925 E31.18169
G1 X74.913 Y158.147 E31.21231
G1 X74.49 Y157.329 E31.24293
G1 X74.14 Y156.478 E31.27354
G1 X73.865 Y155.599 E31.30417
G1 X73.735 Y155.048 E31.323
G1 X73.476 Y153.81 E31.36507
G1 X72.909 Y151.268 E31.45169
G1 X72.442 Y149.396 E31.51587
G1 X72.26 Y148.706 E31.5396
G1 X72.064 Y147.807 E31.5702
G1 X71.947 Y146.894 E31.60082
G1 X71.915 Y146.317 E31.62004
G1 X71.905 Y145.978 E31.63132
G1 X71.9 Y145.665 E31.64173
G1 X71.901 Y46.428 E34.94237
G1 X71.903 Y46.308 E34.94636
G1 X71.897 Y44.224 E35.01567
G1 X71.901 Y42.236 E35.08179
G1 X71.912 Y41.531 E35.10524
G1 X71.967 Y40.612 E35.13587
G1 X72.1 Y39.701 E35.16649
G1 X72.313 Y38.805 E35.19712
G1 X72.602 Y37.931 E35.22774
G1 X72.966 Y37.085 E35.25837
G0 F6000 X73.364 Y37.182
G1 F1200 X73.799 Y36.391 E35.28839
G1 X74.31 Y35.631 E35.31885
G1 X74.672 Y35.143 E35.33906
G1 X75.724 Y33.759 E35.39688
G1 X77.212 Y31.684 E35.48181
G1 X78.624 Y29.591 E35.56578
G1 X79.987 Y27.442 E35.65042
G1 X80.206 Y27.079 E35.66452
G1 X80.826 Y26.073 E35.70383
G1 X81.333 Y25.326 E35.73385
G1 X81.905 Y24.627 E35.76389
G1 X82.297 Y24.213 E35.78286
G1 X82.41 Y24.1 E35.78817
G1 X83.076 Y23.49 E35.81821
G1 X83.793 Y22.941 E35.84825
G1 X84.557 Y22.459 E35.87829
G1 X85.36 Y22.045 E35.90834
G1 X86.196 Y21.705 E35.93836
G1 X87.059 Y21.439 E35.96839
G1 X87.942 Y21.251 E35.99842
G1 X89.278 Y21.118 E36.04308
G1 X89.645 Y21.108 E36.05529
G1 X90.179 Y21.102 E36.07305
G1 X129.821 Y21.103 E37.39155
G1 X130.523 Y21.113 E37.4149
G1 X131.425 Y21.166 E37.44495
G1 X132.149 Y21.267 E37.46926
G1 X132.965 Y21.444 E37.49704
G1 X135.489 Y22.1 E37.58377
G1 X138.04 Y22.685 E37.67082
G1 X140.476 Y23.172 E37.75345
G1 X143.006 Y23.604 E37.83881
G1 X145.523 Y23.961 E37.92337
G1 X148.01 Y24.242 E38.00661
G1 X150.572 Y24.459 E38.09213
G1 X153.098 Y24.6 E38.17627
G1 X155.636 Y24.671 E38.26072
G1 X158.169 Y24.669 E38.34497
G1 X160.729 Y24.596 E38.43015
G1 X163.239 Y24.452 E38.51377
G1 X165.786 Y24.234 E38.59879
G1 X168.286 Y23.948 E38.68249
G1 X170.82 Y23.586 E38.76762
G1 X173.33 Y23.155 E38.85233
G1 X175.817 Y22.655 E38.9367
G1 X178.264 Y22.091 E39.02022
G1 X180.761 Y21.439 E39.10606
G1 X183.21 Y20.726 E39.19089
G1 X184.978 Y20.163 E39.25261
G1 X186.274 Y19.735 E39.298
G1 X187.144 Y19.491 E39.32805
G1 X188.031 Y19.323 E39.35808
G1 X189.081 Y19.229 E39.39314
G1 X189.504 Y19.216 E39.40722
G1 X190.038 Y19.21 E39.42498
G1 X197.335 Y19.21 E39.66768
G1 X198.181 Y19.221 E39.69582
G1 X199.083 Y19.274 E39.72587
G1 X199.976 Y19.406 E39.7559
G1 X200.855 Y19.617 E39.78596
G1 X201.711 Y19.905 E39.816
G1 X202.538 Y20.267 E39.84603
G1 X203.33 Y20.701 E39.87607
G1 X204.08 Y21.204 E39.9061
G1 X204.783 Y21.771 E39.93614
G1 X205.183 Y22.143 E39.95431
G1 X205.295 Y22.253 E39.95953
G1 X205.911 Y22.914 E39.98958
G1 X206.466 Y23.626 E40.01961
G1 X206.955 Y24.385 E40.04964
G1 X207.376 Y25.184 E40.07968
G1 X207.724 Y26.017 E40.1097
G1 X207.997 Y26.878 E40.13974
G1 X208.132 Y27.442 E40.15903
G1 X208.395 Y28.706 E40.20197
G1 X208.456 Y29.021 E40.21265
G1 X209.014 Y31.528 E40.29807
G1 X209.506 Y33.501 E40.3657
G1 X209.587 Y33.81 E40.37633
G1 X209.778 Y34.693 E40.40637
G1 X209.867 Y35.338 E40.42803
G1 X209.891 Y35.565 E40.43562
G1 X209.942 Y36.285 E40.45963
G1 X209.951 Y36.546 E40.46832
G1 X209.958 Y36.958 E40.48202
G1 X209.959 Y131.904 E43.63994
G1 X209.965 Y132.847 E43.6713
G1 X209.959 Y133.002 E43.67646
G1 X209.958 Y140.397 E43.92242
G1 X209.948 Y141.099 E43.94577
G1 X209.895 Y142.001 E43.97582
G1 X209.763 Y142.894 E44.00585
G1 X209.552 Y143.772 E44.03588
G1 X209.264 Y144.628 E44.06592
G1 X208.902 Y145.456 E44.09598
G1 X208.468 Y146.248 E44.12601
G1 X207.965 Y146.998 E44.15605
G1 X207.399 Y147.701 E44.18607
G1 X207.026 Y148.101 E44.20426
G1 X206.916 Y148.213 E44.20948
G1 X206.255 Y148.829 E44.23953
G1 X205.543 Y149.384 E44.26956
G1 X204.784 Y149.873 E44.29959
G1 X203.985 Y150.294 E44.32963
G1 X203.152 Y150.642 E44.35965
G1 X202.291 Y150.915 E44.38969
G1 X201.409 Y151.111 E44.41975
G1 X200.514 Y151.228 E44.44977
G1 X199.981 Y151.26 E44.46753
G1 X199.606 Y151.27 E44.48
G1 X198.928 Y151.278 E44.50256
G1 X196.237 Y151.345 E44.59209
