;FLAVOR:Marlin
;TIME:855
;Filament used: 0.496766m
;Layer height: 0.2
;MINX:96
;MINY:88.074
;MINZ:0.2
;MAXX:124
;MAXY:165.046
;MAXZ:4.8
;Generated with Cura_SteamEngine 4.8.0
M140 S60
M105
M190 S60
M104 S200
M105
M109 S200
M82 ;absolute extrusion mode
; Ender 3 Custom Start G-code
G92 E0 ; Reset Extruder
G28 ; Home all axes
G1 Z2.0 F3000 ; Move Z Axis up little to prevent scratching of Heat Bed
G1 X0.1 Y20 Z0.3 F5000.0 ; Move to start position
G1 X0.1 Y200.0 Z0.3 F1500.0 E15 ; Draw the first line
G1 X0.4 Y200.0 Z0.3 F5000.0 ; Move to side a little
G1 X0.4 Y20 Z0.3 F1500.0 E30 ; Draw the second line
G92 E0 ; Reset Extruder
G1 Z2.0 F3000 ; Move Z Axis up little to prevent scratching of Heat Bed
G1 X5 Y20 Z0.3 F5000.0 ; Move over to prevent blob squish
G92 E0
G92 E0
G1 F1500 E-6.5
;LAYER_COUNT:24
;LAYER:0
M107
G0 F6000 X99.198 Y91.338 Z0.2
;TYPE:SKIRT
G1 F1500 E0
G1 F1200 X99.886 Y90.701 E0.03119
G1 X100.626 Y90.125 E0.06237
G1 X101.412 Y89.613 E0.09357
G1 X102.239 Y89.171 E0.12476
G1 X103.101 Y88.801 E0.15596
G1 X103.991 Y88.505 E0.18716
G1 X104.903 Y88.287 E0.21835
G1 X105.83 Y88.146 E0.24953
G1 X106.701 Y88.087 E0.27857
G1 X107.022 Y88.078 E0.28925
G1 X107.33 Y88.074 E0.29949
G1 X112.293 Y88.074 E0.46456
G1 X113.149 Y88.085 E0.49304
G1 X114.085 Y88.139 E0.52422
G1 X115.013 Y88.271 E0.5554
G1 X115.927 Y88.483 E0.5866
G1 X116.819 Y88.772 E0.61779
G1 X117.684 Y89.135 E0.64899
G1 X118.514 Y89.571 E0.68017
G1 X119.305 Y90.076 E0.71139
G1 X120.049 Y90.647 E0.74258
G1 X120.742 Y91.279 E0.77378
G1 X121.379 Y91.967 E0.80496
G1 X121.954 Y92.708 E0.83616
G1 X122.465 Y93.494 E0.86734
G1 X122.907 Y94.322 E0.89855
G1 X123.276 Y95.184 E0.92974
G1 X123.571 Y96.074 E0.96093
G1 X123.789 Y96.986 E0.99211
G1 X123.929 Y97.914 E1.02333
G1 X123.987 Y98.775 E1.05203
G1 X123.996 Y99.095 E1.06268
G1 X124 Y99.404 E1.07296
G1 X123.999 Y153.446 E2.8704
G1 X123.99 Y154.173 E2.89458
G1 X123.939 Y155.11 E2.92579
G1 X123.807 Y156.038 E2.95697
G1 X123.598 Y156.952 E2.98815
G1 X123.311 Y157.845 E3.01935
G1 X122.949 Y158.711 E3.05057
G1 X122.515 Y159.542 E3.08175
G1 X122.011 Y160.333 E3.11295
G1 X121.442 Y161.078 E3.14413
G1 X120.811 Y161.773 E3.17535
G1 X120.124 Y162.411 E3.20653
G1 X119.385 Y162.988 E3.23772
G1 X118.599 Y163.5 E3.26892
G1 X117.773 Y163.943 E3.30009
G1 X116.911 Y164.315 E3.33132
G1 X116.022 Y164.611 E3.36248
G1 X115.11 Y164.831 E3.39368
G1 X114.183 Y164.972 E3.42487
G1 X113.299 Y165.033 E3.45434
G1 X112.978 Y165.042 E3.46502
G1 X112.67 Y165.046 E3.47527
G1 X107.565 Y165.045 E3.64506
G1 X106.867 Y165.036 E3.66828
G1 X105.931 Y164.984 E3.69946
G1 X105.002 Y164.852 E3.73067
G1 X104.088 Y164.642 E3.76186
G1 X103.195 Y164.355 E3.79306
G1 X102.33 Y163.992 E3.82426
G1 X101.499 Y163.558 E3.85544
G1 X100.708 Y163.054 E3.88663
G1 X99.963 Y162.484 E3.91783
G1 X99.269 Y161.853 E3.94903
G1 X98.632 Y161.166 E3.98019
G1 X98.055 Y160.426 E4.0114
G1 X97.543 Y159.64 E4.0426
G1 X97.1 Y158.813 E4.0738
G1 X96.729 Y157.952 E4.10499
G1 X96.433 Y157.062 E4.13618
G1 X96.214 Y156.15 E4.16738
G1 X96.073 Y155.223 E4.19857
G1 X96.013 Y154.334 E4.2282
G1 X96.004 Y154.001 E4.23928
G1 X96 Y153.704 E4.24916
G1 X96.001 Y99.599 E6.0487
G1 X96.01 Y98.934 E6.07082
G1 X96.063 Y97.998 E6.102
G1 X96.195 Y97.069 E6.13321
G1 X96.406 Y96.155 E6.16441
G1 X96.694 Y95.263 E6.19559
G1 X97.057 Y94.398 E6.22679
G1 X97.492 Y93.567 E6.25798
G1 X97.996 Y92.777 E6.28915
G1 X98.566 Y92.032 E6.32035
G1 X99.198 Y91.338 E6.35157
G0 F6000 X99.589 Y91.513
G1 F1200 X100.274 Y90.897 E6.38221
G1 X101.01 Y90.344 E6.41283
G1 X101.791 Y89.856 E6.44346
G1 X102.611 Y89.438 E6.47407
G1 X103.465 Y89.093 E6.50471
G1 X104.345 Y88.823 E6.53532
G1 X105.245 Y88.631 E6.56593
G1 X106.159 Y88.517 E6.59656
G1 X106.712 Y88.487 E6.61498
G1 X107.033 Y88.478 E6.62567
G1 X107.33 Y88.474 E6.63554
G1 X112.293 Y88.474 E6.80061
G1 X113.143 Y88.485 E6.82889
G1 X114.062 Y88.538 E6.8595
G1 X114.973 Y88.671 E6.89013
G1 X115.869 Y88.882 E6.92074
G1 X116.743 Y89.17 E6.95135
G1 X117.59 Y89.533 E6.982
G1 X118.401 Y89.968 E7.01261
G1 X119.171 Y90.472 E7.04322
G1 X119.895 Y91.041 E7.07384
G1 X120.567 Y91.671 E7.10448
G1 X121.182 Y92.356 E7.1351
G1 X121.735 Y93.092 E7.16572
G1 X122.222 Y93.873 E7.19633
G1 X122.639 Y94.694 E7.22696
G1 X122.984 Y95.548 E7.25759
G1 X123.253 Y96.428 E7.2882
G1 X123.445 Y97.329 E7.31884
G1 X123.558 Y98.242 E7.34944
G1 X123.587 Y98.786 E7.36756
G1 X123.596 Y99.106 E7.3782
G1 X123.6 Y99.404 E7.38812
G1 X123.599 Y153.441 E9.18539
G1 X123.59 Y154.168 E9.20958
G1 X123.539 Y155.087 E9.24019
G1 X123.408 Y155.999 E9.27083
G1 X123.198 Y156.895 E9.30144
G1 X122.912 Y157.77 E9.33206
G1 X122.551 Y158.617 E9.36268
G1 X122.117 Y159.429 E9.39331
G1 X121.615 Y160.201 E9.42393
G1 X121.047 Y160.926 E9.45457
G1 X120.419 Y161.599 E9.48518
G1 X119.735 Y162.215 E9.5158
G1 X119 Y162.769 E9.54641
G1 X118.22 Y163.258 E9.57703
G1 X117.4 Y163.677 E9.60766
G1 X116.547 Y164.023 E9.63827
G1 X115.667 Y164.294 E9.6689
G1 X114.767 Y164.487 E9.69951
G1 X113.853 Y164.602 E9.73015
G1 X113.288 Y164.633 E9.74897
G1 X112.967 Y164.642 E9.75965
G1 X112.67 Y164.646 E9.76953
G1 X107.57 Y164.645 E9.93916
G1 X106.872 Y164.636 E9.96238
G1 X105.953 Y164.584 E9.99299
G1 X105.042 Y164.453 E10.0236
G1 X104.146 Y164.243 E10.05421
G1 X103.271 Y163.956 E10.08484
G1 X102.424 Y163.594 E10.11548
G1 X101.612 Y163.16 E10.1461
G1 X100.841 Y162.658 E10.1767
G1 X100.116 Y162.09 E10.20733
G1 X99.443 Y161.461 E10.23797
G1 X98.828 Y160.777 E10.26856
G1 X98.274 Y160.042 E10.29918
G1 X97.786 Y159.261 E10.32981
G1 X97.367 Y158.441 E10.36044
G1 X97.021 Y157.588 E10.39105
G1 X96.751 Y156.708 E10.42167
G1 X96.558 Y155.807 E10.45231
G1 X96.444 Y154.894 E10.48292
G1 X96.413 Y154.323 E10.50194
G1 X96.404 Y153.99 E10.51302
G1 X96.4 Y153.704 E10.52253
G1 X96.401 Y99.605 E12.32187
G1 X96.41 Y98.94 E12.34399
G1 X96.462 Y98.02 E12.37464
G1 X96.594 Y97.109 E12.40525
G1 X96.805 Y96.213 E12.43587
G1 X97.092 Y95.338 E12.4665
G1 X97.455 Y94.492 E12.49712
G1 X97.889 Y93.68 E12.52774
G1 X98.392 Y92.909 E12.55836
G1 X98.961 Y92.185 E12.58899
G1 X99.589 Y91.513 E12.61958
G0 F6000 X99.981 Y91.691
G1 F1200 X100.662 Y91.098 E12.64961
G1 X101.394 Y90.568 E12.67967
G1 X102.169 Y90.105 E12.70969
G1 X102.982 Y89.712 E12.73973
G1 X103.827 Y89.392 E12.76978
G1 X104.696 Y89.149 E12.79979
G1 X105.584 Y88.983 E12.82984
G1 X106.723 Y88.887 E12.86786
G1 X107.044 Y88.878 E12.87854
G1 X107.33 Y88.874 E12.88805
G1 X112.293 Y88.874 E13.05312
G1 X113.137 Y88.885 E13.0812
G1 X114.039 Y88.938 E13.11125
G1 X114.932 Y89.07 E13.14127
G1 X115.81 Y89.281 E13.17131
G1 X116.666 Y89.569 E13.20134
G1 X117.493 Y89.931 E13.23137
G1 X118.285 Y90.366 E13.26142
G1 X119.036 Y90.868 E13.29147
G1 X119.739 Y91.435 E13.32151
G1 X120.389 Y92.062 E13.35155
G1 X120.981 Y92.744 E13.38158
G1 X121.511 Y93.475 E13.41161
G1 X121.973 Y94.251 E13.44165
G1 X122.366 Y95.064 E13.47169
G1 X122.684 Y95.909 E13.50172
G1 X122.927 Y96.779 E13.53176
G1 X123.092 Y97.667 E13.5618
G1 X123.187 Y98.797 E13.59952
G1 X123.196 Y99.117 E13.61016
G1 X123.2 Y99.404 E13.61971
G1 X123.199 Y153.436 E15.41682
G1 X123.19 Y154.163 E15.441
G1 X123.139 Y155.065 E15.47105
G1 X123.008 Y155.959 E15.5011
G1 X122.799 Y156.837 E15.53112
G1 X122.513 Y157.694 E15.56117
G1 X122.152 Y158.522 E15.59122
G1 X121.72 Y159.314 E15.62122
G1 X121.219 Y160.066 E15.65128
G1 X120.653 Y160.77 E15.68132
G1 X120.028 Y161.421 E15.71134
G1 X119.347 Y162.015 E15.74139
G1 X118.616 Y162.546 E15.77144
G1 X117.842 Y163.01 E15.80146
G1 X117.029 Y163.404 E15.83151
G1 X116.185 Y163.724 E15.86153
G1 X115.315 Y163.969 E15.89159
G1 X114.428 Y164.135 E15.9216
G1 X113.277 Y164.233 E15.96002
G1 X112.956 Y164.242 E15.9707
G1 X112.67 Y164.246 E15.98022
G1 X107.575 Y164.245 E16.14968
G1 X106.877 Y164.236 E16.1729
G1 X105.976 Y164.185 E16.20291
G1 X105.082 Y164.053 E16.23297
G1 X104.204 Y163.844 E16.26299
G1 X103.347 Y163.557 E16.29305
G1 X102.52 Y163.196 E16.32306
G1 X101.727 Y162.763 E16.35311
G1 X100.976 Y162.262 E16.38314
G1 X100.272 Y161.696 E16.41318
G1 X99.621 Y161.07 E16.44322
G1 X99.028 Y160.389 E16.47325
G1 X98.498 Y159.658 E16.50328
G1 X98.034 Y158.883 E16.53333
G1 X97.64 Y158.07 E16.56338
G1 X97.32 Y157.226 E16.5934
G1 X97.076 Y156.356 E16.62345
G1 X96.91 Y155.468 E16.6535
G1 X96.813 Y154.313 E16.69205
G1 X96.804 Y153.98 E16.70313
G1 X96.8 Y153.704 E16.71231
G1 X96.801 Y99.61 E18.51148
G1 X96.81 Y98.945 E18.5336
G1 X96.862 Y98.043 E18.56365
G1 X96.994 Y97.15 E18.59368
G1 X97.204 Y96.272 E18.6237
G1 X97.491 Y95.415 E18.65376
G1 X97.853 Y94.588 E18.68379
G1 X98.286 Y93.796 E18.71381
G1 X98.788 Y93.045 E18.74385
G1 X99.355 Y92.341 E18.77392
G1 X99.981 Y91.691 E18.80393
G1 F1500 E12.30393
;MESH:J89.STL
G0 F6000 X107.42 Y98.409
G0 X107.42 Y99.494
G0 X107.782 Y153.264
G0 X112.4 Y153.446
;TYPE:WALL-INNER
G1 F1500 E18.80393
G1 F1200 X107.6 Y153.446 E18.96358
G1 X107.6 Y99.674 E20.75205
G1 X112.4 Y99.674 E20.9117
G1 X112.4 Y153.446 E22.70016
G0 F6000 X112.8 Y153.846
;TYPE:WALL-OUTER
G1 F1200 X107.2 Y153.846 E22.88642
G1 X107.2 Y99.274 E24.70149
G1 X112.8 Y99.274 E24.88775
G1 X112.8 Y153.846 E26.70282
G0 F6000 X112.53 Y153.576
G0 X112.29 Y153.056
G0 X112.01 Y153.056
;TYPE:SKIN
G1 F1200 X107.99 Y153.056 E26.83652
G1 X107.99 Y100.064 E28.59904
G1 X112.01 Y100.064 E28.73275
G1 X112.01 Y153.056 E30.49527
G0 F6000 X112.29 Y153.056
G0 X108.205 Y153.336
G0 X108.205 Y152.894
G1 F1200 X108.149 Y152.838 E30.49791
G0 F6000 X108.149 Y152.272
G1 F1200 X108.771 Y152.894 E30.52716
G0 F6000 X109.337 Y152.894
G1 F1200 X108.149 Y151.706 E30.58304
G0 F6000 X108.149 Y151.141
G1 F1200 X109.902 Y152.894 E30.6655
G0 F6000 X110.468 Y152.894
G1 F1200 X108.149 Y150.575 E30.77458
G0 F6000 X108.149 Y150.009
G1 F1200 X111.034 Y152.894 E30.91028
G0 F6000 X111.599 Y152.894
G1 F1200 X108.149 Y149.444 E31.07256
G0 F6000 X108.149 Y148.878
G1 F1200 X111.85 Y152.579 E31.24664
G0 F6000 X111.85 Y152.013
G1 F1200 X108.149 Y148.312 E31.42072
G0 F6000 X108.149 Y147.747
G1 F1200 X111.85 Y151.448 E31.59481
G0 F6000 X111.85 Y150.882
G1 F1200 X108.149 Y147.181 E31.76889
G0 F6000 X108.149 Y146.615
G1 F1200 X111.85 Y150.316 E31.94297
G0 F6000 X111.85 Y149.751
G1 F1200 X108.149 Y146.05 E32.11706
G0 F6000 X108.149 Y145.484
G1 F1200 X111.85 Y149.185 E32.29114
G0 F6000 X111.85 Y148.619
G1 F1200 X108.149 Y144.918 E32.46523
G0 F6000 X108.149 Y144.353
G1 F1200 X111.85 Y148.054 E32.63931
G0 F6000 X111.85 Y147.488
G1 F1200 X108.149 Y143.787 E32.81339
G0 F6000 X108.149 Y143.221
G1 F1200 X111.85 Y146.922 E32.98748
G0 F6000 X111.85 Y146.356
G1 F1200 X108.149 Y142.655 E33.16156
G0 F6000 X108.149 Y142.09
G1 F1200 X111.85 Y145.791 E33.33564
G0 F6000 X111.85 Y145.225
G1 F1200 X108.149 Y141.524 E33.50973
G0 F6000 X108.149 Y140.958
G1 F1200 X111.85 Y144.659 E33.68381
G0 F6000 X111.85 Y144.094
G1 F1200 X108.149 Y140.393 E33.85789
G0 F6000 X108.149 Y139.827
G1 F1200 X111.85 Y143.528 E34.03198
G0 F6000 X111.85 Y142.962
G1 F1200 X108.149 Y139.261 E34.20606
G0 F6000 X108.149 Y138.696
G1 F1200 X111.85 Y142.397 E34.38015
G0 F6000 X111.85 Y141.831
G1 F1200 X108.149 Y138.13 E34.55423
G0 F6000 X108.149 Y137.564
G1 F1200 X111.85 Y141.265 E34.72831
G0 F6000 X111.85 Y140.7
G1 F1200 X108.149 Y136.999 E34.9024
G0 F6000 X108.149 Y136.433
G1 F1200 X111.85 Y140.134 E35.07648
G0 F6000 X111.85 Y139.568
G1 F1200 X108.149 Y135.867 E35.25056
G0 F6000 X108.149 Y135.302
G1 F1200 X111.85 Y139.003 E35.42465
G0 F6000 X111.85 Y138.437
G1 F1200 X108.149 Y134.736 E35.59873
G0 F6000 X108.149 Y134.17
G1 F1200 X111.85 Y137.871 E35.77282
G0 F6000 X111.85 Y137.305
G1 F1200 X108.149 Y133.604 E35.9469
G0 F6000 X108.149 Y133.039
G1 F1200 X111.85 Y136.74 E36.12098
G0 F6000 X111.85 Y136.174
G1 F1200 X108.149 Y132.473 E36.29507
G0 F6000 X108.149 Y131.907
G1 F1200 X111.85 Y135.608 E36.46915
G0 F6000 X111.85 Y135.043
G1 F1200 X108.149 Y131.342 E36.64323
G0 F6000 X108.149 Y130.776
G1 F1200 X111.85 Y134.477 E36.81732
G0 F6000 X111.85 Y133.911
G1 F1200 X108.149 Y130.21 E36.9914
G0 F6000 X108.149 Y129.645
G1 F1200 X111.85 Y133.346 E37.16549
G0 F6000 X111.85 Y132.78
G1 F1200 X108.149 Y129.079 E37.33957
G0 F6000 X108.149 Y128.513
G1 F1200 X111.85 Y132.214 E37.51365
G0 F6000 X111.85 Y131.649
G1 F1200 X108.149 Y127.948 E37.68774
G0 F6000 X108.149 Y127.382
G1 F1200 X111.85 Y131.083 E37.86182
G0 F6000 X111.85 Y130.517
G1 F1200 X108.149 Y126.816 E38.0359
G0 F6000 X108.149 Y126.251
G1 F1200 X111.85 Y129.952 E38.20999
G0 F6000 X111.85 Y129.386
G1 F1200 X108.149 Y125.685 E38.38407
G0 F6000 X108.149 Y125.119
G1 F1200 X111.85 Y128.82 E38.55815
G0 F6000 X111.85 Y128.255
G1 F1200 X108.149 Y124.554 E38.73224
G0 F6000 X108.149 Y123.988
G1 F1200 X111.85 Y127.689 E38.90632
G0 F6000 X111.85 Y127.123
G1 F1200 X108.149 Y123.422 E39.08041
G0 F6000 X108.149 Y122.856
G1 F1200 X111.849 Y126.557 E39.25447
G0 F6000 X111.849 Y125.991
G1 F1200 X108.149 Y122.291 E39.4285
G0 F6000 X108.149 Y121.725
G1 F1200 X111.849 Y125.425 E39.60254
G0 F6000 X111.849 Y124.86
G1 F1200 X108.149 Y121.159 E39.7766
G0 F6000 X108.149 Y120.594
G1 F1200 X111.849 Y124.294 E39.95064
G0 F6000 X111.849 Y123.728
G1 F1200 X108.149 Y120.028 E40.12467
G0 F6000 X108.149 Y119.462
G1 F1200 X111.849 Y123.163 E40.29873
G0 F6000 X111.849 Y122.597
G1 F1200 X108.149 Y118.897 E40.47277
G0 F6000 X108.149 Y118.331
G1 F1200 X111.849 Y122.031 E40.64681
G0 F6000 X111.849 Y121.466
G1 F1200 X108.149 Y117.765 E40.82087
G0 F6000 X108.149 Y117.2
G1 F1200 X111.849 Y120.9 E40.9949
G0 F6000 X111.849 Y120.334
G1 F1200 X108.149 Y116.634 E41.16894
G0 F6000 X108.149 Y116.068
G1 F1200 X111.849 Y119.769 E41.343
G0 F6000 X111.849 Y119.203
G1 F1200 X108.149 Y115.503 E41.51704
G0 F6000 X108.149 Y114.937
G1 F1200 X111.849 Y118.637 E41.69107
G0 F6000 X111.849 Y118.071
G1 F1200 X108.149 Y114.371 E41.86511
G0 F6000 X108.149 Y113.806
G1 F1200 X111.849 Y117.506 E42.03915
G0 F6000 X111.849 Y116.94
G1 F1200 X108.149 Y113.24 E42.21318
G0 F6000 X108.149 Y112.674
G1 F1200 X111.849 Y116.374 E42.38722
G0 F6000 X111.849 Y115.809
G1 F1200 X108.149 Y112.108 E42.56128
G0 F6000 X108.149 Y111.543
G1 F1200 X111.849 Y115.243 E42.73532
G0 F6000 X111.849 Y114.677
G1 F1200 X108.149 Y110.977 E42.90935
G0 F6000 X108.149 Y110.411
G1 F1200 X111.849 Y114.112 E43.08341
G0 F6000 X111.849 Y113.546
G1 F1200 X108.149 Y109.846 E43.25745
G0 F6000 X108.149 Y109.28
G1 F1200 X111.849 Y112.98 E43.43149
G0 F6000 X111.849 Y112.415
G1 F1200 X108.149 Y108.714 E43.60555
G0 F6000 X108.149 Y108.149
G1 F1200 X111.849 Y111.849 E43.77958
G0 F6000 X111.849 Y111.283
G1 F1200 X108.149 Y107.583 E43.95362
G0 F6000 X108.149 Y107.017
G1 F1200 X111.849 Y110.718 E44.12768
G0 F6000 X111.849 Y110.152
G1 F1200 X108.149 Y106.452 E44.30172
G0 F6000 X108.149 Y105.886
G1 F1200 X111.849 Y109.586 E44.47575
G0 F6000 X111.849 Y109.021
G1 F1200 X108.149 Y105.32 E44.64981
G0 F6000 X108.149 Y104.755
G1 F1200 X111.849 Y108.455 E44.82385
G0 F6000 X111.849 Y107.889
G1 F1200 X108.149 Y104.189 E44.99789
G0 F6000 X108.149 Y103.623
G1 F1200 X111.849 Y107.323 E45.17192
G0 F6000 X111.849 Y106.758
G1 F1200 X108.149 Y103.057 E45.34598
G0 F6000 X108.149 Y102.492
G1 F1200 X111.849 Y106.192 E45.52002
G0 F6000 X111.849 Y105.626
G1 F1200 X108.149 Y101.926 E45.69406
G0 F6000 X108.149 Y101.36
G1 F1200 X111.849 Y105.061 E45.86812
G0 F6000 X111.849 Y104.495
G1 F1200 X108.149 Y100.795 E46.04215
G0 F6000 X108.149 Y100.229
G1 F1200 X111.849 Y103.929 E46.21619
G0 F6000 X111.849 Y103.364
G1 F1200 X108.709 Y100.223 E46.36391
G0 F6000 X109.274 Y100.223
G1 F1200 X111.849 Y102.798 E46.48503
G0 F6000 X111.849 Y102.232
G1 F1200 X109.84 Y100.223 E46.57953
G0 F6000 X110.406 Y100.223
G1 F1200 X111.849 Y101.667 E46.64743
G0 F6000 X111.849 Y101.101
