;FLAVOR:Marlin
;TIME:16038
;Filament used: 13.2508m
;Layer height: 0.2
;MINX:35.5
;MINY:41.52
;MINZ:0.2
;MAXX:184.5
;MAXY:178.471
;MAXZ:13.4
;Generated with Cura_SteamEngine 4.8.0
M140 S60
M105
M190 S60
M104 S200
M105
M109 S200
M82 ;absolute extrusion mode
; Ender 3 Custom Start G-code
G92 E0 ; Reset Extruder
G28 ; Home all axes
G1 Z2.0 F3000 ; Move Z Axis up little to prevent scratching of Heat Bed
G1 X0.1 Y20 Z0.3 F5000.0 ; Move to start position
G1 X0.1 Y200.0 Z0.3 F1500.0 E15 ; Draw the first line
G1 X0.4 Y200.0 Z0.3 F5000.0 ; Move to side a little
G1 X0.4 Y20 Z0.3 F1500.0 E30 ; Draw the second line
G92 E0 ; Reset Extruder
G1 Z2.0 F3000 ; Move Z Axis up little to prevent scratching of Heat Bed
G1 X5 Y20 Z0.3 F5000.0 ; Move over to prevent blob squish
G92 E0
G92 E0
G1 F1500 E-6.5
;LAYER_COUNT:67
;LAYER:0
M107
G0 F6000 X54.73 Y49.509 Z0.2
;TYPE:SKIRT
G1 F1500 E0
G1 F1200 X55.357 Y48.811 E0.03121
G1 X55.793 Y48.39 E0.05137
G1 X56.495 Y47.75 E0.08296
G1 X57.569 Y46.801 E0.13063
G1 X58.085 Y46.357 E0.15327
G1 X58.822 Y45.776 E0.18448
G1 X59.572 Y45.279 E0.21441
G1 X59.769 Y45.16 E0.22206
G1 X60.25 Y44.883 E0.24053
G1 X61.407 Y44.238 E0.28458
G1 X62.163 Y43.829 E0.31317
G1 X63.007 Y43.42 E0.34437
G1 X63.904 Y43.076 E0.37632
G1 X64.246 Y42.962 E0.38831
G1 X64.525 Y42.874 E0.39804
G1 X66.055 Y42.41 E0.45122
G1 X66.686 Y42.228 E0.47306
G1 X67.944 Y41.944 E0.51595
G1 X68.993 Y41.771 E0.55131
G1 X69.373 Y41.714 E0.56409
G1 X70.178 Y41.61 E0.59109
G1 X71.113 Y41.53 E0.6223
G1 X71.662 Y41.52 E0.64057
G1 X71.795 Y41.521 E0.64499
G1 X72.138 Y41.529 E0.6564
G1 X72.654 Y41.55 E0.67358
G1 X162.018 Y46.066 E3.64963
G1 X165.398 Y46.175 E3.76211
G1 X166.666 Y46.194 E3.80428
G1 X167.602 Y46.248 E3.83547
G1 X168.531 Y46.382 E3.86669
G1 X169.444 Y46.594 E3.89786
G1 X170.023 Y46.772 E3.91801
G1 X170.952 Y47.087 E3.95063
G1 X171.987 Y47.452 E3.98714
G1 X174.371 Y48.218 E4.07042
G1 X176.118 Y48.726 E4.13093
G1 X176.595 Y48.872 E4.14753
G1 X177.48 Y49.184 E4.17874
G1 X178.334 Y49.571 E4.20992
G1 X179.153 Y50.029 E4.24113
G1 X179.929 Y50.555 E4.27231
G1 X180.658 Y51.145 E4.3035
G1 X181.188 Y51.646 E4.32776
G1 X181.302 Y51.761 E4.33315
G1 X181.933 Y52.454 E4.36432
G1 X182.503 Y53.199 E4.39552
G1 X183.008 Y53.99 E4.42673
G1 X183.443 Y54.821 E4.45793
G1 X183.806 Y55.686 E4.48913
G1 X184.093 Y56.578 E4.5203
G1 X184.304 Y57.492 E4.55149
G1 X184.436 Y58.421 E4.5827
G1 X184.484 Y59.134 E4.60647
G1 X184.494 Y59.51 E4.61898
G1 X184.5 Y60.037 E4.63651
G1 X184.499 Y156.376 E7.84076
G1 X184.489 Y157.078 E7.86411
G1 X184.436 Y158.014 E7.89529
G1 X184.303 Y158.942 E7.92647
G1 X184.091 Y159.856 E7.95768
G1 X183.803 Y160.749 E7.98889
G1 X183.439 Y161.613 E8.02007
G1 X183.003 Y162.444 E8.05128
G1 X182.498 Y163.234 E8.08247
G1 X181.928 Y163.978 E8.11364
G1 X181.268 Y164.699 E8.14615
G1 X181.15 Y164.817 E8.1517
G1 X180.095 Y165.746 E8.19846
G1 X179.751 Y166.011 E8.2129
G1 X177.756 Y167.6 E8.29773
G1 X175.823 Y169.23 E8.38183
G1 X174.337 Y170.547 E8.44787
G1 X173.88 Y170.961 E8.46838
G1 X173.159 Y171.56 E8.49956
G1 X172.389 Y172.096 E8.53076
G1 X171.576 Y172.564 E8.56196
G1 X170.727 Y172.962 E8.59315
G1 X169.847 Y173.285 E8.62433
G1 X168.942 Y173.533 E8.65554
G1 X168.02 Y173.702 E8.68671
G1 X166.826 Y173.803 E8.72657
G1 X166.25 Y173.818 E8.74573
G1 X165.888 Y173.821 E8.75777
G1 X163.343 Y173.876 E8.84244
G1 X161.959 Y173.935 E8.88851
G1 X72.895 Y178.438 E11.85458
G1 X71.989 Y178.471 E11.88473
G1 X71.051 Y178.464 E11.91593
G1 X69.798 Y178.329 E11.95785
G1 X68.737 Y178.151 E11.99363
G1 X67.199 Y177.867 E12.04565
G1 X66.621 Y177.752 E12.06525
G1 X65.644 Y177.51 E12.09872
G1 X65.384 Y177.433 E12.10774
G1 X64.447 Y177.109 E12.14072
G1 X63.881 Y176.883 E12.16099
G1 X62.665 Y176.381 E12.20474
G1 X62.064 Y176.123 E12.2265
G1 X61.219 Y175.717 E12.25768
G1 X60.631 Y175.379 E12.28024
G1 X60.485 Y175.289 E12.28594
G1 X60.052 Y175.008 E12.30311
G1 X59.628 Y174.717 E12.32021
G1 X58.429 Y173.877 E12.36891
G1 X57.903 Y173.498 E12.39047
G1 X57.391 Y173.106 E12.41192
G1 X56.508 Y172.308 E12.4515
G1 X55.795 Y171.589 E12.48518
G1 X54.943 Y170.702 E12.52609
G1 X54.503 Y170.232 E12.5475
G1 X53.939 Y169.58 E12.57617
G1 X53.784 Y169.386 E12.58443
G1 X53.601 Y169.151 E12.59434
G1 X52.665 Y167.912 E12.64599
G1 X51.076 Y165.93 E12.73048
G1 X49.461 Y164.028 E12.81347
G1 X47.758 Y162.136 E12.89813
G1 X46.047 Y160.338 E12.98068
G1 X44.242 Y158.546 E13.06528
G1 X42.423 Y156.841 E13.1482
G1 X40.523 Y155.157 E13.23265
G1 X39.403 Y154.208 E13.28147
G1 X38.714 Y153.572 E13.31266
G1 X38.082 Y152.879 E13.34385
G1 X37.511 Y152.135 E13.37505
G1 X36.893 Y151.148 E13.41378
G1 X36.473 Y150.31 E13.44495
G1 X36.126 Y149.438 E13.47617
G1 X35.854 Y148.541 E13.50735
G1 X35.66 Y147.623 E13.53855
G1 X35.545 Y146.692 E13.56975
G1 X35.513 Y146.114 E13.58901
G1 X35.504 Y145.793 E13.59969
G1 X35.5 Y145.485 E13.60993
G1 X35.501 Y74.735 E15.96309
G1 X35.511 Y74.032 E15.98647
G1 X35.564 Y73.095 E16.01769
G1 X35.697 Y72.167 E16.04887
G1 X35.909 Y71.253 E16.08007
G1 X36.197 Y70.361 E16.11125
G1 X36.561 Y69.496 E16.14246
G1 X36.997 Y68.666 E16.17365
G1 X37.502 Y67.875 E16.20486
G1 X38.072 Y67.131 E16.23603
G1 X38.704 Y66.438 E16.26723
G1 X39.356 Y65.832 E16.29683
G1 X40.317 Y65.009 E16.33892
G1 X42.287 Y63.273 E16.42625
G1 X44.121 Y61.562 E16.50967
G1 X45.919 Y59.787 E16.59371
G1 X47.639 Y57.989 E16.67646
G1 X49.348 Y56.1 E16.76119
G1 X50.963 Y54.209 E16.8439
G1 X52.906 Y51.785 E16.94723
G1 X53.33 Y51.24 E16.97019
G1 X54.21 Y50.14 E17.01705
G1 X54.73 Y49.509 E17.04424
G0 F6000 X55.039 Y49.763
G1 F1200 X55.655 Y49.079 E17.07486
G1 X56.063 Y48.686 E17.0937
G1 X56.76 Y48.05 E17.12508
G1 X57.83 Y47.104 E17.17258
G1 X58.346 Y46.66 E17.19522
G1 X59.07 Y46.09 E17.22587
G1 X59.779 Y45.622 E17.25413
G1 X60.21 Y45.365 E17.27082
G1 X60.54 Y45.179 E17.28342
G1 X61.726 Y44.519 E17.32856
G1 X62.353 Y44.181 E17.35225
G1 X63.182 Y43.78 E17.38288
G1 X64.031 Y43.456 E17.41311
G1 X64.373 Y43.342 E17.4251
G1 X64.641 Y43.256 E17.43446
G1 X66.165 Y42.794 E17.48742
G1 X66.796 Y42.612 E17.50927
G1 X68.009 Y42.338 E17.55063
G1 X69.058 Y42.165 E17.58599
G1 X69.429 Y42.11 E17.59846
G1 X70.229 Y42.006 E17.62529
G1 X71.146 Y41.929 E17.6559
G1 X71.659 Y41.92 E17.67297
G1 X71.792 Y41.921 E17.67739
G1 X72.123 Y41.929 E17.6884
G1 X72.634 Y41.95 E17.70541
G1 X161.985 Y46.465 E20.68103
G1 X165.379 Y46.575 E20.79397
G1 X166.66 Y46.594 E20.83659
G1 X167.579 Y46.648 E20.8672
G1 X168.49 Y46.781 E20.89783
G1 X169.386 Y46.993 E20.92845
G1 X169.895 Y47.151 E20.94618
G1 X170.819 Y47.464 E20.97862
G1 X171.837 Y47.823 E21.01453
G1 X174.275 Y48.606 E21.09969
G1 X176.001 Y49.108 E21.15948
G1 X176.478 Y49.254 E21.17607
G1 X177.346 Y49.562 E21.2067
G1 X178.184 Y49.943 E21.23732
G1 X178.986 Y50.396 E21.26796
G1 X179.745 Y50.917 E21.29858
G1 X180.456 Y51.501 E21.32918
G1 X180.904 Y51.927 E21.34974
G1 X181.018 Y52.042 E21.35513
G1 X181.637 Y52.724 E21.38576
G1 X182.195 Y53.456 E21.41637
G1 X182.687 Y54.235 E21.44702
G1 X183.109 Y55.052 E21.4776
G1 X183.46 Y55.904 E21.50825
G1 X183.734 Y56.783 E21.53887
G1 X183.932 Y57.682 E21.56949
G1 X184.051 Y58.595 E21.60012
G1 X184.084 Y59.147 E21.61851
G1 X184.094 Y59.515 E21.63075
G1 X184.1 Y60.037 E21.64812
G1 X184.099 Y156.37 E24.85216
G1 X184.089 Y157.072 E24.87551
G1 X184.036 Y157.991 E24.90613
G1 X183.903 Y158.902 E24.93675
G1 X183.692 Y159.798 E24.96737
G1 X183.404 Y160.673 E24.99801
G1 X183.041 Y161.519 E25.02863
G1 X182.606 Y162.33 E25.05924
G1 X182.102 Y163.101 E25.08987
G1 X181.534 Y163.825 E25.12048
G1 X180.985 Y164.416 E25.14731
G1 X180.867 Y164.534 E25.15286
G1 X179.85 Y165.429 E25.19792
G1 X179.582 Y165.636 E25.20918
G1 X177.473 Y167.315 E25.29884
G1 X175.584 Y168.908 E25.38103
G1 X174.087 Y170.235 E25.44756
G1 X173.612 Y170.665 E25.46887
G1 X172.903 Y171.252 E25.49949
G1 X172.146 Y171.777 E25.53013
G1 X171.347 Y172.233 E25.56073
G1 X170.511 Y172.618 E25.59134
G1 X169.644 Y172.93 E25.62199
G1 X168.754 Y173.165 E25.6526
G1 X167.847 Y173.322 E25.68322
G1 X166.814 Y173.403 E25.71768
G1 X166.247 Y173.418 E25.73655
G1 X165.951 Y173.42 E25.74639
G1 X163.269 Y173.478 E25.83562
G1 X161.928 Y173.536 E25.88026
G1 X72.713 Y178.045 E28.85135
G1 X71.975 Y178.071 E28.87591
G1 X71.055 Y178.064 E28.90651
G1 X69.863 Y177.934 E28.94639
G1 X68.809 Y177.758 E28.98193
G1 X67.425 Y177.503 E29.02874
G1 X66.7 Y177.359 E29.05333
G1 X65.758 Y177.127 E29.08559
G1 X65.498 Y177.05 E29.09461
G1 X64.595 Y176.737 E29.1264
G1 X64.034 Y176.513 E29.14649
G1 X62.823 Y176.013 E29.19007
G1 X62.222 Y175.755 E29.21182
G1 X61.392 Y175.356 E29.24245
G1 X60.841 Y175.038 E29.26361
G1 X60.695 Y174.948 E29.26931
G1 X60.277 Y174.677 E29.28588
G1 X59.857 Y174.39 E29.3028
G1 X58.662 Y173.552 E29.35135
G1 X58.136 Y173.173 E29.37291
G1 X57.642 Y172.795 E29.3936
G1 X56.791 Y172.026 E29.43175
G1 X56.083 Y171.311 E29.46521
G1 X55.235 Y170.428 E29.50593
G1 X54.795 Y169.958 E29.52735
G1 X54.252 Y169.331 E29.55493
G1 X54.097 Y169.137 E29.56319
G1 X53.92 Y168.91 E29.57277
G1 X52.968 Y167.649 E29.62532
G1 X51.391 Y165.683 E29.70914
G1 X49.762 Y163.765 E29.79284
G1 X48.064 Y161.877 E29.8773
G1 X46.317 Y160.043 E29.96154
G1 X44.533 Y158.271 E30.04517
G1 X42.677 Y156.531 E30.12979
G1 X40.79 Y154.858 E30.21367
G1 X39.662 Y153.903 E30.26282
G1 X38.986 Y153.277 E30.29347
G1 X38.367 Y152.596 E30.32408
G1 X37.809 Y151.864 E30.35469
G1 X37.243 Y150.954 E30.39033
G1 X36.831 Y150.13 E30.42097
G1 X36.492 Y149.274 E30.4516
G1 X36.229 Y148.392 E30.48221
G1 X36.044 Y147.49 E30.51283
G1 X35.937 Y146.576 E30.54344
G1 X35.913 Y146.103 E30.55919
G1 X35.904 Y145.782 E30.56987
G1 X35.9 Y145.485 E30.57975
G1 X35.901 Y74.74 E32.93274
G1 X35.911 Y74.037 E32.95613
G1 X35.964 Y73.118 E32.98674
G1 X36.097 Y72.207 E33.01736
G1 X36.308 Y71.311 E33.04798
G1 X36.596 Y70.437 E33.07859
G1 X36.959 Y69.59 E33.10924
G1 X37.394 Y68.779 E33.13985
G1 X37.898 Y68.008 E33.17048
G1 X38.466 Y67.284 E33.20109
G1 X39.096 Y66.612 E33.23173
G1 X39.616 Y66.136 E33.25517
G1 X40.594 Y65.299 E33.29799
G1 X42.561 Y63.565 E33.3852
G1 X44.392 Y61.857 E33.46848
G1 X46.189 Y60.083 E33.55247
G1 X47.94 Y58.253 E33.63671
G1 X49.634 Y56.38 E33.72071
G1 X51.28 Y54.453 E33.805
G1 X53.252 Y51.993 E33.90986
G1 X53.643 Y51.49 E33.93105
G1 X54.624 Y50.266 E33.98322
G1 X55.039 Y49.763 E34.00491
G0 F6000 X55.347 Y50.018
G1 F1200 X55.952 Y49.347 E34.03496
G1 X56.333 Y48.981 E34.05253
G1 X57.025 Y48.349 E34.0837
G1 X58.091 Y47.407 E34.13102
G1 X58.607 Y46.963 E34.15366
G1 X59.317 Y46.405 E34.18369
G1 X59.986 Y45.964 E34.21035
G1 X60.183 Y45.845 E34.218
G1 X60.408 Y45.713 E34.22668
G1 X60.734 Y45.528 E34.23914
G1 X61.916 Y44.871 E34.28412
G1 X62.543 Y44.533 E34.30781
G1 X63.356 Y44.141 E34.33783
G1 X64.157 Y43.835 E34.36635
G1 X64.499 Y43.721 E34.37834
G1 X64.758 Y43.639 E34.38738
G1 X66.276 Y43.179 E34.44013
G1 X66.907 Y42.997 E34.46198
G1 X68.074 Y42.733 E34.50177
G1 X69.123 Y42.56 E34.53713
G1 X69.485 Y42.506 E34.54931
G1 X70.28 Y42.403 E34.57597
G1 X71.18 Y42.328 E34.60601
G1 X71.656 Y42.32 E34.62184
G1 X71.789 Y42.321 E34.62627
G1 X72.107 Y42.329 E34.63685
G1 X72.614 Y42.349 E34.65372
G1 X161.953 Y46.863 E37.62894
G1 X165.417 Y46.975 E37.74421
G1 X166.654 Y46.994 E37.78536
G1 X167.555 Y47.048 E37.81538
G1 X168.449 Y47.181 E37.84544
G1 X169.327 Y47.392 E37.87548
G1 X169.767 Y47.53 E37.89081
G1 X170.686 Y47.842 E37.92309
G1 X171.697 Y48.199 E37.95875
G1 X174.146 Y48.985 E38.0443
G1 X175.884 Y49.491 E38.10451
G1 X176.361 Y49.637 E38.1211
G1 X177.212 Y49.939 E38.15113
G1 X178.033 Y50.315 E38.18117
G1 X178.818 Y50.763 E38.21123
G1 X179.559 Y51.278 E38.24124
G1 X180.253 Y51.857 E38.2713
G1 X180.62 Y52.209 E38.28822
G1 X180.734 Y52.324 E38.2936
G1 X181.341 Y52.993 E38.32365
G1 X181.886 Y53.713 E38.35368
G1 X182.365 Y54.478 E38.3837
G1 X182.775 Y55.283 E38.41375
G1 X183.112 Y56.121 E38.44379
G1 X183.374 Y56.985 E38.47382
G1 X183.558 Y57.869 E38.50385
G1 X183.684 Y59.161 E38.54703
G1 X183.694 Y59.52 E38.55897
G1 X183.7 Y60.037 E38.57617
G1 X183.699 Y156.364 E41.78002
G1 X183.689 Y157.066 E41.80337
G1 X183.636 Y157.968 E41.83342
G1 X183.504 Y158.861 E41.86345
G1 X183.293 Y159.739 E41.89348
G1 X183.005 Y160.595 E41.92352
G1 X182.643 Y161.423 E41.95357
G1 X182.209 Y162.215 E41.98361
G1 X181.706 Y162.965 E42.01365
G1 X181.14 Y163.668 E42.04367
G1 X180.702 Y164.133 E42.06491
G1 X180.584 Y164.251 E42.07046
G1 X179.606 Y165.112 E42.1138
G1 X179.306 Y165.344 E42.12641
G1 X177.268 Y166.967 E42.21307
G1 X175.257 Y168.662 E42.30054
G1 X173.852 Y169.907 E42.36298
G1 X173.343 Y170.368 E42.38582
G1 X172.648 Y170.944 E42.41584
G1 X171.904 Y171.456 E42.44588
G1 X171.118 Y171.901 E42.47592
G1 X170.295 Y172.274 E42.50598
G1 X169.443 Y172.573 E42.53601
G1 X168.568 Y172.795 E42.56603
G1 X167.676 Y172.939 E42.59609
G1 X166.802 Y173.003 E42.62523
G1 X166.244 Y173.018 E42.6438
G1 X165.938 Y173.02 E42.65398
G1 X163.29 Y173.078 E42.74207
G1 X161.911 Y173.137 E42.78798
G1 X72.855 Y177.639 E45.75378
G1 X71.961 Y177.672 E45.78353
G1 X71.058 Y177.663 E45.81357
G1 X69.929 Y177.54 E45.85134
G1 X69.057 Y177.395 E45.88074
G1 X67.498 Y177.109 E45.93346
G1 X66.778 Y176.967 E45.95787
G1 X65.872 Y176.743 E45.98891
G1 X65.612 Y176.666 E45.99793
G1 X64.742 Y176.365 E46.02855
G1 X64.186 Y176.144 E46.04845
G1 X62.98 Y175.646 E46.09184
G1 X62.379 Y175.388 E46.1136
G1 X61.566 Y174.995 E46.14363
G1 X61.051 Y174.698 E46.1634
G1 X60.905 Y174.608 E46.16911
G1 X60.503 Y174.347 E46.18505
G1 X60.087 Y174.062 E46.20182
G1 X58.896 Y173.228 E46.25018
G1 X58.37 Y172.849 E46.27174
G1 X57.894 Y172.484 E46.29169
G1 X57.075 Y171.744 E46.32841
G1 X56.372 Y171.034 E46.36164
G1 X55.527 Y170.155 E46.40219
G1 X55.087 Y169.685 E46.42361
G1 X54.564 Y169.081 E46.45018
G1 X54.409 Y168.887 E46.45844
G1 X54.239 Y168.668 E46.46766
G1 X53.28 Y167.398 E46.52059
G1 X51.71 Y165.441 E46.60404
G1 X50.066 Y163.504 E46.68854
G1 X48.366 Y161.616 E46.77304
G1 X46.606 Y159.767 E46.85794
G1 X44.805 Y157.978 E46.94237
G1 X42.952 Y156.24 E47.02687
G1 X41.027 Y154.535 E47.1124
G1 X39.92 Y153.597 E47.16066
G1 X39.258 Y152.984 E47.19067
G1 X38.652 Y152.314 E47.22072
G1 X38.108 Y151.593 E47.25076
G1 X37.593 Y150.76 E47.28333
G1 X37.189 Y149.951 E47.31341
G1 X36.859 Y149.111 E47.34342
G1 X36.605 Y148.244 E47.37347
G1 X36.428 Y147.359 E47.40349
G1 X36.313 Y146.092 E47.4458
G1 X36.304 Y145.771 E47.45648
G1 X36.3 Y145.485 E47.466
G1 X36.301 Y74.746 E49.81879
G1 X36.311 Y74.043 E49.84217
G1 X36.364 Y73.141 E49.87222
G1 X36.496 Y72.248 E49.90225
G1 X36.707 Y71.37 E49.93228
G1 X36.995 Y70.514 E49.96232
G1 X37.357 Y69.687 E49.99234
G1 X37.791 Y68.895 E50.02238
G1 X38.293 Y68.144 E50.05243
G1 X38.86 Y67.441 E50.08247
G1 X39.487 Y66.791 E50.1125
G1 X39.876 Y66.44 E50.12993
G1 X40.835 Y65.619 E50.17192
G1 X42.815 Y63.874 E50.2597
G1 X44.699 Y62.117 E50.34538
G1 X46.476 Y60.362 E50.42845
G1 X48.227 Y58.532 E50.51269
G1 X49.934 Y56.645 E50.59732
G1 X51.584 Y54.714 E50.6818
G1 X53.568 Y52.238 E50.78733
G1 X53.955 Y51.74 E50.80831
G1 X54.932 Y50.521 E50.86027
G1 X55.347 Y50.018 E50.88196
G1 F1500 E44.38196
G0 F6000 X166.657 Y56.521
G0 X167.064 Y56.928
G0 X170.3 Y62.382
G1 F1500 E50.88196
G1 F1200 X170.5 Y62.382 E50.88861
G1 X170.5 Y154.043 E53.93726
G1 X170.3 Y154.043 E53.94392
G1 X170.3 Y62.382 E56.99257
G0 F6000 X169.9 Y61.982
G1 F1200 X170.9 Y61.982 E57.02583
G1 X170.9 Y154.443 E60.1011
G1 X169.9 Y154.443 E60.13436
G1 X169.9 Y61.982 E63.20963
G0 F6000 X169.5 Y61.582
G1 F1200 X171.3 Y61.582 E63.26949
G1 X171.3 Y154.843 E66.37137
G1 X169.5 Y154.843 E66.43124
G1 X169.5 Y61.582 E69.53311
G0 F6000 X169.1 Y61.182
G1 F1200 X171.7 Y61.182 E69.61958
G1 X171.7 Y155.243 E72.74807
