;FLAVOR:Marlin
;TIME:14504
;Filament used: 11.6971m
;Layer height: 0.2
;MINX:35.5
;MINY:41.528
;MINZ:0.2
;MAXX:184.5
;MAXY:178.472
;MAXZ:7.4
;Generated with Cura_SteamEngine 4.8.0
M140 S60
M105
M190 S60
M104 S200
M105
M109 S200
M82 ;absolute extrusion mode
; Ender 3 Custom Start G-code
G92 E0 ; Reset Extruder
G28 ; Home all axes
G1 Z2.0 F3000 ; Move Z Axis up little to prevent scratching of Heat Bed
G1 X0.1 Y20 Z0.3 F5000.0 ; Move to start position
G1 X0.1 Y200.0 Z0.3 F1500.0 E15 ; Draw the first line
G1 X0.4 Y200.0 Z0.3 F5000.0 ; Move to side a little
G1 X0.4 Y20 Z0.3 F1500.0 E30 ; Draw the second line
G92 E0 ; Reset Extruder
G1 Z2.0 F3000 ; Move Z Axis up little to prevent scratching of Heat Bed
G1 X5 Y20 Z0.3 F5000.0 ; Move over to prevent blob squish
G92 E0
G92 E0
G1 F1500 E-6.5
;LAYER_COUNT:37
;LAYER:0
M107
G0 F6000 X55.132 Y49.062 Z0.2
;TYPE:SKIRT
G1 F1500 E0
G1 F1200 X56.033 Y48.138 E0.04292
G1 X56.775 Y47.462 E0.07631
G1 X57.258 Y47.035 E0.09775
G1 X57.81 Y46.56 E0.12197
G1 X58.46 Y46.042 E0.14962
G1 X58.819 Y45.785 E0.1643
G1 X59.319 Y45.442 E0.18447
G1 X59.599 Y45.256 E0.19565
G1 X60.166 Y44.892 E0.21806
G1 X61.237 Y44.287 E0.25897
G1 X62.073 Y43.875 E0.28997
G1 X62.612 Y43.622 E0.30977
G1 X63.243 Y43.334 E0.33284
G1 X64.422 Y42.876 E0.37491
G1 X64.734 Y42.775 E0.38582
G1 X65.031 Y42.683 E0.39616
G1 X65.992 Y42.403 E0.42945
G1 X66.675 Y42.215 E0.45302
G1 X67.451 Y42.032 E0.47953
G1 X67.597 Y42.003 E0.48448
G1 X68 Y41.93 E0.49811
G1 X68.525 Y41.847 E0.51578
G1 X69.353 Y41.722 E0.54364
G1 X70.085 Y41.622 E0.56821
G1 X71.019 Y41.535 E0.59941
G1 X71.959 Y41.528 E0.63067
G1 X72.871 Y41.561 E0.66103
G1 X162.018 Y46.066 E3.62985
G1 X165.402 Y46.175 E3.74246
G1 X166.654 Y46.193 E3.78411
G1 X167.59 Y46.246 E3.81529
G1 X168.519 Y46.379 E3.8465
G1 X169.433 Y46.591 E3.87771
G1 X170.573 Y46.975 E3.91772
G1 X170.716 Y47.032 E3.92284
G1 X173.16 Y47.974 E4.00996
G1 X175.624 Y48.844 E4.09687
G1 X176.877 Y49.266 E4.14084
G1 X177.752 Y49.603 E4.17203
G1 X178.595 Y50.013 E4.20321
G1 X179.401 Y50.494 E4.23443
G1 X180.162 Y51.041 E4.2656
G1 X181.174 Y51.943 E4.31069
G1 X181.299 Y52.069 E4.31659
G1 X181.931 Y52.762 E4.34778
G1 X182.501 Y53.507 E4.37898
G1 X183.006 Y54.297 E4.41017
G1 X183.441 Y55.128 E4.44137
G1 X183.804 Y55.993 E4.47257
G1 X184.092 Y56.885 E4.50374
G1 X184.303 Y57.799 E4.53494
G1 X184.436 Y58.727 E4.56612
G1 X184.484 Y59.445 E4.59006
G1 X184.494 Y59.814 E4.60233
G1 X184.5 Y60.331 E4.61953
G1 X184.499 Y156.064 E7.80362
G1 X184.489 Y156.766 E7.82697
G1 X184.436 Y157.702 E7.85816
G1 X184.303 Y158.63 E7.88934
G1 X184.091 Y159.544 E7.92054
G1 X183.803 Y160.437 E7.95175
G1 X183.439 Y161.301 E7.98293
G1 X183.003 Y162.132 E8.01415
G1 X182.498 Y162.922 E8.04533
G1 X181.928 Y163.666 E8.07651
G1 X181.3 Y164.355 E8.10751
G1 X181.18 Y164.476 E8.11318
G1 X180.346 Y165.235 E8.15069
G1 X179.717 Y165.751 E8.17775
G1 X177.735 Y167.424 E8.26401
G1 X175.827 Y169.129 E8.34912
G1 X174.451 Y170.42 E8.41187
G1 X174.093 Y170.762 E8.42834
G1 X173.388 Y171.38 E8.45952
G1 X172.633 Y171.936 E8.49071
G1 X171.833 Y172.426 E8.52191
G1 X170.994 Y172.846 E8.55312
G1 X170.123 Y173.192 E8.58429
G1 X169.225 Y173.464 E8.6155
G1 X168.308 Y173.658 E8.64667
G1 X167.377 Y173.773 E8.67787
G1 X166.826 Y173.803 E8.69623
G1 X166.25 Y173.818 E8.71539
G1 X165.888 Y173.821 E8.72743
G1 X163.343 Y173.876 E8.8121
G1 X161.959 Y173.935 E8.85817
G1 X72.895 Y178.438 E11.82424
G1 X71.963 Y178.472 E11.85526
G1 X71.025 Y178.465 E11.88645
G1 X70.189 Y178.391 E11.91437
G1 X70.063 Y178.375 E11.91859
G1 X69.699 Y178.323 E11.93082
G1 X69.151 Y178.234 E11.94929
G1 X67.782 Y177.997 E11.9955
G1 X66.957 Y177.843 E12.02341
G1 X65.796 Y177.56 E12.06316
G1 X65.667 Y177.521 E12.06764
G1 X65.341 Y177.417 E12.07902
G1 X64.801 Y177.235 E12.09797
G1 X64.069 Y176.977 E12.12379
G1 X63.448 Y176.75 E12.14578
G1 X62.306 Y176.258 E12.18714
G1 X61.974 Y176.092 E12.19948
G1 X61.681 Y175.94 E12.21046
G1 X60.912 Y175.525 E12.23953
G1 X60.314 Y175.191 E12.26231
G1 X59.279 Y174.534 E12.30308
G1 X58.984 Y174.323 E12.31515
G1 X58.71 Y174.121 E12.32647
G1 X57.978 Y173.561 E12.35712
G1 X57.424 Y173.126 E12.38055
G1 X56.495 Y172.308 E12.42172
G1 X56.286 Y172.102 E12.43148
G1 X56.04 Y171.852 E12.44314
G1 X54.875 Y170.626 E12.4994
G1 X54.386 Y170.096 E12.52338
G1 X53.787 Y169.389 E12.5542
G1 X53.122 Y168.532 E12.59028
G1 X52.669 Y167.933 E12.61526
G1 X51.115 Y165.99 E12.69801
G1 X49.481 Y164.064 E12.78202
G1 X47.786 Y162.175 E12.86643
G1 X46.062 Y160.36 E12.94969
G1 X44.278 Y158.586 E13.03337
G1 X42.439 Y156.858 E13.1173
G1 X40.554 Y155.185 E13.20113
G1 X39.397 Y154.203 E13.2516
G1 X38.709 Y153.566 E13.28278
G1 X38.077 Y152.873 E13.31398
G1 X37.506 Y152.129 E13.34517
G1 X36.893 Y151.148 E13.38365
G1 X36.473 Y150.31 E13.41482
G1 X36.126 Y149.438 E13.44604
G1 X35.854 Y148.541 E13.47721
G1 X35.66 Y147.623 E13.50842
G1 X35.545 Y146.692 E13.53962
G1 X35.513 Y146.114 E13.55888
G1 X35.504 Y145.793 E13.56956
G1 X35.5 Y145.485 E13.5798
G1 X35.501 Y74.719 E15.93349
G1 X35.512 Y74.014 E15.95694
G1 X35.567 Y73.078 E15.98813
G1 X35.701 Y72.15 E16.01931
G1 X35.914 Y71.236 E16.05053
G1 X36.204 Y70.344 E16.08172
G1 X36.568 Y69.48 E16.1129
G1 X37.005 Y68.651 E16.14407
G1 X37.511 Y67.861 E16.17528
G1 X38.083 Y67.117 E16.20649
G1 X38.716 Y66.425 E16.23768
G1 X39.361 Y65.827 E16.26694
G1 X40.216 Y65.096 E16.30435
G1 X42.198 Y63.349 E16.39223
G1 X44.036 Y61.636 E16.47579
G1 X45.829 Y59.863 E16.55966
G1 X47.547 Y58.069 E16.64228
G1 X49.249 Y56.186 E16.7267
G1 X50.863 Y54.297 E16.80934
G1 X52.744 Y51.931 E16.90987
G1 X53.899 Y50.511 E16.97075
G1 X54.575 Y49.707 E17.00569
G1 X55.132 Y49.062 E17.03403
G0 F6000 X55.435 Y49.324
G1 F1200 X56.303 Y48.433 E17.0754
G1 X57.04 Y47.762 E17.10855
G1 X57.519 Y47.338 E17.12983
G1 X58.071 Y46.863 E17.15405
G1 X58.697 Y46.364 E17.18068
G1 X59.046 Y46.115 E17.19494
G1 X59.546 Y45.772 E17.2151
G1 X59.816 Y45.593 E17.22588
G1 X60.383 Y45.229 E17.24829
G1 X61.414 Y44.645 E17.2877
G1 X62.08 Y44.316 E17.31241
G1 X62.648 Y44.046 E17.33332
G1 X63.409 Y43.698 E17.36115
G1 X64.545 Y43.256 E17.4017
G1 X64.857 Y43.155 E17.4126
G1 X65.144 Y43.067 E17.42259
G1 X66.098 Y42.789 E17.45564
G1 X66.781 Y42.601 E17.4792
G1 X67.529 Y42.424 E17.50477
G1 X67.675 Y42.395 E17.50972
G1 X68.063 Y42.325 E17.52283
G1 X68.585 Y42.242 E17.54041
G1 X69.25 Y42.141 E17.56278
G1 X70.139 Y42.019 E17.59263
G1 X71.056 Y41.934 E17.62326
G1 X71.945 Y41.928 E17.65283
G1 X72.851 Y41.961 E17.68298
G1 X161.985 Y46.465 E20.65137
G1 X165.383 Y46.575 E20.76445
G1 X166.648 Y46.593 E20.80653
G1 X167.568 Y46.646 E20.83718
G1 X168.479 Y46.779 E20.8678
G1 X169.375 Y46.99 E20.89841
G1 X170.425 Y47.347 E20.9353
G1 X173.02 Y48.348 E21.02781
G1 X175.511 Y49.228 E21.11568
G1 X176.749 Y49.645 E21.15913
G1 X177.608 Y49.976 E21.18975
G1 X178.435 Y50.381 E21.22037
G1 X179.224 Y50.856 E21.251
G1 X179.968 Y51.398 E21.28162
G1 X180.89 Y52.225 E21.32281
G1 X181.015 Y52.351 E21.32872
G1 X181.635 Y53.032 E21.35935
G1 X182.193 Y53.764 E21.38996
G1 X182.685 Y54.542 E21.42058
G1 X183.108 Y55.36 E21.45121
G1 X183.458 Y56.211 E21.48181
G1 X183.733 Y57.09 E21.51245
G1 X183.931 Y57.989 E21.54306
G1 X184.05 Y58.902 E21.57369
G1 X184.084 Y59.458 E21.59221
G1 X184.094 Y59.82 E21.60426
G1 X184.1 Y60.331 E21.62126
G1 X184.099 Y156.058 E24.80515
G1 X184.089 Y156.76 E24.8285
G1 X184.036 Y157.679 E24.85912
G1 X183.903 Y158.59 E24.88974
G1 X183.692 Y159.486 E24.92035
G1 X183.404 Y160.361 E24.95099
G1 X183.041 Y161.207 E24.98161
G1 X182.606 Y162.018 E25.01222
G1 X182.102 Y162.789 E25.04286
G1 X181.534 Y163.513 E25.07346
G1 X181.016 Y164.073 E25.09884
G1 X180.896 Y164.194 E25.1045
G1 X180.093 Y164.925 E25.14062
G1 X179.454 Y165.449 E25.16811
G1 X177.474 Y167.12 E25.25428
G1 X175.573 Y168.82 E25.3391
G1 X174.175 Y170.131 E25.40284
G1 X173.817 Y170.473 E25.41931
G1 X173.124 Y171.079 E25.44993
G1 X172.382 Y171.623 E25.48053
G1 X171.595 Y172.101 E25.51116
G1 X170.769 Y172.508 E25.54178
G1 X169.911 Y172.842 E25.57241
G1 X169.028 Y173.101 E25.60301
G1 X168.125 Y173.282 E25.63365
G1 X166.814 Y173.403 E25.67743
G1 X166.247 Y173.418 E25.6963
G1 X165.951 Y173.42 E25.70614
G1 X163.269 Y173.478 E25.79537
G1 X161.928 Y173.536 E25.84001
G1 X72.714 Y178.045 E28.81107
G1 X71.949 Y178.072 E28.83653
G1 X71.028 Y178.065 E28.86716
G1 X70.24 Y177.995 E28.89348
G1 X70.114 Y177.979 E28.8977
G1 X69.763 Y177.928 E28.9095
G1 X69.219 Y177.84 E28.92783
G1 X67.85 Y177.603 E28.97404
G1 X67.03 Y177.45 E29.00178
G1 X65.911 Y177.177 E29.04009
G1 X65.782 Y177.138 E29.04457
G1 X65.469 Y177.038 E29.0555
G1 X64.933 Y176.857 E29.07432
G1 X64.207 Y176.602 E29.09991
G1 X63.586 Y176.375 E29.1219
G1 X62.485 Y175.9 E29.16178
G1 X62.153 Y175.734 E29.17413
G1 X61.87 Y175.587 E29.18474
G1 X61.107 Y175.175 E29.21358
G1 X60.509 Y174.841 E29.23636
G1 X59.511 Y174.209 E29.27565
G1 X59.216 Y173.998 E29.28771
G1 X58.953 Y173.803 E29.2986
G1 X58.225 Y173.246 E29.32909
G1 X57.671 Y172.811 E29.35252
G1 X56.776 Y172.023 E29.39218
G1 X56.567 Y171.817 E29.40194
G1 X56.33 Y171.576 E29.41318
G1 X55.169 Y170.355 E29.46922
G1 X54.68 Y169.825 E29.4932
G1 X54.103 Y169.143 E29.52292
G1 X53.441 Y168.291 E29.5588
G1 X52.985 Y167.688 E29.58395
G1 X51.416 Y165.727 E29.66748
G1 X49.783 Y163.802 E29.75144
G1 X48.091 Y161.916 E29.83571
G1 X46.351 Y160.084 E29.91975
G1 X44.533 Y158.276 E30.00502
G1 X42.715 Y156.568 E30.08799
G1 X40.818 Y154.884 E30.17236
G1 X39.656 Y153.898 E30.22305
G1 X38.981 Y153.272 E30.25367
G1 X38.362 Y152.59 E30.2843
G1 X37.805 Y151.857 E30.31492
G1 X37.243 Y150.954 E30.35029
G1 X36.831 Y150.13 E30.38094
G1 X36.492 Y149.274 E30.41156
G1 X36.229 Y148.392 E30.44217
G1 X36.044 Y147.49 E30.47279
G1 X35.937 Y146.576 E30.5034
G1 X35.913 Y146.103 E30.51915
G1 X35.904 Y145.782 E30.52984
G1 X35.9 Y145.485 E30.53971
G1 X35.901 Y74.726 E32.89317
G1 X35.912 Y74.021 E32.91662
G1 X35.967 Y73.102 E32.94724
G1 X36.1 Y72.191 E32.97786
G1 X36.313 Y71.295 E33.00849
G1 X36.602 Y70.421 E33.03911
G1 X36.966 Y69.575 E33.06974
G1 X37.402 Y68.764 E33.10037
G1 X37.907 Y67.995 E33.13097
G1 X38.477 Y67.271 E33.16161
G1 X39.107 Y66.6 E33.19223
G1 X39.621 Y66.131 E33.21537
G1 X40.491 Y65.387 E33.25344
G1 X42.472 Y63.641 E33.34127
G1 X44.307 Y61.93 E33.42472
G1 X46.099 Y60.159 E33.50852
G1 X47.866 Y58.313 E33.59351
G1 X49.534 Y56.469 E33.67621
G1 X51.166 Y54.558 E33.75979
G1 X53.055 Y52.183 E33.86073
G1 X54.21 Y50.763 E33.92161
G1 X54.881 Y49.965 E33.95628
G1 X55.435 Y49.324 E33.98446
G0 F6000 X55.737 Y49.586
G1 F1200 X56.572 Y48.729 E34.02426
G1 X57.306 Y48.061 E34.05727
G1 X57.78 Y47.641 E34.07833
G1 X58.332 Y47.166 E34.10255
G1 X58.934 Y46.686 E34.12816
G1 X59.272 Y46.445 E34.14197
G1 X59.772 Y46.102 E34.16213
G1 X60.032 Y45.93 E34.1725
G1 X60.599 Y45.566 E34.19491
G1 X61.591 Y45.004 E34.23283
G1 X62.257 Y44.675 E34.25754
G1 X62.819 Y44.408 E34.27824
G1 X63.575 Y44.062 E34.30589
G1 X64.669 Y43.637 E34.34492
G1 X64.981 Y43.536 E34.35583
G1 X65.256 Y43.451 E34.36541
G1 X66.204 Y43.175 E34.39825
G1 X66.887 Y42.987 E34.42181
G1 X67.607 Y42.816 E34.44642
G1 X67.753 Y42.787 E34.45137
G1 X68.127 Y42.72 E34.46401
G1 X68.645 Y42.638 E34.48145
G1 X69.461 Y42.515 E34.5089
G1 X70.193 Y42.415 E34.53347
G1 X71.093 Y42.332 E34.56353
G1 X71.931 Y42.327 E34.5914
G1 X72.831 Y42.36 E34.62136
G1 X161.953 Y46.863 E37.58935
G1 X165.419 Y46.976 E37.70469
G1 X166.643 Y46.993 E37.74541
G1 X167.544 Y47.046 E37.77542
G1 X168.438 Y47.178 E37.80548
G1 X169.316 Y47.389 E37.83552
G1 X170.277 Y47.718 E37.8693
G1 X172.879 Y48.723 E37.96207
G1 X175.397 Y49.612 E38.05089
G1 X176.621 Y50.024 E38.09384
G1 X177.464 Y50.35 E38.12391
G1 X178.274 Y50.749 E38.15394
G1 X179.045 Y51.218 E38.18395
G1 X179.773 Y51.754 E38.21402
G1 X180.606 Y52.506 E38.25135
G1 X180.731 Y52.632 E38.25725
G1 X181.338 Y53.301 E38.28729
G1 X181.884 Y54.021 E38.31735
G1 X182.363 Y54.786 E38.34737
G1 X182.774 Y55.59 E38.3774
G1 X183.111 Y56.428 E38.40744
G1 X183.373 Y57.292 E38.43747
G1 X183.557 Y58.177 E38.46754
G1 X183.684 Y59.472 E38.51082
G1 X183.694 Y59.825 E38.52256
G1 X183.7 Y60.331 E38.53939
G1 X183.699 Y156.052 E41.72308
G1 X183.689 Y156.754 E41.74644
G1 X183.636 Y157.656 E41.77649
G1 X183.504 Y158.549 E41.80651
G1 X183.293 Y159.427 E41.83655
G1 X183.005 Y160.283 E41.86658
G1 X182.643 Y161.111 E41.89664
G1 X182.209 Y161.903 E41.92668
G1 X181.706 Y162.653 E41.95671
G1 X181.14 Y163.356 E41.98673
G1 X180.732 Y163.791 E42.00657
G1 X180.612 Y163.912 E42.01224
G1 X179.839 Y164.616 E42.04701
G1 X179.227 Y165.118 E42.07334
G1 X177.195 Y166.833 E42.16178
G1 X175.314 Y168.514 E42.24568
G1 X173.833 Y169.904 E42.31324
G1 X173.541 Y170.183 E42.32667
G1 X172.861 Y170.778 E42.35672
G1 X172.131 Y171.31 E42.38677
G1 X171.357 Y171.775 E42.4168
G1 X170.545 Y172.17 E42.44683
G1 X169.701 Y172.491 E42.47686
G1 X168.832 Y172.737 E42.5069
G1 X167.944 Y172.905 E42.53696
G1 X166.802 Y173.003 E42.57509
G1 X166.244 Y173.018 E42.59365
G1 X165.938 Y173.02 E42.60383
G1 X163.29 Y173.078 E42.69192
G1 X161.911 Y173.137 E42.73783
G1 X72.855 Y177.639 E45.70363
G1 X71.935 Y177.673 E45.73425
G1 X71.032 Y177.665 E45.76428
G1 X70.29 Y177.598 E45.78906
G1 X70.164 Y177.582 E45.79329
G1 X69.826 Y177.533 E45.80465
G1 X69.287 Y177.446 E45.82281
G1 X67.918 Y177.209 E45.86902
G1 X67.104 Y177.057 E45.89656
G1 X66.027 Y176.795 E45.93342
G1 X65.898 Y176.756 E45.93791
G1 X65.596 Y176.659 E45.94846
G1 X65.065 Y176.48 E45.96709
G1 X64.344 Y176.226 E45.99252
G1 X63.723 Y175.999 E46.01451
G1 X62.663 Y175.542 E46.0529
G1 X62.331 Y175.376 E46.06525
G1 X62.06 Y175.235 E46.07541
G1 X61.302 Y174.826 E46.10406
G1 X60.704 Y174.492 E46.12684
G1 X59.744 Y173.883 E46.16465
G1 X59.449 Y173.672 E46.17671
G1 X59.195 Y173.485 E46.1872
G1 X58.583 Y173.018 E46.21281
G1 X57.918 Y172.496 E46.24093
G1 X57.057 Y171.738 E46.27908
G1 X56.848 Y171.532 E46.28884
G1 X56.62 Y171.3 E46.29966
G1 X55.463 Y170.084 E46.35549
G1 X54.974 Y169.554 E46.37947
G1 X54.418 Y168.898 E46.40807
G1 X53.845 Y168.161 E46.43912
G1 X53.314 Y167.459 E46.4684
G1 X51.732 Y165.482 E46.55261
G1 X50.055 Y163.504 E46.63886
G1 X48.396 Y161.655 E46.72149
G1 X46.641 Y159.807 E46.80625
G1 X44.824 Y158.002 E46.89144
G1 X42.971 Y156.261 E46.976
G1 X41.083 Y154.584 E47.05999
G1 X39.915 Y153.593 E47.11094
G1 X39.253 Y152.978 E47.14099
G1 X38.648 Y152.308 E47.17102
G1 X38.104 Y151.587 E47.20106
G1 X37.593 Y150.76 E47.23339
G1 X37.189 Y149.951 E47.26347
G1 X36.859 Y149.111 E47.29349
G1 X36.605 Y148.244 E47.32353
G1 X36.428 Y147.359 E47.35355
G1 X36.313 Y146.092 E47.39587
G1 X36.304 Y145.771 E47.40655
G1 X36.3 Y145.485 E47.41606
G1 X36.301 Y74.732 E49.76932
G1 X36.312 Y74.027 E49.79277
G1 X36.366 Y73.125 E49.82282
G1 X36.5 Y72.232 E49.85285
G1 X36.712 Y71.354 E49.8829
G1 X37.001 Y70.499 E49.91291
G1 X37.364 Y69.672 E49.94295
G1 X37.799 Y68.881 E49.97298
G1 X38.303 Y68.131 E50.00303
G1 X38.871 Y67.428 E50.03309
G1 X39.498 Y66.779 E50.06311
G1 X39.881 Y66.435 E50.08023
G1 X40.733 Y65.706 E50.11752
G1 X42.745 Y63.933 E50.20672
G1 X44.577 Y62.225 E50.29003
G1 X46.404 Y60.42 E50.37545
G1 X48.134 Y58.612 E50.45867
G1 X49.851 Y56.713 E50.54382
G1 X51.488 Y54.797 E50.62764
G1 X53.365 Y52.436 E50.72796
G1 X54.636 Y50.875 E50.79492
G1 X55.272 Y50.123 E50.82767
G1 X55.737 Y49.586 E50.8513
G1 F1500 E44.3513
G0 F6000 X166.657 Y56.521
G0 X167.064 Y56.928
G0 X170.3 Y62.681
G1 F1500 E50.8513
G1 F1200 X170.5 Y62.682 E50.85795
G1 X170.5 Y153.742 E53.88662
G1 X170.3 Y153.743 E53.89327
G1 X170.3 Y62.681 E56.92201
G0 F6000 X169.9 Y62.281
G1 F1200 X170.9 Y62.282 E56.95527
G1 X170.9 Y154.142 E60.01054
G1 X169.9 Y154.143 E60.0438
G1 X169.9 Y62.281 E63.09914
G0 F6000 X169.5 Y61.881
