;FLAVOR:Marlin
;TIME:15449
;Filament used: 9.27639m
;Layer height: 0.2
;MINX:39.485
;MINY:85.8
;MINZ:0.2
;MAXX:182.436
;MAXY:134.829
;MAXZ:55
;Generated with Cura_SteamEngine 4.8.0
M140 S60
M105
M190 S60
M104 S200
M105
M109 S200
M82 ;absolute extrusion mode
; Ender 3 Custom Start G-code
G92 E0 ; Reset Extruder
G28 ; Home all axes
G1 Z2.0 F3000 ; Move Z Axis up little to prevent scratching of Heat Bed
G1 X0.1 Y20 Z0.3 F5000.0 ; Move to start position
G1 X0.1 Y200.0 Z0.3 F1500.0 E15 ; Draw the first line
G1 X0.4 Y200.0 Z0.3 F5000.0 ; Move to side a little
G1 X0.4 Y20 Z0.3 F1500.0 E30 ; Draw the second line
G92 E0 ; Reset Extruder
G1 Z2.0 F3000 ; Move Z Axis up little to prevent scratching of Heat Bed
G1 X5 Y20 Z0.3 F5000.0 ; Move over to prevent blob squish
G92 E0
G92 E0
G1 F1500 E-6.5
;LAYER_COUNT:275
;LAYER:0
M107
G0 F6000 X52.821 Y105.75 Z0.2
;TYPE:SKIRT
G1 F1500 E0
G1 F1200 X53.686 Y105.388 E0.03119
G1 X54.579 Y105.102 E0.06238
G1 X55.493 Y104.893 E0.09356
G1 X56.422 Y104.762 E0.12476
G1 X57.152 Y104.715 E0.14909
G1 X57.478 Y104.705 E0.15994
G1 X57.815 Y104.7 E0.17115
G1 X58.952 Y104.701 E0.20897
G1 X60.615 Y104.725 E0.26429
G1 X61.285 Y104.744 E0.28658
G1 X64.459 Y104.738 E0.39215
G1 X66.39 Y104.702 E0.45638
G1 X66.993 Y104.7 E0.47644
G1 X67.852 Y104.711 E0.50501
G1 X68.788 Y104.764 E0.53619
G1 X69.603 Y104.877 E0.56356
G1 X70.344 Y105.032 E0.58874
G1 X71.254 Y105.256 E0.61991
G1 X73.727 Y105.826 E0.70432
G1 X76.254 Y106.335 E0.79005
G1 X78.686 Y106.75 E0.87211
G1 X81.202 Y107.109 E0.95664
G1 X83.692 Y107.392 E1.03999
G1 X86.198 Y107.606 E1.12365
G1 X88.715 Y107.748 E1.2075
G1 X91.231 Y107.821 E1.29121
G1 X92.58 Y107.83 E1.33608
G1 X100.751 Y107.83 E1.60785
G1 X103.359 Y107.793 E1.6946
G1 X105.881 Y107.686 E1.77856
G1 X108.376 Y107.509 E1.86175
G1 X110.874 Y107.261 E1.94524
G1 X113.363 Y106.943 E2.0287
G1 X115.872 Y106.549 E2.11317
G1 X118.338 Y106.09 E2.1966
G1 X120.789 Y105.563 E2.27999
G1 X123.249 Y104.96 E2.36423
G1 X125.683 Y104.29 E2.44819
G1 X128.062 Y103.562 E2.53094
G1 X130.465 Y102.751 E2.6153
G1 X132.835 Y101.877 E2.69931
G1 X135.168 Y100.941 E2.78292
G1 X137.46 Y99.944 E2.86605
G1 X139.774 Y98.858 E2.95107
G1 X141.988 Y97.743 E3.03352
G1 X144.22 Y96.539 E3.11787
G1 X146.386 Y95.289 E3.20104
G1 X148.561 Y93.951 E3.28598
G1 X150.62 Y92.602 E3.36785
G1 X152.723 Y91.137 E3.45309
G1 X154.733 Y89.653 E3.53619
G1 X156.506 Y88.264 E3.61111
G1 X156.771 Y88.062 E3.62219
G1 X157.54 Y87.526 E3.65337
G1 X158.352 Y87.057 E3.68455
G1 X159.202 Y86.659 E3.71577
G1 X160.082 Y86.335 E3.74696
G1 X160.986 Y86.087 E3.77814
G1 X161.909 Y85.917 E3.80935
G1 X163.103 Y85.815 E3.84921
G1 X163.43 Y85.805 E3.86009
G1 X163.766 Y85.8 E3.87127
G1 X170.729 Y85.8 E4.10286
G1 X171.585 Y85.811 E4.13133
G1 X172.521 Y85.865 E4.16252
G1 X173.449 Y85.997 E4.19369
G1 X174.363 Y86.209 E4.2249
G1 X175.255 Y86.498 E4.25608
G1 X176.12 Y86.861 E4.28729
G1 X176.95 Y87.297 E4.31847
G1 X177.741 Y87.802 E4.34968
G1 X178.485 Y88.373 E4.38087
G1 X179.178 Y89.005 E4.41207
G1 X179.815 Y89.693 E4.44325
G1 X180.39 Y90.434 E4.47445
G1 X180.901 Y91.22 E4.50563
G1 X181.343 Y92.048 E4.53685
G1 X181.712 Y92.91 E4.56804
G1 X182.007 Y93.8 E4.59922
G1 X182.225 Y94.712 E4.63041
G1 X182.365 Y95.64 E4.66162
G1 X182.423 Y96.501 E4.69033
G1 X182.432 Y96.821 E4.70097
G1 X182.436 Y97.13 E4.71125
G1 X182.435 Y104.249 E4.94803
G1 X182.425 Y104.952 E4.97141
G1 X182.372 Y105.889 E5.00263
G1 X182.239 Y106.817 E5.03381
G1 X182.027 Y107.731 E5.06502
G1 X181.739 Y108.623 E5.09619
G1 X181.375 Y109.488 E5.12741
G1 X180.799 Y110.553 E5.16768
G1 X180.3 Y111.364 E5.19935
G1 X179.708 Y112.297 E5.2361
G1 X178.402 Y114.489 E5.32097
G1 X177.192 Y116.657 E5.40354
G1 X176.028 Y118.887 E5.48721
G1 X174.864 Y121.282 E5.57578
G1 X174.448 Y122.168 E5.60833
G1 X173.922 Y123.153 E5.64547
G1 X173.406 Y123.936 E5.67666
G1 X172.825 Y124.672 E5.70785
G1 X172.183 Y125.356 E5.73905
G1 X171.485 Y125.983 E5.77026
G1 X170.737 Y126.548 E5.80144
G1 X169.865 Y127.092 E5.83562
G1 X169.269 Y127.424 E5.85831
G1 X167.885 Y128.172 E5.91064
G1 X165.727 Y129.419 E5.99353
G1 X164.187 Y130.358 E6.05352
G1 X163.384 Y130.858 E6.08499
G1 X162.573 Y131.316 E6.11596
G1 X161.871 Y131.674 E6.14217
G1 X160.869 Y132.168 E6.17933
G1 X160.226 Y132.474 E6.20301
G1 X159.077 Y132.943 E6.24429
G1 X158.253 Y133.225 E6.27326
G1 X157.115 Y133.598 E6.31309
G1 X156.419 Y133.815 E6.33734
G1 X155.579 Y134.041 E6.36627
G1 X155.363 Y134.09 E6.37364
G1 X155.064 Y134.154 E6.38381
G1 X154.686 Y134.228 E6.39662
G1 X153.044 Y134.536 E6.45218
G1 X152.333 Y134.659 E6.47618
G1 X151.403 Y134.779 E6.50737
G1 X150.797 Y134.815 E6.52756
G1 X150.505 Y134.824 E6.53728
G1 X150.166 Y134.829 E6.54855
G1 X58.14 Y134.829 E9.60935
G1 X57.438 Y134.819 E9.6327
G1 X56.502 Y134.766 E9.66388
G1 X55.687 Y134.653 E9.69125
G1 X54.945 Y134.498 E9.71646
G1 X54.254 Y134.328 E9.74013
G1 X51.765 Y133.755 E9.82508
G1 X49.152 Y133.227 E9.91375
G1 X48.524 Y133.113 E9.93497
G1 X47.609 Y132.906 E9.96618
G1 X46.715 Y132.622 E9.99738
G1 X45.849 Y132.262 E10.02857
G1 X45.017 Y131.83 E10.05975
G1 X44.224 Y131.329 E10.09095
G1 X43.477 Y130.762 E10.12214
G1 X42.781 Y130.134 E10.15332
G1 X42.141 Y129.448 E10.18452
G1 X41.561 Y128.71 E10.21574
G1 X41.047 Y127.926 E10.24692
G1 X40.601 Y127.101 E10.27811
G1 X40.228 Y126.241 E10.30929
G1 X39.928 Y125.352 E10.3405
G1 X39.706 Y124.441 E10.37169
G1 X39.562 Y123.514 E10.40289
G1 X39.498 Y122.588 E10.43376
G1 X39.489 Y122.255 E10.44484
G1 X39.485 Y121.958 E10.45472
G1 X39.486 Y120.81 E10.4929
G1 X39.496 Y120.141 E10.51516
G1 X39.55 Y119.204 E10.54637
G1 X39.684 Y118.276 E10.57756
G1 X39.896 Y117.362 E10.60876
G1 X40.185 Y116.47 E10.63995
G1 X40.549 Y115.606 E10.67113
G1 X40.986 Y114.776 E10.70233
G1 X41.491 Y113.986 E10.73352
G1 X42.062 Y113.242 E10.76471
G1 X42.695 Y112.549 E10.79593
G1 X43.384 Y111.913 E10.82711
G1 X44.124 Y111.338 E10.85828
G1 X44.72 Y110.943 E10.88207
G1 X46.871 Y109.616 E10.96613
G1 X49.009 Y108.213 E11.05118
G1 X51.198 Y106.687 E11.13993
G1 X51.989 Y106.184 E11.17111
G1 X52.821 Y105.75 E11.20232
G0 F6000 X53.021 Y106.098
G1 F1200 X53.872 Y105.746 E11.23295
G1 X54.75 Y105.47 E11.26356
G1 X55.649 Y105.271 E11.29419
G1 X56.562 Y105.151 E11.32481
G1 X57.164 Y105.115 E11.34487
G1 X57.49 Y105.105 E11.35572
G1 X57.815 Y105.1 E11.36653
G1 X58.946 Y105.101 E11.40415
G1 X60.76 Y105.128 E11.46449
G1 X61.308 Y105.144 E11.48272
G1 X64.467 Y105.138 E11.58779
G1 X66.398 Y105.102 E11.65203
G1 X66.993 Y105.1 E11.67182
G1 X67.846 Y105.111 E11.70019
G1 X68.765 Y105.164 E11.73081
G1 X69.534 Y105.271 E11.75663
G1 X70.248 Y105.42 E11.78089
G1 X71.117 Y105.634 E11.81066
G1 X73.705 Y106.231 E11.899
G1 X76.141 Y106.721 E11.98164
G1 X78.64 Y107.148 E12.06596
G1 X81.136 Y107.504 E12.14982
G1 X83.642 Y107.789 E12.23371
G1 X86.179 Y108.005 E12.31839
G1 X88.682 Y108.147 E12.40178
G1 X91.263 Y108.221 E12.48766
G1 X92.577 Y108.23 E12.53136
G1 X100.757 Y108.23 E12.80343
G1 X103.382 Y108.193 E12.89075
G1 X105.89 Y108.086 E12.97424
G1 X108.407 Y107.908 E13.05816
G1 X110.931 Y107.658 E13.14252
G1 X113.439 Y107.337 E13.22662
G1 X115.901 Y106.95 E13.30951
G1 X118.423 Y106.481 E13.39483
G1 X120.897 Y105.949 E13.479
G1 X123.345 Y105.349 E13.56283
G1 X125.768 Y104.682 E13.64642
G1 X128.202 Y103.937 E13.73108
G1 X130.627 Y103.119 E13.8162
G1 X132.944 Y102.264 E13.89834
G1 X135.341 Y101.302 E13.98425
G1 X137.64 Y100.302 E14.06763
G1 X139.916 Y99.234 E14.15125
G1 X142.179 Y98.095 E14.23552
G1 X144.431 Y96.879 E14.32064
G1 X146.59 Y95.634 E14.40353
G1 X148.743 Y94.309 E14.48762
G1 X150.886 Y92.905 E14.57283
G1 X152.926 Y91.484 E14.65552
G1 X154.967 Y89.977 E14.7399
G1 X156.632 Y88.671 E14.81028
G1 X157.013 Y88.38 E14.82623
G1 X157.769 Y87.854 E14.85686
G1 X158.567 Y87.396 E14.88746
G1 X159.403 Y87.009 E14.9181
G1 X160.268 Y86.695 E14.94871
G1 X161.158 Y86.458 E14.97934
G1 X162.065 Y86.299 E15.00997
G1 X163.115 Y86.215 E15.045
G1 X163.442 Y86.205 E15.05589
G1 X163.766 Y86.2 E15.06666
G1 X170.729 Y86.2 E15.29825
G1 X171.579 Y86.211 E15.32653
G1 X172.498 Y86.264 E15.35714
G1 X173.409 Y86.397 E15.38776
G1 X174.305 Y86.608 E15.41838
G1 X175.179 Y86.896 E15.44899
G1 X176.026 Y87.259 E15.47964
G1 X176.837 Y87.694 E15.51025
G1 X177.607 Y88.198 E15.54086
G1 X178.331 Y88.767 E15.57148
G1 X179.003 Y89.397 E15.60212
G1 X179.618 Y90.082 E15.63274
G1 X180.171 Y90.818 E15.66336
G1 X180.658 Y91.599 E15.69397
G1 X181.075 Y92.42 E15.7246
G1 X181.42 Y93.274 E15.75523
G1 X181.689 Y94.154 E15.78584
G1 X181.881 Y95.055 E15.81648
G1 X181.994 Y95.968 E15.84707
G1 X182.023 Y96.512 E15.86519
G1 X182.032 Y96.832 E15.87584
G1 X182.036 Y97.13 E15.88575
G1 X182.035 Y104.244 E16.12237
G1 X182.025 Y104.947 E16.14575
G1 X181.972 Y105.866 E16.17637
G1 X181.839 Y106.777 E16.20699
G1 X181.628 Y107.673 E16.23761
G1 X181.34 Y108.547 E16.26821
G1 X180.977 Y109.394 E16.29886
G1 X180.458 Y110.344 E16.33487
G1 X179.962 Y111.15 E16.36634
G1 X179.359 Y112.1 E16.40377
G1 X178.067 Y114.269 E16.48774
G1 X176.831 Y116.484 E16.5721
G1 X175.671 Y118.706 E16.65547
G1 X174.504 Y121.107 E16.74426
G1 X174.086 Y121.997 E16.77697
G1 X173.579 Y122.948 E16.81281
G1 X173.072 Y123.716 E16.84342
G1 X172.5 Y124.437 E16.87403
G1 X171.867 Y125.106 E16.90466
G1 X171.179 Y125.717 E16.93527
G1 X170.44 Y126.267 E16.96591
G1 X169.669 Y126.743 E16.99604
G1 X169.079 Y127.072 E17.01851
G1 X167.701 Y127.817 E17.07061
G1 X165.53 Y129.071 E17.154
G1 X164.012 Y129.997 E17.21314
G1 X163.173 Y130.519 E17.24601
G1 X162.391 Y130.96 E17.27587
G1 X161.694 Y131.315 E17.30188
G1 X160.697 Y131.806 E17.33885
G1 X160.054 Y132.112 E17.36253
G1 X158.947 Y132.564 E17.4023
G1 X158.128 Y132.845 E17.4311
G1 X156.996 Y133.217 E17.47073
G1 X156.3 Y133.434 E17.49498
G1 X155.49 Y133.651 E17.52287
G1 X155.274 Y133.7 E17.53024
G1 X154.986 Y133.761 E17.54003
G1 X154.612 Y133.835 E17.55271
G1 X152.976 Y134.142 E17.60807
G1 X152.265 Y134.265 E17.63207
G1 X151.352 Y134.382 E17.66269
G1 X150.785 Y134.415 E17.68158
G1 X150.493 Y134.424 E17.69129
G1 X150.166 Y134.429 E17.70217
G1 X58.146 Y134.429 E20.76277
G1 X57.444 Y134.419 E20.78612
G1 X56.525 Y134.366 E20.81674
G1 X55.756 Y134.259 E20.84256
G1 X55.04 Y134.109 E20.86689
G1 X54.359 Y133.941 E20.89022
G1 X51.863 Y133.366 E20.97541
G1 X49.254 Y132.84 E21.06393
G1 X48.595 Y132.72 E21.08621
G1 X47.698 Y132.515 E21.11682
G1 X46.821 Y132.234 E21.14745
G1 X45.972 Y131.878 E21.17807
G1 X45.157 Y131.45 E21.20868
G1 X44.383 Y130.952 E21.2393
G1 X43.654 Y130.389 E21.26993
G1 X42.977 Y129.765 E21.30055
G1 X42.357 Y129.084 E21.33118
G1 X41.798 Y128.353 E21.36179
G1 X41.305 Y127.575 E21.39243
G1 X40.881 Y126.758 E21.42304
G1 X40.53 Y125.907 E21.45366
G1 X40.254 Y125.029 E21.48427
G1 X40.055 Y124.13 E21.51489
G1 X39.935 Y123.217 E21.54552
G1 X39.898 Y122.577 E21.56684
G1 X39.889 Y122.244 E21.57792
G1 X39.885 Y121.958 E21.58744
G1 X39.886 Y120.816 E21.62542
G1 X39.896 Y120.147 E21.64767
G1 X39.95 Y119.227 E21.67833
G1 X40.083 Y118.317 E21.70891
G1 X40.295 Y117.421 E21.73954
G1 X40.584 Y116.546 E21.77019
G1 X40.947 Y115.701 E21.80078
G1 X41.383 Y114.889 E21.83143
G1 X41.887 Y114.119 E21.86204
G1 X42.456 Y113.396 E21.89264
G1 X43.086 Y112.724 E21.92328
G1 X43.772 Y112.11 E21.9539
G1 X44.508 Y111.557 E21.98452
G1 X44.93 Y111.283 E22.00125
G1 X47.104 Y109.942 E22.08621
G1 X49.23 Y108.547 E22.17078
G1 X51.427 Y107.015 E22.25987
G1 X52.204 Y106.522 E22.29047
G1 X53.021 Y106.098 E22.32109
G0 F6000 X53.221 Y106.446
G1 F1200 X54.057 Y106.105 E22.35112
G1 X54.92 Y105.839 E22.38115
G1 X55.803 Y105.65 E22.41119
G1 X56.7 Y105.541 E22.44124
G1 X57.176 Y105.515 E22.4571
G1 X57.502 Y105.505 E22.46794
G1 X57.815 Y105.5 E22.47836
G1 X58.94 Y105.501 E22.51577
G1 X60.748 Y105.528 E22.57591
G1 X61.297 Y105.544 E22.59418
G1 X64.475 Y105.538 E22.69988
G1 X66.405 Y105.502 E22.76409
G1 X66.993 Y105.5 E22.78364
G1 X67.84 Y105.511 E22.81182
G1 X68.742 Y105.564 E22.84187
G1 X69.466 Y105.665 E22.86618
G1 X70.153 Y105.809 E22.88953
G1 X71.012 Y106.02 E22.91895
G1 X73.608 Y106.619 E23.00756
G1 X76.066 Y107.114 E23.09096
G1 X78.582 Y107.544 E23.17585
G1 X81.106 Y107.903 E23.26065
G1 X83.599 Y108.187 E23.3441
G1 X86.123 Y108.402 E23.42835
G1 X88.683 Y108.547 E23.51363
G1 X91.249 Y108.621 E23.59902
G1 X92.574 Y108.63 E23.64309
G1 X100.763 Y108.63 E23.91545
G1 X103.369 Y108.593 E24.00214
G1 X105.937 Y108.484 E24.08763
G1 X108.439 Y108.307 E24.17105
G1 X110.951 Y108.058 E24.25501
G1 X113.514 Y107.73 E24.34095
G1 X115.999 Y107.339 E24.42462
G1 X118.482 Y106.878 E24.50862
G1 X120.963 Y106.344 E24.59302
G1 X123.441 Y105.737 E24.67788
G1 X125.928 Y105.052 E24.76368
G1 X128.3 Y104.326 E24.84618
G1 X130.745 Y103.501 E24.93201
G1 X133.125 Y102.623 E25.01638
G1 X135.47 Y101.682 E25.10042
G1 X137.804 Y100.667 E25.18507
G1 X140.087 Y99.596 E25.26895
G1 X142.37 Y98.446 E25.35397
G1 X144.615 Y97.235 E25.43881
G1 X146.794 Y95.978 E25.52248
G1 X148.975 Y94.635 E25.60767
G1 X151.087 Y93.252 E25.69163
G1 X153.187 Y91.789 E25.77676
G1 X155.206 Y90.298 E25.86024
G1 X156.991 Y88.9 E25.93565
G1 X157.256 Y88.698 E25.94673
G1 X157.997 Y88.183 E25.97674
G1 X158.782 Y87.735 E26.00681
G1 X159.603 Y87.359 E26.03684
G1 X160.454 Y87.057 E26.06687
G1 X161.328 Y86.831 E26.0969
G1 X162.219 Y86.683 E26.12694
G1 X163.127 Y86.615 E26.15723
G1 X163.454 Y86.605 E26.16811
G1 X163.766 Y86.6 E26.17849
G1 X170.729 Y86.6 E26.41008
G1 X171.573 Y86.611 E26.43815
G1 X172.475 Y86.664 E26.4682
G1 X173.368 Y86.796 E26.49823
G1 X174.246 Y87.007 E26.52826
G1 X175.102 Y87.295 E26.5583
G1 X175.929 Y87.657 E26.58832
G1 X176.721 Y88.092 E26.61838
G1 X177.472 Y88.594 E26.64842
G1 X178.175 Y89.161 E26.67846
G1 X178.825 Y89.788 E26.7085
G1 X179.417 Y90.47 E26.73854
G1 X179.947 Y91.201 E26.76857
G1 X180.409 Y91.977 E26.79861
G1 X180.802 Y92.79 E26.82864
G1 X181.12 Y93.635 E26.85867
G1 X181.363 Y94.505 E26.88871
G1 X181.528 Y95.393 E26.91875
G1 X181.623 Y96.523 E26.95647
G1 X181.632 Y96.843 E26.96712
G1 X181.636 Y97.13 E26.97666
G1 X181.635 Y104.238 E27.21308
G1 X181.625 Y104.941 E27.23646
G1 X181.572 Y105.843 E27.26651
G1 X181.44 Y106.736 E27.29654
G1 X181.229 Y107.614 E27.32657
G1 X180.941 Y108.47 E27.35661
G1 X180.579 Y109.297 E27.38664
G1 X180.117 Y110.135 E27.41846
G1 X179.624 Y110.935 E27.44972
G1 X179.021 Y111.886 E27.48717
G1 X177.732 Y114.049 E27.57092
G1 X176.485 Y116.283 E27.65601
G1 X175.301 Y118.552 E27.74114
G1 X174.162 Y120.894 E27.82776
G1 X173.724 Y121.827 E27.86204
G1 X173.236 Y122.742 E27.89653
G1 X172.738 Y123.495 E27.92656
G1 X172.175 Y124.201 E27.95659
G1 X171.551 Y124.854 E27.98663
G1 X170.873 Y125.45 E28.01665
G1 X170.144 Y125.984 E28.04671
G1 X169.474 Y126.394 E28.07284
G1 X168.889 Y126.72 E28.09511
G1 X167.517 Y127.461 E28.14697
G1 X165.284 Y128.752 E28.23276
G1 X163.814 Y129.648 E28.29002
G1 X162.961 Y130.179 E28.32344
G1 X162.209 Y130.604 E28.35217
G1 X161.517 Y130.956 E28.37799
G1 X160.525 Y131.445 E28.41478
G1 X159.882 Y131.751 E28.43846
G1 X158.817 Y132.186 E28.47672
G1 X158.003 Y132.465 E28.50534
G1 X156.877 Y132.835 E28.54477
G1 X156.181 Y133.052 E28.56901
G1 X155.402 Y133.261 E28.59584
G1 X155.186 Y133.31 E28.60321
G1 X154.909 Y133.369 E28.61263
G1 X154.538 Y133.442 E28.6252
G1 X152.908 Y133.748 E28.68036
G1 X152.197 Y133.871 E28.70436
G1 X151.301 Y133.985 E28.7344
G1 X150.772 Y134.015 E28.75203
G1 X150.48 Y134.024 E28.76174
G1 X150.166 Y134.029 E28.77219
G1 X58.152 Y134.029 E31.83259
G1 X57.45 Y134.019 E31.85594
G1 X56.548 Y133.966 E31.88599
G1 X55.824 Y133.865 E31.9103
G1 X55.136 Y133.721 E31.93368
G1 X54.479 Y133.56 E31.95618
G1 X51.884 Y132.961 E32.04476
G1 X49.357 Y132.452 E32.1305
G1 X48.667 Y132.326 E32.15383
G1 X47.787 Y132.125 E32.18385
