;FLAVOR:Marlin
;TIME:14853
;Filament used: 12.1044m
;Layer height: 0.2
;MINX:36.5
;MINY:46.182
;MINZ:0.2
;MAXX:183.5
;MAXY:173.818
;MAXZ:7.4
;Generated with Cura_SteamEngine 4.8.0
M140 S60
M105
M190 S60
M104 S200
M105
M109 S200
M82 ;absolute extrusion mode
; Ender 3 Custom Start G-code
G92 E0 ; Reset Extruder
G28 ; Home all axes
G1 Z2.0 F3000 ; Move Z Axis up little to prevent scratching of Heat Bed
G1 X0.1 Y20 Z0.3 F5000.0 ; Move to start position
G1 X0.1 Y200.0 Z0.3 F1500.0 E15 ; Draw the first line
G1 X0.4 Y200.0 Z0.3 F5000.0 ; Move to side a little
G1 X0.4 Y20 Z0.3 F1500.0 E30 ; Draw the second line
G92 E0 ; Reset Extruder
G1 Z2.0 F3000 ; Move Z Axis up little to prevent scratching of Heat Bed
G1 X5 Y20 Z0.3 F5000.0 ; Move over to prevent blob squish
G92 E0
G92 E0
G1 F1500 E-6.5
;LAYER_COUNT:37
;LAYER:0
M107
G0 F6000 X40.395 Y48.802 Z0.2
;TYPE:SKIRT
G1 F1500 E0
G1 F1200 X41.135 Y48.226 E0.03119
G1 X41.922 Y47.716 E0.06238
G1 X42.75 Y47.274 E0.0936
G1 X43.612 Y46.905 E0.12479
G1 X44.502 Y46.61 E0.15597
G1 X45.414 Y46.392 E0.18716
G1 X46.342 Y46.253 E0.21837
G1 X47.201 Y46.195 E0.247
G1 X47.521 Y46.186 E0.25765
G1 X47.83 Y46.182 E0.26793
G1 X54.293 Y46.182 E0.48289
G1 X55.32 Y46.195 E0.51705
G1 X55.628 Y46.204 E0.5273
G1 X56.061 Y46.222 E0.54171
G1 X152.04 Y51.073 E3.73806
G1 X152.699 Y51.116 E3.76003
G1 X153.96 Y51.272 E3.80229
G1 X155.1 Y51.482 E3.84084
G1 X156.504 Y51.766 E3.88849
G1 X157.413 Y51.964 E3.91943
G1 X158.587 Y52.29 E3.95995
G1 X158.865 Y52.384 E3.96971
G1 X159.192 Y52.5 E3.98125
G1 X161.161 Y53.237 E4.05118
G1 X161.818 Y53.494 E4.07464
G1 X162.636 Y53.852 E4.10434
G1 X162.845 Y53.954 E4.11208
G1 X163.121 Y54.094 E4.12237
G1 X163.462 Y54.273 E4.13518
G1 X164.216 Y54.676 E4.16362
G1 X166.518 Y55.866 E4.24981
G1 X168.803 Y56.967 E4.33417
G1 X171.081 Y57.985 E4.41716
G1 X173.457 Y58.968 E4.50268
G1 X175.478 Y59.742 E4.57466
G1 X176.299 Y60.045 E4.60376
G1 X177.165 Y60.407 E4.63498
G1 X177.996 Y60.842 E4.66618
G1 X178.787 Y61.345 E4.69736
G1 X179.533 Y61.914 E4.72856
G1 X180.227 Y62.545 E4.75976
G1 X180.865 Y63.232 E4.79094
G1 X181.442 Y63.971 E4.82213
G1 X181.954 Y64.757 E4.85333
G1 X182.397 Y65.584 E4.88453
G1 X182.769 Y66.445 E4.91573
G1 X183.065 Y67.335 E4.94692
G1 X183.285 Y68.246 E4.97809
G1 X183.426 Y69.174 E5.00931
G1 X183.487 Y70.059 E5.03882
G1 X183.496 Y70.382 E5.04957
G1 X183.5 Y70.688 E5.05974
G1 X183.499 Y149.057 E7.66631
G1 X183.489 Y149.785 E7.69052
G1 X183.436 Y150.721 E7.7217
G1 X183.304 Y151.65 E7.75291
G1 X183.093 Y152.564 E7.78411
G1 X182.805 Y153.456 E7.81529
G1 X182.441 Y154.321 E7.8465
G1 X182.006 Y155.152 E7.8777
G1 X181.501 Y155.942 E7.90888
G1 X180.931 Y156.687 E7.94008
G1 X180.3 Y157.38 E7.97126
G1 X179.612 Y158.017 E8.00244
G1 X178.872 Y158.594 E8.03365
G1 X178.085 Y159.105 E8.06486
G1 X177.258 Y159.547 E8.09605
G1 X176.463 Y159.891 E8.12486
G1 X175.686 Y160.191 E8.15256
G1 X174.45 Y160.648 E8.19639
G1 X172.145 Y161.575 E8.27902
G1 X169.805 Y162.594 E8.36391
G1 X167.55 Y163.653 E8.44677
G1 X165.256 Y164.811 E8.53224
G1 X163.885 Y165.54 E8.58389
G1 X163.39 Y165.788 E8.6023
G1 X163.058 Y165.94 E8.61445
G1 X162.467 Y166.198 E8.63589
G1 X160.818 Y166.896 E8.69545
G1 X160.06 Y167.204 E8.72266
G1 X158.85 Y167.615 E8.76517
G1 X157.823 Y167.898 E8.8006
G1 X157.611 Y167.954 E8.80789
G1 X156.285 Y168.29 E8.85339
G1 X155.53 Y168.471 E8.87921
G1 X154.922 Y168.599 E8.89988
G1 X154.547 Y168.662 E8.91252
G1 X154.266 Y168.705 E8.92198
G1 X153.974 Y168.746 E8.93179
G1 X153.441 Y168.813 E8.94965
G1 X152.808 Y168.874 E8.9708
G1 X151.822 Y168.939 E9.00367
G1 X56.092 Y173.776 E12.19172
G1 X55.263 Y173.806 E12.21932
G1 X54.985 Y173.812 E12.22856
G1 X54.407 Y173.818 E12.24779
G1 X48.049 Y173.817 E12.45926
G1 X47.351 Y173.807 E12.48248
G1 X46.415 Y173.753 E12.51366
G1 X45.487 Y173.621 E12.54483
G1 X44.573 Y173.409 E12.57604
G1 X43.681 Y173.12 E12.60723
G1 X42.816 Y172.757 E12.63843
G1 X41.986 Y172.321 E12.66961
G1 X41.195 Y171.816 E12.70082
G1 X40.451 Y171.245 E12.73202
G1 X39.758 Y170.613 E12.76321
G1 X39.121 Y169.925 E12.7944
G1 X38.546 Y169.184 E12.82559
G1 X38.035 Y168.398 E12.85678
G1 X37.593 Y167.57 E12.88799
G1 X37.224 Y166.708 E12.91918
G1 X36.929 Y165.818 E12.95036
G1 X36.711 Y164.906 E12.98155
G1 X36.571 Y163.978 E13.01277
G1 X36.513 Y163.106 E13.04183
G1 X36.504 Y162.774 E13.05288
G1 X36.5 Y162.476 E13.06279
G1 X36.501 Y57.72 E16.54699
G1 X36.511 Y57.031 E16.56991
G1 X36.565 Y56.095 E16.60109
G1 X36.698 Y55.167 E16.63227
G1 X36.91 Y54.253 E16.66348
G1 X37.198 Y53.361 E16.69466
G1 X37.562 Y52.496 E16.72587
G1 X37.998 Y51.666 E16.75705
G1 X38.503 Y50.876 E16.78824
G1 X39.074 Y50.132 E16.81943
G1 X39.706 Y49.439 E16.85063
G1 X40.395 Y48.802 E16.88184
G0 F6000 X40.783 Y48.999
G1 F1200 X41.52 Y48.446 E16.91248
G1 X42.301 Y47.959 E16.9431
G1 X43.122 Y47.542 E16.97372
G1 X43.976 Y47.198 E17.00434
G1 X44.856 Y46.929 E17.03495
G1 X45.757 Y46.737 E17.06559
G1 X46.67 Y46.624 E17.09619
G1 X47.212 Y46.595 E17.11424
G1 X47.532 Y46.586 E17.12489
G1 X47.83 Y46.582 E17.1348
G1 X54.293 Y46.582 E17.34976
G1 X55.315 Y46.595 E17.38376
G1 X55.611 Y46.603 E17.3936
G1 X56.041 Y46.622 E17.40792
G1 X152.014 Y51.472 E20.60407
G1 X152.673 Y51.515 E20.62603
G1 X153.888 Y51.666 E20.66676
G1 X155.021 Y51.874 E20.70507
G1 X156.425 Y52.158 E20.75271
G1 X157.328 Y52.355 E20.78345
G1 X158.459 Y52.668 E20.82248
G1 X158.737 Y52.762 E20.83224
G1 X159.052 Y52.874 E20.84336
G1 X161.016 Y53.609 E20.91311
G1 X161.673 Y53.866 E20.93658
G1 X162.46 Y54.212 E20.96517
G1 X162.669 Y54.314 E20.9729
G1 X162.936 Y54.449 E20.98286
G1 X163.274 Y54.626 E20.99555
G1 X164.081 Y55.057 E21.02597
G1 X166.339 Y56.225 E21.11053
G1 X168.603 Y57.315 E21.1941
G1 X170.943 Y58.361 E21.27935
G1 X173.277 Y59.327 E21.36337
G1 X175.417 Y60.147 E21.43959
G1 X176.161 Y60.421 E21.46596
G1 X177.01 Y60.777 E21.49658
G1 X177.825 Y61.205 E21.5272
G1 X178.6 Y61.702 E21.55782
G1 X179.328 Y62.265 E21.58843
G1 X180.005 Y62.889 E21.61905
G1 X180.626 Y63.569 E21.64968
G1 X181.185 Y64.301 E21.68032
G1 X181.678 Y65.078 E21.71092
G1 X182.102 Y65.895 E21.74154
G1 X182.454 Y66.746 E21.77217
G1 X182.73 Y67.624 E21.80278
G1 X182.93 Y68.523 E21.83341
G1 X183.05 Y69.436 E21.86404
G1 X183.087 Y70.07 E21.88516
G1 X183.096 Y70.393 E21.89591
G1 X183.1 Y70.688 E21.90572
G1 X183.099 Y149.052 E24.51212
G1 X183.089 Y149.78 E24.53633
G1 X183.036 Y150.699 E24.56695
G1 X182.904 Y151.61 E24.59757
G1 X182.693 Y152.506 E24.62818
G1 X182.406 Y153.381 E24.65881
G1 X182.043 Y154.227 E24.68943
G1 X181.609 Y155.039 E24.72005
G1 X181.105 Y155.809 E24.75066
G1 X180.537 Y156.534 E24.78129
G1 X179.908 Y157.206 E24.81191
G1 X179.223 Y157.821 E24.84253
G1 X178.487 Y158.374 E24.87315
G1 X177.706 Y158.862 E24.90378
G1 X176.886 Y159.28 E24.93439
G1 X176.319 Y159.518 E24.95484
G1 X175.547 Y159.816 E24.98236
G1 X174.311 Y160.273 E25.02619
G1 X171.972 Y161.214 E25.11005
G1 X169.654 Y162.224 E25.19415
G1 X167.378 Y163.292 E25.27777
G1 X165.066 Y164.458 E25.36389
G1 X163.697 Y165.187 E25.41548
G1 X163.22 Y165.425 E25.43321
G1 X162.897 Y165.573 E25.44502
G1 X162.311 Y165.83 E25.46631
G1 X160.512 Y166.59 E25.53126
G1 X159.91 Y166.834 E25.55287
G1 X158.744 Y167.229 E25.59381
G1 X157.717 Y167.512 E25.62924
G1 X157.513 Y167.566 E25.63626
G1 X156.192 Y167.901 E25.68159
G1 X155.437 Y168.082 E25.70741
G1 X154.851 Y168.205 E25.72733
G1 X154.486 Y168.267 E25.73964
G1 X154.205 Y168.31 E25.7491
G1 X153.924 Y168.349 E25.75853
G1 X153.391 Y168.416 E25.7764
G1 X152.781 Y168.475 E25.79678
G1 X151.979 Y168.529 E25.82352
G1 X56.229 Y173.369 E29.01224
G1 X55.248 Y173.406 E29.04489
G1 X54.981 Y173.412 E29.05378
G1 X54.407 Y173.418 E29.07287
G1 X48.055 Y173.417 E29.28414
G1 X47.357 Y173.407 E29.30735
G1 X46.438 Y173.354 E29.33797
G1 X45.527 Y173.221 E29.36859
G1 X44.631 Y173.01 E29.39921
G1 X43.757 Y172.722 E29.42982
G1 X42.91 Y172.359 E29.46046
G1 X42.099 Y171.924 E29.49107
G1 X41.329 Y171.42 E29.52168
G1 X40.605 Y170.851 E29.55231
G1 X39.933 Y170.221 E29.58295
G1 X39.318 Y169.536 E29.61356
G1 X38.765 Y168.8 E29.64418
G1 X38.278 Y168.019 E29.6748
G1 X37.861 Y167.198 E29.70542
G1 X37.516 Y166.344 E29.73606
G1 X37.247 Y165.464 E29.76666
G1 X37.055 Y164.563 E29.7973
G1 X36.942 Y163.65 E29.8279
G1 X36.913 Y163.095 E29.84639
G1 X36.904 Y162.763 E29.85743
G1 X36.9 Y162.476 E29.86698
G1 X36.901 Y57.726 E33.35098
G1 X36.911 Y57.037 E33.3739
G1 X36.964 Y56.118 E33.40451
G1 X37.097 Y55.207 E33.43514
G1 X37.309 Y54.311 E33.46576
G1 X37.597 Y53.437 E33.49637
G1 X37.96 Y52.591 E33.52699
G1 X38.395 Y51.779 E33.55762
G1 X38.899 Y51.009 E33.58823
G1 X39.468 Y50.285 E33.61886
G1 X40.098 Y49.613 E33.6495
G1 X40.783 Y48.999 E33.68009
G0 F6000 X41.171 Y49.2
G1 F1200 X41.903 Y48.67 E33.71015
G1 X42.679 Y48.208 E33.74019
G1 X43.492 Y47.816 E33.77021
G1 X44.337 Y47.497 E33.80025
G1 X45.207 Y47.254 E33.83029
G1 X46.095 Y47.09 E33.86033
G1 X47.223 Y46.995 E33.89798
G1 X47.543 Y46.986 E33.90863
G1 X47.83 Y46.982 E33.91817
G1 X54.293 Y46.982 E34.13313
G1 X55.31 Y46.995 E34.16696
G1 X55.595 Y47.003 E34.17644
G1 X56.021 Y47.021 E34.19062
G1 X151.839 Y51.863 E37.38161
G1 X152.647 Y51.915 E37.40854
G1 X153.816 Y52.059 E37.44772
G1 X154.941 Y52.266 E37.48576
G1 X156.502 Y52.583 E37.53874
G1 X157.243 Y52.745 E37.56397
G1 X158.331 Y53.047 E37.60152
G1 X158.609 Y53.141 E37.61128
G1 X158.912 Y53.249 E37.62198
G1 X160.87 Y53.982 E37.69152
G1 X161.527 Y54.239 E37.71498
G1 X162.285 Y54.571 E37.74251
G1 X162.494 Y54.673 E37.75024
G1 X162.75 Y54.803 E37.75979
G1 X163.085 Y54.979 E37.77238
G1 X163.83 Y55.377 E37.80047
G1 X166.175 Y56.589 E37.88827
G1 X168.46 Y57.69 E37.97263
G1 X170.776 Y58.726 E38.05702
G1 X173.129 Y59.699 E38.1417
G1 X175.24 Y60.507 E38.21688
G1 X176.022 Y60.796 E38.24461
G1 X176.855 Y61.146 E38.27466
G1 X177.653 Y61.568 E38.30469
G1 X178.411 Y62.059 E38.33473
G1 X179.123 Y62.615 E38.36477
G1 X179.782 Y63.232 E38.3948
G1 X180.385 Y63.905 E38.42485
G1 X180.925 Y64.629 E38.45489
G1 X181.399 Y65.397 E38.48491
G1 X181.804 Y66.205 E38.51497
G1 X182.135 Y67.045 E38.545
G1 X182.391 Y67.911 E38.57504
G1 X182.57 Y68.796 E38.60507
G1 X182.687 Y70.081 E38.64798
G1 X182.696 Y70.404 E38.65873
G1 X182.7 Y70.688 E38.66818
G1 X182.699 Y149.046 E41.27438
G1 X182.689 Y149.774 E41.29859
G1 X182.637 Y150.676 E41.32864
G1 X182.505 Y151.569 E41.35867
G1 X182.294 Y152.447 E41.3887
G1 X182.007 Y153.304 E41.41876
G1 X181.645 Y154.131 E41.44879
G1 X181.212 Y154.923 E41.47881
G1 X180.709 Y155.674 E41.50887
G1 X180.143 Y156.377 E41.53889
G1 X179.517 Y157.028 E41.56893
G1 X178.835 Y157.62 E41.59897
G1 X178.104 Y158.15 E41.629
G1 X177.328 Y158.613 E41.65905
G1 X176.174 Y159.145 E41.70132
G1 X175.409 Y159.441 E41.7286
G1 X174.16 Y159.903 E41.77289
G1 X171.812 Y160.847 E41.85706
G1 X169.49 Y161.859 E41.94131
G1 X167.207 Y162.931 E42.02519
G1 X164.877 Y164.106 E42.11199
G1 X163.509 Y164.834 E42.16353
G1 X163.05 Y165.063 E42.18059
G1 X162.736 Y165.207 E42.19208
G1 X162.155 Y165.461 E42.21317
G1 X160.361 Y166.219 E42.27795
G1 X159.759 Y166.463 E42.29955
G1 X158.638 Y166.843 E42.33892
G1 X157.414 Y167.179 E42.38114
G1 X156.099 Y167.512 E42.42625
G1 X155.344 Y167.693 E42.45208
G1 X154.78 Y167.811 E42.47124
G1 X154.426 Y167.872 E42.48319
G1 X154.145 Y167.915 E42.49264
G1 X153.874 Y167.952 E42.50174
G1 X153.341 Y168.019 E42.51961
G1 X152.754 Y168.076 E42.53922
G1 X151.782 Y168.14 E42.57162
G1 X56.063 Y172.976 E45.75931
G1 X55.234 Y173.006 E45.7869
G1 X54.976 Y173.012 E45.79548
G1 X54.407 Y173.018 E45.81441
G1 X48.061 Y173.017 E46.02548
G1 X47.363 Y173.007 E46.0487
G1 X46.461 Y172.954 E46.07875
G1 X45.568 Y172.822 E46.10877
G1 X44.69 Y172.611 E46.13881
G1 X43.834 Y172.323 E46.16885
G1 X43.007 Y171.961 E46.19887
G1 X42.215 Y171.526 E46.22893
G1 X41.464 Y171.024 E46.25897
G1 X40.761 Y170.457 E46.28901
G1 X40.111 Y169.83 E46.31905
G1 X39.519 Y169.148 E46.34908
G1 X38.989 Y168.417 E46.37912
G1 X38.527 Y167.641 E46.40915
G1 X38.134 Y166.828 E46.43919
G1 X37.816 Y165.983 E46.46922
G1 X37.573 Y165.113 E46.49926
G1 X37.408 Y164.225 E46.5293
G1 X37.313 Y163.084 E46.56738
G1 X37.304 Y162.752 E46.57843
G1 X37.3 Y162.476 E46.58761
G1 X37.301 Y57.732 E50.07141
G1 X37.311 Y57.043 E50.09433
G1 X37.364 Y56.141 E50.12438
G1 X37.497 Y55.248 E50.15441
G1 X37.708 Y54.37 E50.18444
G1 X37.996 Y53.514 E50.21448
G1 X38.358 Y52.687 E50.24451
G1 X38.793 Y51.895 E50.27456
G1 X39.295 Y51.145 E50.30458
G1 X39.862 Y50.442 E50.33462
G1 X40.489 Y49.792 E50.36466
G1 X41.171 Y49.2 E50.39469
G1 F1500 E43.89469
;MESH:Battery_base6.STL
G0 F6000 X138.165 Y147.351
G0 X136.73 Y147.351
G0 X136.9 Y149.058
;TYPE:WALL-INNER
G1 F1500 E50.39469
G1 F1200 X136.9 Y149.059 E50.39473
G1 X136.9 Y149.267 E50.40164
G1 X137.108 Y149.257 E50.40606
G1 X151.757 Y148.515 E50.89392
G1 X151.757 Y71.485 E53.45595
G1 X137.108 Y70.743 E53.9438
G1 X136.9 Y70.733 E53.95072
G1 X136.9 Y70.941 E53.95514
G1 X136.9 Y70.942 E53.95517
G1 X136.9 Y149.058 E56.55332
G0 F6000 X137.3 Y148.846
;TYPE:WALL-OUTER
G1 F1200 X151.357 Y148.135 E57.02146
G1 X151.357 Y71.865 E59.55821
G1 X137.3 Y71.154 E60.02634
G1 X137.3 Y148.846 E62.61039
G1 F1500 E56.11039
G0 F6000 X137 Y148.846
G0 X151.546 Y148.736
G0 X150.504 Y147.324
G0 X152.905 Y158.462
G0 X152.702 Y157.023
G0 X151.98 Y157.316
;TYPE:WALL-INNER
G1 F1500 E62.61039
G1 F1200 X54.99 Y162.218 E65.84041
G1 X48.1 Y162.218 E66.06957
G1 X48.1 Y57.782 E69.54312
G1 X54.99 Y57.782 E69.77229
G1 X151.961 Y62.682 E73.00167
G1 X154.888 Y63.274 E73.10099
G1 X157.573 Y64.278 E73.19634
G1 X160.486 Y65.837 E73.30623
G1 X162.295 Y67.027 E73.37824
G1 X165.846 Y69.751 E73.5271
G1 X167.281 Y70.958 E73.58947
G1 X171.9 Y70.958 E73.74309
G1 X171.9 Y149.042 E76.34018
G1 X167.291 Y149.042 E76.49347
G1 X162.562 Y152.785 E76.69407
G1 X161.967 Y153.199 E76.71818
G1 X158.458 Y155.298 E76.85417
G1 X155.679 Y156.475 E76.95455
G1 X152.86 Y157.193 E77.05131
G1 X151.98 Y157.316 E77.08086
G0 F6000 X152.021 Y157.714
;TYPE:WALL-OUTER
G1 F1200 X54.99 Y162.618 E80.31224
G1 X47.7 Y162.618 E80.55471
G1 X47.7 Y57.382 E84.05487
G1 X54.99 Y57.382 E84.29734
G1 X152.013 Y62.285 E87.52845
G1 X155.001 Y62.889 E87.62985
G1 X157.739 Y63.913 E87.72707
G1 X160.686 Y65.49 E87.83824
G1 X162.528 Y66.701 E87.91156
G1 X166.104 Y69.445 E88.06148
G1 X167.427 Y70.558 E88.11898
G1 X172.3 Y70.558 E88.28106
G1 X172.3 Y149.442 E90.90475
G1 X167.43 Y149.442 E91.06673
G1 X162.802 Y153.105 E91.26304
G1 X162.19 Y153.532 E91.28786
G1 X158.639 Y155.656 E91.42548
G1 X155.802 Y156.857 E91.52795
G1 X152.943 Y157.585 E91.62607
G1 X152.021 Y157.714 E91.65704
G0 F6000 X151.98 Y157.276
G0 X151.951 Y156.926
;TYPE:SKIN
G1 F1200 X54.97 Y161.828 E94.88675
G1 X48.49 Y161.828 E95.10228
G1 X48.49 Y58.172 E98.54989
G1 X54.97 Y58.172 E98.76542
G1 X151.916 Y63.07 E101.99397
G1 X154.78 Y63.65 E102.09116
G1 X157.411 Y64.634 E102.18459
G1 X160.29 Y66.174 E102.29318
G1 X162.057 Y67.337 E102.36354
G1 X165.608 Y70.06 E102.51237
G1 X167.139 Y71.348 E102.57892
G1 X171.51 Y71.348 E102.7243
G1 X171.51 Y148.652 E105.29544
G1 X167.155 Y148.652 E105.44029
G1 X162.321 Y152.479 E105.64535
G1 X161.766 Y152.864 E105.66782
G1 X158.276 Y154.952 E105.80308
G1 X155.555 Y156.104 E105.90136
G1 X152.782 Y156.811 E105.99654
G1 X151.951 Y156.926 E106.02445
G1 F1500 E99.52445
G0 F6000 X151.987 Y157.204
G0 X152.815 Y156.987
G0 X153.178 Y158.415
G0 X150.504 Y147.324
G0 X151.953 Y148.702
G0 X152.147 Y148.886
G1 F1500 E106.02445
G1 F1200 X152.147 Y71.114 E108.61115
G1 X136.51 Y70.323 E109.13191
G1 X136.51 Y149.677 E111.77123
G1 X152.147 Y148.886 E112.29199
G1 F1500 E105.79199
G0 F6000 X151.894 Y148.619
G0 X151.947 Y71.789
G0 X150.504 Y72.676
G0 X173.165 Y71.789
G0 X171.69 Y71.789
