;FLAVOR:Marlin
;TIME:714
;Filament used: 0.393887m
;Layer height: 0.2
;MINX:84.034
;MINY:71.332
;MINZ:0.2
;MAXX:134.056
;MAXY:149.59
;MAXZ:1.2
;Generated with Cura_SteamEngine 4.8.0
M140 S60
M105
M190 S60
M104 S200
M105
M109 S200
M82 ;absolute extrusion mode
; Ender 3 Custom Start G-code
G92 E0 ; Reset Extruder
G28 ; Home all axes
G1 Z2.0 F3000 ; Move Z Axis up little to prevent scratching of Heat Bed
G1 X0.1 Y20 Z0.3 F5000.0 ; Move to start position
G1 X0.1 Y200.0 Z0.3 F1500.0 E15 ; Draw the first line
G1 X0.4 Y200.0 Z0.3 F5000.0 ; Move to side a little
G1 X0.4 Y20 Z0.3 F1500.0 E30 ; Draw the second line
G92 E0 ; Reset Extruder
G1 Z2.0 F3000 ; Move Z Axis up little to prevent scratching of Heat Bed
G1 X5 Y20 Z0.3 F5000.0 ; Move over to prevent blob squish
G92 E0
G92 E0
G1 F1500 E-6.5
;LAYER_COUNT:6
;LAYER:0
M107
G0 F6000 X87.45 Y75.175 Z0.2
;TYPE:SKIRT
G1 F1500 E0
G1 F1200 X88.091 Y74.489 E0.03123
G1 X88.787 Y73.861 E0.06241
G1 X89.535 Y73.295 E0.0936
G1 X90.328 Y72.794 E0.1248
G1 X91.16 Y72.362 E0.15598
G1 X92.027 Y72.003 E0.18719
G1 X92.921 Y71.72 E0.21838
G1 X93.835 Y71.513 E0.24955
G1 X94.764 Y71.385 E0.28074
G1 X95.638 Y71.337 E0.30986
G1 X95.978 Y71.332 E0.32117
G1 X96.291 Y71.332 E0.33158
G1 X99.721 Y71.38 E0.44567
G1 X100.399 Y71.399 E0.46823
G1 X101.629 Y71.503 E0.50928
G1 X102.992 Y71.695 E0.55507
G1 X105.407 Y72.009 E0.63607
G1 X107.902 Y72.261 E0.71947
G1 X110.416 Y72.443 E0.80331
G1 X112.912 Y72.553 E0.8864
G1 X115.47 Y72.594 E0.97149
G1 X118.078 Y72.561 E1.05824
G1 X118.94 Y72.548 E1.08692
G1 X119.257 Y72.548 E1.09746
G1 X122.689 Y72.596 E1.21162
G1 X123.362 Y72.615 E1.23401
G1 X124.298 Y72.682 E1.26523
G1 X125.224 Y72.828 E1.2964
G1 X126.135 Y73.052 E1.32761
G1 X127.023 Y73.353 E1.35879
G1 X127.883 Y73.728 E1.39
G1 X128.707 Y74.176 E1.42119
G1 X129.49 Y74.692 E1.45238
G1 X130.226 Y75.273 E1.48357
G1 X130.911 Y75.914 E1.51477
G1 X131.538 Y76.612 E1.54598
G1 X132.103 Y77.36 E1.57716
G1 X132.603 Y78.154 E1.60837
G1 X133.033 Y78.987 E1.63954
G1 X133.391 Y79.854 E1.67074
G1 X133.673 Y80.748 E1.70192
G1 X133.878 Y81.663 E1.73311
G1 X134.005 Y82.593 E1.76433
G1 X134.05 Y83.414 E1.79168
G1 X134.055 Y83.693 E1.80096
G1 X134.056 Y84.042 E1.81256
G1 X133.307 Y138.116 E3.61125
G1 X133.286 Y138.886 E3.63687
G1 X133.22 Y139.821 E3.66804
G1 X133.075 Y140.748 E3.69925
G1 X132.852 Y141.659 E3.73044
G1 X132.552 Y142.547 E3.76162
G1 X132.177 Y143.407 E3.79282
G1 X131.731 Y144.232 E3.82401
G1 X131.215 Y145.016 E3.85523
G1 X130.635 Y145.752 E3.8864
G1 X129.994 Y146.437 E3.9176
G1 X129.298 Y147.065 E3.94878
G1 X128.55 Y147.631 E3.97998
G1 X127.757 Y148.132 E4.01118
G1 X126.924 Y148.562 E4.04236
G1 X126.057 Y148.921 E4.07357
G1 X125.163 Y149.204 E4.10476
G1 X124.248 Y149.41 E4.13595
G1 X123.319 Y149.538 E4.16714
G1 X122.452 Y149.585 E4.19602
G1 X122.113 Y149.59 E4.2073
G1 X121.8 Y149.59 E4.21771
G1 X118.375 Y149.542 E4.33163
G1 X117.691 Y149.523 E4.35439
G1 X116.442 Y149.417 E4.39608
G1 X115.019 Y149.214 E4.44389
G1 X112.427 Y148.885 E4.53079
G1 X109.958 Y148.642 E4.61331
G1 X107.43 Y148.467 E4.69759
G1 X104.898 Y148.362 E4.78188
G1 X102.409 Y148.329 E4.86467
G1 X100.882 Y148.352 E4.91547
G1 X99.163 Y148.375 E4.97265
G1 X98.865 Y148.375 E4.98256
G1 X95.446 Y148.327 E5.09628
G1 X94.754 Y148.308 E5.11931
G1 X93.819 Y148.242 E5.15049
G1 X92.892 Y148.097 E5.18169
G1 X91.981 Y147.873 E5.21289
G1 X91.093 Y147.573 E5.24407
G1 X90.233 Y147.198 E5.27527
G1 X89.408 Y146.751 E5.30648
G1 X88.625 Y146.236 E5.33765
G1 X87.888 Y145.656 E5.36885
G1 X87.203 Y145.015 E5.40005
G1 X86.686 Y144.45 E5.42552
G1 X86.107 Y143.712 E5.45672
G1 X85.592 Y142.928 E5.48792
G1 X85.146 Y142.103 E5.51911
G1 X84.772 Y141.243 E5.5503
G1 X84.473 Y140.354 E5.5815
G1 X84.251 Y139.443 E5.61269
G1 X84.106 Y138.516 E5.64389
G1 X84.04 Y137.476 E5.67855
G1 X84.035 Y137.179 E5.68843
G1 X84.034 Y136.841 E5.69967
G1 X84.785 Y82.756 E7.49872
G1 X84.804 Y82.043 E7.52245
G1 X84.869 Y81.107 E7.55365
G1 X85.013 Y80.181 E7.58482
G1 X85.236 Y79.27 E7.61602
G1 X85.536 Y78.381 E7.64722
G1 X85.91 Y77.521 E7.67841
G1 X86.356 Y76.696 E7.70961
G1 X86.871 Y75.912 E7.7408
G1 X87.45 Y75.175 E7.77198
G0 F6000 X87.843 Y75.333
G1 F1200 X88.48 Y74.669 E7.80258
G1 X89.173 Y74.063 E7.8332
G1 X89.916 Y73.519 E7.86383
G1 X90.703 Y73.042 E7.89444
G1 X91.529 Y72.634 E7.92508
G1 X92.387 Y72.3 E7.9557
G1 X93.271 Y72.042 E7.98633
G1 X94.173 Y71.862 E8.01692
G1 X95.089 Y71.76 E8.04758
G1 X95.644 Y71.737 E8.06605
G1 X95.984 Y71.732 E8.07736
G1 X96.286 Y71.732 E8.08741
G1 X99.71 Y71.78 E8.2013
G1 X100.388 Y71.799 E8.22386
G1 X101.573 Y71.899 E8.26341
G1 X102.89 Y72.085 E8.30765
G1 X105.383 Y72.409 E8.39127
G1 X107.869 Y72.66 E8.47437
G1 X110.37 Y72.84 E8.55777
G1 X112.922 Y72.953 E8.64273
G1 X115.469 Y72.994 E8.72746
G1 X118.084 Y72.961 E8.81444
G1 X118.946 Y72.948 E8.84311
G1 X119.252 Y72.948 E8.85329
G1 X122.678 Y72.996 E8.96725
G1 X123.351 Y73.015 E8.98964
G1 X124.269 Y73.081 E9.02026
G1 X125.179 Y73.226 E9.0509
G1 X126.072 Y73.45 E9.08153
G1 X126.942 Y73.751 E9.11214
G1 X127.783 Y74.125 E9.14276
G1 X128.588 Y74.572 E9.17338
G1 X129.352 Y75.086 E9.20401
G1 X130.068 Y75.665 E9.23464
G1 X130.731 Y76.304 E9.26526
G1 X131.336 Y76.997 E9.29586
G1 X131.878 Y77.741 E9.32647
G1 X132.354 Y78.529 E9.35709
G1 X132.76 Y79.355 E9.38771
G1 X133.093 Y80.214 E9.41835
G1 X133.35 Y81.098 E9.44897
G1 X133.529 Y82.001 E9.47959
G1 X133.629 Y82.916 E9.5102
G1 X133.65 Y83.421 E9.52701
G1 X133.655 Y83.7 E9.53629
G1 X133.656 Y84.037 E9.5475
G1 X132.907 Y138.105 E11.34598
G1 X132.886 Y138.875 E11.3716
G1 X132.821 Y139.793 E11.40221
G1 X132.677 Y140.703 E11.43285
G1 X132.454 Y141.596 E11.46347
G1 X132.154 Y142.466 E11.49408
G1 X131.78 Y143.308 E11.52472
G1 X131.335 Y144.113 E11.55531
G1 X130.821 Y144.877 E11.58594
G1 X130.243 Y145.594 E11.61657
G1 X129.605 Y146.258 E11.6472
G1 X128.912 Y146.863 E11.67779
G1 X128.168 Y147.407 E11.70845
G1 X127.381 Y147.884 E11.73906
G1 X126.555 Y148.29 E11.76967
G1 X125.697 Y148.624 E11.80029
G1 X124.813 Y148.881 E11.83091
G1 X123.91 Y149.061 E11.86154
G1 X122.995 Y149.163 E11.89216
G1 X122.446 Y149.185 E11.91043
G1 X122.107 Y149.19 E11.92171
G1 X121.805 Y149.19 E11.93175
G1 X118.386 Y149.142 E12.04548
G1 X117.702 Y149.123 E12.06824
G1 X116.499 Y149.021 E12.1084
G1 X115.069 Y148.817 E12.15644
G1 X112.48 Y148.489 E12.24324
G1 X109.989 Y148.243 E12.32649
G1 X107.44 Y148.066 E12.41148
G1 X104.919 Y147.962 E12.4954
G1 X102.407 Y147.929 E12.57895
G1 X100.877 Y147.952 E12.62985
G1 X99.158 Y147.975 E12.68703
G1 X98.87 Y147.975 E12.69661
G1 X95.457 Y147.927 E12.81013
G1 X94.765 Y147.908 E12.83316
G1 X93.847 Y147.843 E12.86377
G1 X92.938 Y147.698 E12.89438
G1 X92.044 Y147.475 E12.92503
G1 X91.174 Y147.175 E12.95564
G1 X90.333 Y146.801 E12.98625
G1 X89.527 Y146.356 E13.01687
G1 X88.763 Y145.842 E13.0475
G1 X88.047 Y145.264 E13.0781
G1 X87.383 Y144.625 E13.10875
G1 X86.99 Y144.189 E13.12828
G1 X86.422 Y143.465 E13.15888
G1 X85.918 Y142.694 E13.18952
G1 X85.484 Y141.882 E13.22014
G1 X85.122 Y141.036 E13.25075
G1 X84.834 Y140.161 E13.28139
G1 X84.623 Y139.265 E13.312
G1 X84.491 Y138.354 E13.34262
G1 X84.44 Y137.469 E13.3721
G1 X84.435 Y137.172 E13.38198
G1 X84.434 Y136.847 E13.39279
G1 X85.185 Y82.767 E15.19167
G1 X85.204 Y82.054 E15.2154
G1 X85.268 Y81.135 E15.24604
G1 X85.412 Y80.226 E15.27665
G1 X85.634 Y79.332 E15.30729
G1 X85.933 Y78.462 E15.33788
G1 X86.307 Y77.62 E15.36853
G1 X86.752 Y76.814 E15.39915
G1 X87.265 Y76.05 E15.42976
G1 X87.843 Y75.333 E15.46039
G0 F6000 X88.235 Y75.495
G1 F1200 X88.869 Y74.852 E15.49042
G1 X89.559 Y74.269 E15.52047
G1 X90.297 Y73.748 E15.55051
G1 X91.078 Y73.295 E15.58054
G1 X91.896 Y72.913 E15.61057
G1 X92.745 Y72.604 E15.64062
G1 X93.618 Y72.372 E15.67066
G1 X94.508 Y72.218 E15.7007
G1 X95.65 Y72.137 E15.73878
G1 X95.99 Y72.132 E15.75009
G1 X96.28 Y72.132 E15.75974
G1 X99.699 Y72.18 E15.87347
G1 X100.377 Y72.199 E15.89603
G1 X101.517 Y72.295 E15.93408
G1 X102.865 Y72.485 E15.97935
G1 X105.328 Y72.805 E16.06196
G1 X107.836 Y73.058 E16.1458
G1 X110.358 Y73.241 E16.2299
G1 X112.9 Y73.353 E16.31453
G1 X115.467 Y73.394 E16.39992
G1 X118.09 Y73.361 E16.48717
G1 X118.952 Y73.348 E16.51584
G1 X119.246 Y73.348 E16.52562
G1 X122.667 Y73.396 E16.63942
G1 X123.34 Y73.415 E16.66181
G1 X124.241 Y73.48 E16.69186
G1 X125.132 Y73.625 E16.72188
G1 X126.007 Y73.848 E16.75191
G1 X126.859 Y74.148 E16.78196
G1 X127.681 Y74.522 E16.81199
G1 X128.467 Y74.967 E16.84203
G1 X129.21 Y75.48 E16.87206
G1 X129.905 Y76.056 E16.90209
G1 X130.547 Y76.692 E16.93214
G1 X131.129 Y77.382 E16.96217
G1 X131.649 Y78.121 E16.99222
G1 X132.101 Y78.903 E17.02226
G1 X132.481 Y79.722 E17.05229
G1 X132.789 Y80.571 E17.08233
G1 X133.019 Y81.444 E17.11236
G1 X133.172 Y82.335 E17.14243
G1 X133.25 Y83.428 E17.17887
G1 X133.255 Y83.707 E17.18815
G1 X133.256 Y84.031 E17.19893
G1 X132.507 Y138.094 E18.99725
G1 X132.486 Y138.864 E19.02287
G1 X132.422 Y139.765 E19.05291
G1 X132.278 Y140.656 E19.08293
G1 X132.055 Y141.532 E19.11299
G1 X131.757 Y142.384 E19.14301
G1 X131.383 Y143.206 E19.17305
G1 X130.939 Y143.993 E19.2031
G1 X130.427 Y144.737 E19.23314
G1 X129.851 Y145.432 E19.26317
G1 X129.216 Y146.074 E19.2932
G1 X128.526 Y146.657 E19.32324
G1 X127.788 Y147.177 E19.35327
G1 X127.007 Y147.63 E19.3833
G1 X126.188 Y148.012 E19.41336
G1 X125.339 Y148.32 E19.4434
G1 X124.466 Y148.551 E19.47343
G1 X123.576 Y148.705 E19.50347
G1 X122.44 Y148.785 E19.54135
G1 X122.101 Y148.79 E19.55263
G1 X121.811 Y148.79 E19.56227
G1 X118.397 Y148.742 E19.67583
G1 X117.713 Y148.723 E19.69859
G1 X116.555 Y148.625 E19.73725
G1 X115.102 Y148.418 E19.78606
G1 X112.538 Y148.092 E19.87203
G1 X110.02 Y147.845 E19.95618
G1 X107.449 Y147.666 E20.0419
G1 X104.941 Y147.562 E20.12538
G1 X102.407 Y147.529 E20.20967
G1 X100.871 Y147.552 E20.26077
G1 X99.152 Y147.575 E20.31794
G1 X98.876 Y147.575 E20.32712
G1 X95.468 Y147.527 E20.44049
G1 X94.776 Y147.508 E20.46351
G1 X93.875 Y147.443 E20.49356
G1 X92.984 Y147.299 E20.52358
G1 X92.108 Y147.077 E20.55363
G1 X91.256 Y146.778 E20.58366
G1 X90.434 Y146.405 E20.61369
G1 X89.648 Y145.96 E20.64373
G1 X88.904 Y145.448 E20.67377
G1 X88.208 Y144.872 E20.70382
G1 X87.312 Y143.95 E20.74658
G1 X86.737 Y143.218 E20.77754
G1 X86.245 Y142.461 E20.80757
G1 X85.822 Y141.663 E20.8376
G1 X85.472 Y140.83 E20.86766
G1 X85.196 Y139.97 E20.8977
G1 X84.998 Y139.089 E20.92773
G1 X84.878 Y138.194 E20.95776
G1 X84.839 Y137.463 E20.98211
G1 X84.834 Y137.166 E20.99199
G1 X84.834 Y136.853 E21.0024
G1 X85.585 Y82.777 E22.80115
G1 X85.604 Y82.064 E22.82487
G1 X85.668 Y81.163 E22.85492
G1 X85.811 Y80.272 E22.88493
G1 X86.033 Y79.396 E22.91499
G1 X86.331 Y78.544 E22.94501
G1 X86.704 Y77.721 E22.97506
G1 X87.147 Y76.935 E23.00507
G1 X87.659 Y76.191 E23.03511
G1 X88.235 Y75.495 E23.06516
G1 F1500 E16.56516
;MESH:Joint8_10_scaled.STL(1)
G0 F6000 X95.121 Y82.738
G0 X96.205 Y82.752
G0 X95.822 Y136.55
G0 X98.743 Y136.772
;TYPE:WALL-INNER
G1 F1500 E23.06516
G1 F1200 X95.836 Y136.732 E23.16185
G1 X95.835 Y136.731 E23.1619
G1 X95.637 Y136.73 E23.16849
G1 X95.639 Y136.532 E23.17274
G1 X96.382 Y82.934 E24.95559
G1 X99.487 Y82.977 E25.05888
G1 X98.743 Y136.772 E26.84828
G0 F6000 X99.137 Y137.178
;TYPE:WALL-OUTER
G1 F1200 X95.231 Y137.124 E26.9782
G1 X95.988 Y82.529 E28.79421
G1 X99.893 Y82.582 E28.92411
G1 X99.137 Y137.178 E30.74015
G0 F6000 X98.871 Y136.904
G0 X98.637 Y136.38
G0 X98.359 Y136.376
;TYPE:SKIN
G1 F1200 X96.033 Y136.346 E30.81752
G1 X96.766 Y83.33 E32.58101
G1 X99.091 Y83.361 E32.65834
G1 X98.359 Y136.376 E34.4218
G0 F6000 X98.637 Y136.38
G0 X95.822 Y136.55
G0 X95.762 Y135.791
G0 X96.199 Y135.797
G1 F1200 X96.593 Y136.191 E34.44033
G0 F6000 X97.166 Y136.198
G1 F1200 X96.207 Y135.239 E34.48544
G0 F6000 X96.215 Y134.681
G1 F1200 X97.739 Y136.205 E34.55712
G0 F6000 X98.202 Y136.103
G1 F1200 X96.223 Y134.124 E34.65021
G0 F6000 X96.23 Y133.566
G1 F1200 X98.21 Y135.546 E34.74334
G0 F6000 X98.217 Y134.987
G1 F1200 X96.238 Y133.008 E34.83643
G0 F6000 X96.246 Y132.45
G1 F1200 X98.225 Y134.429 E34.92952
G0 F6000 X98.233 Y133.871
G1 F1200 X96.253 Y131.891 E35.02265
G0 F6000 X96.261 Y131.333
G1 F1200 X98.241 Y133.313 E35.11578
G0 F6000 X98.248 Y132.755
G1 F1200 X96.269 Y130.775 E35.20889
G0 F6000 X96.276 Y130.217
G1 F1200 X98.256 Y132.197 E35.30202
G0 F6000 X98.264 Y131.639
G1 F1200 X96.284 Y129.66 E35.39513
G0 F6000 X96.292 Y129.102
G1 F1200 X98.272 Y131.082 E35.48827
G0 F6000 X98.28 Y130.524
G1 F1200 X96.3 Y128.544 E35.5814
G0 F6000 X96.307 Y127.986
G1 F1200 X98.287 Y129.965 E35.67451
G0 F6000 X98.294 Y129.407
G1 F1200 X96.315 Y127.428 E35.7676
G0 F6000 X96.323 Y126.87
G1 F1200 X98.302 Y128.849 E35.86068
G0 F6000 X98.31 Y128.291
G1 F1200 X96.331 Y126.312 E35.95377
G0 F6000 X96.338 Y125.753
G1 F1200 X98.318 Y127.733 E36.0469
G0 F6000 X98.326 Y127.175
G1 F1200 X96.346 Y125.196 E36.14001
G0 F6000 X96.353 Y124.638
G1 F1200 X98.333 Y126.618 E36.23314
G0 F6000 X98.341 Y126.06
G1 F1200 X96.361 Y124.08 E36.32628
G0 F6000 X96.369 Y123.522
G1 F1200 X98.349 Y125.502 E36.41941
G0 F6000 X98.357 Y124.944
G1 F1200 X96.377 Y122.964 E36.51254
G0 F6000 X96.385 Y122.406
G1 F1200 X98.364 Y124.385 E36.60563
G0 F6000 X98.371 Y123.827
G1 F1200 X96.392 Y121.848 E36.69872
G0 F6000 X96.4 Y121.29
G1 F1200 X98.379 Y123.269 E36.7918
G0 F6000 X98.387 Y122.712
G1 F1200 X96.408 Y120.732 E36.88491
G0 F6000 X96.415 Y120.174
G1 F1200 X98.395 Y122.154 E36.97804
G0 F6000 X98.403 Y121.596
G1 F1200 X96.423 Y119.616 E37.07118
G0 F6000 X96.43 Y119.058
G1 F1200 X98.41 Y121.038 E37.16431
G0 F6000 X98.418 Y120.48
G1 F1200 X96.438 Y118.5 E37.25744
G0 F6000 X96.446 Y117.942
G1 F1200 X98.426 Y119.922 E37.35058
G0 F6000 X98.434 Y119.364
G1 F1200 X96.454 Y117.384 E37.44371
G0 F6000 X96.462 Y116.826
G1 F1200 X98.441 Y118.805 E37.5368
G0 F6000 X98.449 Y118.248
G1 F1200 X96.469 Y116.268 E37.62993
G0 F6000 X96.477 Y115.71
G1 F1200 X98.456 Y117.69 E37.72304
G0 F6000 X98.464 Y117.132
G1 F1200 X96.485 Y115.153 E37.81613
G0 F6000 X96.493 Y114.595
G1 F1200 X98.472 Y116.574 E37.90921
G0 F6000 X98.48 Y116.016
G1 F1200 X96.5 Y114.036 E38.00234
G0 F6000 X96.508 Y113.478
G1 F1200 X98.487 Y115.458 E38.09545
G0 F6000 X98.495 Y114.9
G1 F1200 X96.515 Y112.92 E38.18859
G0 F6000 X96.523 Y112.362
G1 F1200 X98.503 Y114.342 E38.28172
G0 F6000 X98.51 Y113.784
G1 F1200 X96.531 Y111.804 E38.37483
G0 F6000 X96.539 Y111.246
G1 F1200 X98.518 Y113.226 E38.46794
G0 F6000 X98.526 Y112.668
G1 F1200 X96.546 Y110.689 E38.56105
G0 F6000 X96.554 Y110.131
G1 F1200 X98.533 Y112.11 E38.65414
G0 F6000 X98.541 Y111.552
G1 F1200 X96.562 Y109.573 E38.74722
G0 F6000 X96.57 Y109.015
G1 F1200 X98.549 Y110.994 E38.84031
G0 F6000 X98.557 Y110.436
G1 F1200 X96.578 Y108.457 E38.93339
G0 F6000 X96.585 Y107.898
G1 F1200 X98.565 Y109.878 E39.02653
G0 F6000 X98.572 Y109.32
G1 F1200 X96.592 Y107.34 E39.11966
G0 F6000 X96.6 Y106.783
G1 F1200 X98.58 Y108.762 E39.21277
G0 F6000 X98.587 Y108.204
G1 F1200 X96.608 Y106.225 E39.30586
G0 F6000 X96.616 Y105.667
G1 F1200 X98.595 Y107.646 E39.39894
G0 F6000 X98.603 Y107.088
G1 F1200 X96.624 Y105.109 E39.49203
G0 F6000 X96.631 Y104.551
G1 F1200 X98.61 Y106.53 E39.58511
G0 F6000 X98.618 Y105.972
G1 F1200 X96.639 Y103.993 E39.6782
G0 F6000 X96.647 Y103.435
G1 F1200 X98.626 Y105.414 E39.77129
G0 F6000 X98.634 Y104.856
G1 F1200 X96.655 Y102.877 E39.86437
G0 F6000 X96.662 Y102.319
G1 F1200 X98.642 Y104.298 E39.95748
G0 F6000 X98.649 Y103.741
G1 F1200 X96.669 Y101.761 E40.05061
G0 F6000 X96.677 Y101.203
G1 F1200 X98.657 Y103.183 E40.14375
G0 F6000 X98.664 Y102.624
G1 F1200 X96.685 Y100.645 E40.23683
G0 F6000 X96.693 Y100.087
G1 F1200 X98.672 Y102.066 E40.32992
