;FLAVOR:Marlin
;TIME:20881
;Filament used: 16.9261m
;Layer height: 0.2
;MINX:33.953
;MINY:28.956
;MINZ:0.2
;MAXX:180.506
;MAXY:159.951
;MAXZ:27.2
;Generated with Cura_SteamEngine 4.8.0
M140 S60
M105
M190 S60
M104 S200
M105
M109 S200
M82 ;absolute extrusion mode
; Ender 3 Custom Start G-code
G92 E0 ; Reset Extruder
G28 ; Home all axes
G1 Z2.0 F3000 ; Move Z Axis up little to prevent scratching of Heat Bed
G1 X0.1 Y20 Z0.3 F5000.0 ; Move to start position
G1 X0.1 Y200.0 Z0.3 F1500.0 E15 ; Draw the first line
G1 X0.4 Y200.0 Z0.3 F5000.0 ; Move to side a little
G1 X0.4 Y20 Z0.3 F1500.0 E30 ; Draw the second line
G92 E0 ; Reset Extruder
G1 Z2.0 F3000 ; Move Z Axis up little to prevent scratching of Heat Bed
G1 X5 Y20 Z0.3 F5000.0 ; Move over to prevent blob squish
G92 E0
G92 E0
G1 F1500 E-6.5
;LAYER_COUNT:138
;LAYER:0
M107
G0 F6000 X37.146 Y39.416 Z0.2
;TYPE:SKIRT
G1 F1500 E0
G1 F1200 X37.834 Y38.778 E0.03121
G1 X38.573 Y38.202 E0.06237
G1 X39.359 Y37.69 E0.09357
G1 X40.186 Y37.247 E0.12477
G1 X41.048 Y36.877 E0.15597
G1 X41.938 Y36.581 E0.18717
G1 X42.85 Y36.362 E0.21837
G1 X43.709 Y36.228 E0.24728
G1 X44.516 Y36.136 E0.2743
G1 X47.063 Y35.808 E0.35971
G1 X49.545 Y35.416 E0.44328
G1 X52.001 Y34.958 E0.52638
G1 X54.448 Y34.428 E0.60965
G1 X56.921 Y33.82 E0.69436
G1 X59.332 Y33.153 E0.77756
G1 X61.769 Y32.405 E0.86235
G1 X64.132 Y31.606 E0.94531
G1 X66.504 Y30.728 E1.02943
G1 X67.874 Y30.178 E1.07854
G1 X68.529 Y29.927 E1.10187
G1 X69.418 Y29.629 E1.13305
G1 X70.33 Y29.408 E1.16426
G1 X71.257 Y29.266 E1.19545
G1 X72.154 Y29.203 E1.22536
G1 X72.472 Y29.194 E1.23594
G1 X72.783 Y29.19 E1.24629
G1 X74.689 Y29.19 E1.30968
G1 X77.297 Y29.153 E1.39643
G1 X79.825 Y29.046 E1.48059
G1 X80.457 Y29.005 E1.50165
G1 X80.837 Y28.987 E1.51431
G1 X81.161 Y28.977 E1.52509
G1 X82.422 Y28.956 E1.56704
G1 X88.026 Y28.957 E1.75343
G1 X88.736 Y28.967 E1.77704
G1 X89.048 Y28.976 E1.78742
G1 X90.158 Y29.023 E1.82438
G1 X92.884 Y29.1 E1.91508
G1 X94.318 Y29.121 E1.96278
G1 X94.353 Y29.118 E1.96395
G1 X94.981 Y29.114 E1.98484
G1 X96.423 Y29.145 E2.03281
G1 X97.819 Y29.146 E2.07924
G1 X98.518 Y29.156 E2.10249
G1 X99.455 Y29.21 E2.13371
G1 X100.659 Y29.398 E2.17424
G1 X101.755 Y29.633 E2.21152
G1 X102.435 Y29.79 E2.23473
G1 X104.906 Y30.287 E2.31856
G1 X107.374 Y30.711 E2.40185
G1 X109.869 Y31.068 E2.48568
G1 X112.376 Y31.355 E2.56961
G1 X114.876 Y31.569 E2.65306
G1 X117.411 Y31.714 E2.73751
G1 X119.89 Y31.785 E2.82
G1 X122.414 Y31.787 E2.90395
G1 X124.946 Y31.716 E2.9882
G1 X127.459 Y31.576 E3.07191
G1 X129.955 Y31.365 E3.15522
G1 X132.48 Y31.08 E3.23974
G1 X134.968 Y30.727 E3.32332
G1 X137.47 Y30.299 E3.40774
G1 X138.834 Y30.036 E3.45395
G1 X139.823 Y29.837 E3.4875
G1 X140.75 Y29.691 E3.51871
G1 X141.681 Y29.625 E3.54975
G1 X142 Y29.616 E3.56037
G1 X142.31 Y29.612 E3.57068
G1 X143.431 Y29.613 E3.60796
G1 X145.243 Y29.639 E3.66824
G1 X145.525 Y29.647 E3.67762
G1 X147.039 Y29.658 E3.72798
G1 X154.126 Y29.657 E3.96369
G1 X155.797 Y29.643 E4.01927
G1 X157.907 Y29.609 E4.08946
G1 X159.12 Y29.609 E4.1298
G1 X160.753 Y29.595 E4.18412
G1 X162.867 Y29.561 E4.25444
G1 X164.778 Y29.543 E4.318
G1 X166.918 Y29.502 E4.38919
G1 X167.442 Y29.5 E4.40662
G1 X168.298 Y29.511 E4.4351
G1 X169.235 Y29.565 E4.46631
G1 X170.163 Y29.697 E4.49749
G1 X171.077 Y29.909 E4.5287
G1 X171.969 Y30.198 E4.55988
G1 X172.834 Y30.561 E4.59108
G1 X173.664 Y30.997 E4.62227
G1 X174.454 Y31.502 E4.65345
G1 X175.199 Y32.073 E4.68467
G1 X175.892 Y32.705 E4.71587
G1 X176.529 Y33.393 E4.74705
G1 X177.104 Y34.134 E4.77825
G1 X177.615 Y34.92 E4.80943
G1 X178.057 Y35.748 E4.84064
G1 X178.426 Y36.609 E4.8718
G1 X178.721 Y37.5 E4.90302
G1 X178.981 Y38.642 E4.94197
G1 X179.144 Y39.595 E4.97413
G1 X179.287 Y40.5 E5.0046
G1 X179.748 Y42.974 E5.08831
G1 X180.204 Y45.091 E5.16033
G1 X180.275 Y45.44 E5.17218
G1 X180.423 Y46.366 E5.20337
G1 X180.491 Y47.286 E5.23405
G1 X180.501 Y47.603 E5.2446
G1 X180.506 Y47.95 E5.25614
G1 X180.505 Y140.437 E8.33227
G1 X180.496 Y141.164 E8.35645
G1 X180.445 Y142.101 E8.38766
G1 X180.313 Y143.029 E8.41884
G1 X180.104 Y143.943 E8.45003
G1 X179.817 Y144.836 E8.48122
G1 X179.455 Y145.702 E8.51244
G1 X179.021 Y146.533 E8.54362
G1 X178.517 Y147.324 E8.57482
G1 X177.948 Y148.069 E8.606
G1 X177.317 Y148.764 E8.63722
G1 X176.63 Y149.402 E8.6684
G1 X175.891 Y149.979 E8.69959
G1 X175.105 Y150.491 E8.73079
G1 X174.279 Y150.934 E8.76196
G1 X173.417 Y151.306 E8.79319
G1 X172.528 Y151.602 E8.82435
G1 X171.616 Y151.822 E8.85555
G1 X170.689 Y151.963 E8.88674
G1 X169.805 Y152.024 E8.91621
G1 X169.484 Y152.033 E8.92689
G1 X169.176 Y152.037 E8.93714
G1 X129.983 Y152.038 E10.2407
G1 X127.375 Y152.075 E10.32745
G1 X124.854 Y152.182 E10.41138
G1 X122.375 Y152.358 E10.49404
G1 X119.848 Y152.609 E10.5785
G1 X117.348 Y152.929 E10.66233
G1 X114.887 Y153.315 E10.74518
G1 X112.387 Y153.779 E10.82975
G1 X109.918 Y154.312 E10.91376
G1 X107.52 Y154.898 E10.99587
G1 X105.048 Y155.579 E11.08115
G1 X103.854 Y155.945 E11.12269
G1 X103.031 Y156.185 E11.1512
G1 X102.12 Y156.409 E11.1824
G1 X101.193 Y156.555 E11.21361
G1 X100.285 Y156.62 E11.24389
G1 X99.956 Y156.63 E11.25484
G1 X99.622 Y156.635 E11.26595
G1 X45.502 Y156.635 E13.06599
G1 X44.804 Y156.625 E13.08921
G1 X43.868 Y156.571 E13.12039
G1 X42.94 Y156.439 E13.15157
G1 X42.026 Y156.227 E13.18277
G1 X41.134 Y155.938 E13.21396
G1 X40.269 Y155.575 E13.24516
G1 X39.439 Y155.139 E13.27634
G1 X38.648 Y154.634 E13.30756
G1 X37.904 Y154.063 E13.33875
G1 X37.211 Y153.431 E13.36994
G1 X36.574 Y152.743 E13.40113
G1 X35.999 Y152.002 E13.43232
G1 X35.488 Y151.216 E13.46351
G1 X35.046 Y150.388 E13.49472
G1 X34.677 Y149.526 E13.52591
G1 X34.382 Y148.636 E13.5571
G1 X34.164 Y147.724 E13.58828
G1 X34.024 Y146.796 E13.6195
G1 X33.967 Y145.941 E13.648
G1 X33.958 Y145.627 E13.65845
G1 X33.953 Y145.312 E13.66893
G1 X33.953 Y47.702 E16.91545
G1 X33.962 Y47.013 E16.93837
G1 X34.014 Y46.077 E16.96954
G1 X34.146 Y45.148 E17.00075
G1 X34.356 Y44.234 E17.03195
G1 X34.644 Y43.342 E17.06312
G1 X35.006 Y42.477 E17.09431
G1 X35.441 Y41.646 E17.12551
G1 X35.945 Y40.855 E17.1567
G1 X36.515 Y40.11 E17.1879
G1 X37.146 Y39.416 E17.2191
G0 F6000 X37.538 Y39.59
G1 F1200 X38.223 Y38.975 E17.24972
G1 X38.958 Y38.421 E17.28033
G1 X39.739 Y37.933 E17.31096
G1 X40.559 Y37.514 E17.34159
G1 X41.412 Y37.169 E17.37219
G1 X42.292 Y36.898 E17.40282
G1 X43.192 Y36.706 E17.43342
G1 X43.755 Y36.626 E17.45234
G1 X44.537 Y36.536 E17.47852
G1 X47.11 Y36.205 E17.5648
G1 X49.603 Y35.812 E17.64874
G1 X52.094 Y35.347 E17.73303
G1 X54.548 Y34.816 E17.81653
G1 X57.018 Y34.209 E17.90113
G1 X59.46 Y33.533 E17.98541
G1 X61.867 Y32.794 E18.06915
G1 X64.251 Y31.988 E18.15285
G1 X66.655 Y31.098 E18.23812
G1 X68.017 Y30.552 E18.28692
G1 X68.672 Y30.301 E18.31025
G1 X69.545 Y30.009 E18.34087
G1 X70.44 Y29.794 E18.37148
G1 X71.351 Y29.658 E18.40212
G1 X72.165 Y29.603 E18.42925
G1 X72.483 Y29.594 E18.43983
G1 X72.783 Y29.59 E18.44981
G1 X74.695 Y29.59 E18.51341
G1 X77.32 Y29.553 E18.60072
G1 X79.829 Y29.446 E18.68425
G1 X80.475 Y29.405 E18.70578
G1 X80.855 Y29.387 E18.71843
G1 X81.168 Y29.377 E18.72885
G1 X82.422 Y29.356 E18.77056
G1 X88.02 Y29.357 E18.95675
G1 X88.73 Y29.367 E18.98037
G1 X89.031 Y29.376 E18.99038
G1 X90.131 Y29.423 E19.027
G1 X92.866 Y29.5 E19.11801
G1 X94.638 Y29.525 E19.17695
G1 X94.973 Y29.513 E19.1881
G1 X96.462 Y29.545 E19.23763
G1 X97.814 Y29.546 E19.2826
G1 X98.513 Y29.556 E19.30585
G1 X99.432 Y29.609 E19.33647
G1 X100.576 Y29.789 E19.37499
G1 X101.665 Y30.023 E19.41203
G1 X102.338 Y30.178 E19.435
G1 X104.83 Y30.68 E19.51955
G1 X107.321 Y31.108 E19.60362
G1 X109.837 Y31.468 E19.68815
G1 X112.329 Y31.753 E19.77158
G1 X114.82 Y31.966 E19.85473
G1 X117.376 Y32.112 E19.93988
G1 X119.914 Y32.185 E20.02433
G1 X122.425 Y32.187 E20.10785
G1 X124.979 Y32.116 E20.19283
G1 X127.482 Y31.976 E20.27621
G1 X129.997 Y31.763 E20.36016
G1 X132.51 Y31.48 E20.44427
G1 X135.02 Y31.124 E20.52859
G1 X137.525 Y30.695 E20.61312
G1 X138.971 Y30.416 E20.6621
G1 X139.902 Y30.229 E20.69368
G1 X140.812 Y30.087 E20.72431
G1 X141.692 Y30.025 E20.75365
G1 X142.011 Y30.016 E20.76427
G1 X142.31 Y30.012 E20.77421
G1 X143.425 Y30.013 E20.8113
G1 X145.389 Y30.042 E20.87663
G1 X145.559 Y30.047 E20.88229
G1 X147.037 Y30.058 E20.93145
G1 X154.129 Y30.057 E21.16733
G1 X155.8 Y30.043 E21.22291
G1 X157.907 Y30.009 E21.29299
G1 X159.123 Y30.009 E21.33344
G1 X160.764 Y29.995 E21.38802
G1 X162.871 Y29.961 E21.45811
G1 X164.789 Y29.943 E21.5219
G1 X166.926 Y29.902 E21.59299
G1 X167.442 Y29.9 E21.61016
G1 X168.293 Y29.911 E21.63846
G1 X169.212 Y29.964 E21.66908
G1 X170.123 Y30.097 E21.6997
G1 X171.019 Y30.308 E21.73032
G1 X171.893 Y30.596 E21.76093
G1 X172.739 Y30.959 E21.79154
G1 X173.551 Y31.394 E21.82218
G1 X174.321 Y31.898 E21.85279
G1 X175.045 Y32.467 E21.88342
G1 X175.717 Y33.096 E21.91403
G1 X176.332 Y33.782 E21.94468
G1 X176.885 Y34.518 E21.9753
G1 X177.372 Y35.299 E22.00591
G1 X177.789 Y36.12 E22.03653
G1 X178.134 Y36.974 E22.06717
G1 X178.403 Y37.854 E22.09777
G1 X178.587 Y38.71 E22.1269
G1 X178.749 Y39.658 E22.15888
G1 X178.891 Y40.558 E22.18919
G1 X179.357 Y43.06 E22.27384
G1 X179.812 Y45.171 E22.34566
G1 X179.883 Y45.52 E22.35751
G1 X180.027 Y46.429 E22.38812
G1 X180.091 Y47.299 E22.41713
G1 X180.101 Y47.616 E22.42768
G1 X180.106 Y47.95 E22.43879
G1 X180.105 Y140.432 E25.51475
G1 X180.096 Y141.159 E25.53894
G1 X180.045 Y142.078 E25.56955
G1 X179.914 Y142.99 E25.60019
G1 X179.704 Y143.886 E25.6308
G1 X179.418 Y144.761 E25.66142
G1 X179.057 Y145.608 E25.69204
G1 X178.623 Y146.42 E25.72267
G1 X178.121 Y147.192 E25.75329
G1 X177.553 Y147.917 E25.78393
G1 X176.925 Y148.59 E25.81454
G1 X176.241 Y149.206 E25.84516
G1 X175.506 Y149.76 E25.87577
G1 X174.726 Y150.249 E25.90639
G1 X173.906 Y150.668 E25.93702
G1 X173.053 Y151.014 E25.96763
G1 X172.173 Y151.285 E25.99826
G1 X171.273 Y151.478 E26.02887
G1 X170.359 Y151.593 E26.05951
G1 X169.794 Y151.624 E26.07833
G1 X169.473 Y151.633 E26.08901
G1 X169.176 Y151.637 E26.09889
G1 X129.977 Y151.638 E27.40266
G1 X127.352 Y151.675 E27.48997
G1 X124.845 Y151.782 E27.57343
G1 X122.34 Y151.959 E27.65696
G1 X119.794 Y152.212 E27.74205
G1 X117.306 Y152.531 E27.82548
G1 X114.783 Y152.926 E27.91042
G1 X112.335 Y153.381 E27.99324
G1 X109.818 Y153.924 E28.07888
G1 X107.424 Y154.51 E28.16085
G1 X104.962 Y155.188 E28.24579
G1 X103.742 Y155.561 E28.28822
G1 X102.919 Y155.801 E28.31673
G1 X102.024 Y156.02 E28.34738
G1 X101.114 Y156.161 E28.37801
G1 X100.273 Y156.22 E28.40605
G1 X99.944 Y156.23 E28.417
G1 X99.622 Y156.235 E28.42771
G1 X45.508 Y156.235 E30.22755
G1 X44.81 Y156.225 E30.25076
G1 X43.891 Y156.172 E30.28138
G1 X42.98 Y156.039 E30.312
G1 X42.084 Y155.828 E30.34262
G1 X41.21 Y155.54 E30.37322
G1 X40.363 Y155.177 E30.40387
G1 X39.552 Y154.742 E30.43448
G1 X38.782 Y154.238 E30.46509
G1 X38.058 Y153.669 E30.49572
G1 X37.386 Y153.039 E30.52636
G1 X36.771 Y152.354 E30.55697
G1 X36.218 Y151.618 E30.58759
G1 X35.731 Y150.837 E30.61821
G1 X35.314 Y150.016 E30.64883
G1 X34.969 Y149.162 E30.67947
G1 X34.7 Y148.282 E30.71007
G1 X34.508 Y147.381 E30.74071
G1 X34.395 Y146.468 E30.77131
G1 X34.366 Y145.93 E30.78923
G1 X34.357 Y145.616 E30.79968
G1 X34.353 Y145.312 E30.80979
G1 X34.353 Y47.708 E34.05611
G1 X34.362 Y47.019 E34.07903
G1 X34.414 Y46.099 E34.10968
G1 X34.545 Y45.188 E34.14029
G1 X34.756 Y44.292 E34.17091
G1 X35.043 Y43.417 E34.20154
G1 X35.405 Y42.571 E34.23214
G1 X35.839 Y41.759 E34.26276
G1 X36.341 Y40.987 E34.29339
G1 X36.909 Y40.263 E34.324
G1 X37.538 Y39.59 E34.35464
G0 F6000 X37.929 Y39.768
G1 F1200 X38.611 Y39.175 E34.3847
G1 X39.342 Y38.645 E34.41473
G1 X40.116 Y38.181 E34.44474
G1 X40.929 Y37.788 E34.47478
G1 X41.774 Y37.468 E34.50483
G1 X42.644 Y37.224 E34.53488
G1 X43.8 Y37.023 E34.57391
G1 X44.566 Y36.935 E34.59955
G1 X47.187 Y36.598 E34.68744
G1 X49.667 Y36.206 E34.77095
G1 X52.179 Y35.738 E34.85594
G1 X54.631 Y35.207 E34.93939
G1 X57.115 Y34.596 E35.02447
G1 X59.57 Y33.917 E35.10919
G1 X62.007 Y33.169 E35.19397
G1 X64.381 Y32.366 E35.27733
G1 X66.807 Y31.468 E35.36337
G1 X68.16 Y30.925 E35.41186
G1 X68.815 Y30.674 E35.43519
G1 X69.672 Y30.389 E35.46523
G1 X70.551 Y30.18 E35.49528
G1 X71.444 Y30.05 E35.52529
G1 X72.176 Y30.003 E35.54969
G1 X72.494 Y29.994 E35.56027
G1 X72.783 Y29.99 E35.56988
G1 X74.701 Y29.99 E35.63367
G1 X77.307 Y29.953 E35.72036
G1 X79.873 Y29.844 E35.80578
G1 X80.494 Y29.804 E35.82648
G1 X80.874 Y29.786 E35.83913
G1 X81.175 Y29.777 E35.84915
G1 X82.422 Y29.756 E35.89063
G1 X88.015 Y29.757 E36.07665
G1 X88.725 Y29.767 E36.10027
G1 X89.014 Y29.775 E36.10989
G1 X90.173 Y29.824 E36.14847
G1 X92.849 Y29.9 E36.23751
G1 X94.501 Y29.923 E36.29246
G1 X94.964 Y29.913 E36.30786
G1 X96.453 Y29.945 E36.3574
G1 X97.808 Y29.946 E36.40247
G1 X98.507 Y29.956 E36.42572
G1 X99.408 Y30.009 E36.45574
G1 X100.492 Y30.18 E36.49224
G1 X101.575 Y30.413 E36.52908
G1 X102.24 Y30.566 E36.55178
G1 X104.749 Y31.071 E36.6369
G1 X107.269 Y31.504 E36.72194
G1 X109.772 Y31.863 E36.80605
G1 X112.286 Y32.15 E36.8902
G1 X114.834 Y32.368 E36.97526
G1 X117.342 Y32.512 E37.05881
G1 X119.902 Y32.585 E37.144
G1 X122.436 Y32.587 E37.22828
G1 X124.976 Y32.516 E37.31279
G1 X127.504 Y32.374 E37.397
G1 X130.04 Y32.16 E37.48165
G1 X132.579 Y31.874 E37.56663
G1 X135.073 Y31.52 E37.65042
G1 X137.617 Y31.085 E37.73626
G1 X139.012 Y30.816 E37.78351
G1 X139.981 Y30.621 E37.81639
G1 X140.874 Y30.482 E37.84644
G1 X141.703 Y30.425 E37.87408
G1 X142.022 Y30.416 E37.8847
G1 X142.31 Y30.412 E37.89428
G1 X143.419 Y30.413 E37.93116
G1 X145.377 Y30.442 E37.99629
G1 X145.543 Y30.447 E38.00182
G1 X147.034 Y30.458 E38.05141
G1 X154.133 Y30.457 E38.28752
G1 X155.749 Y30.443 E38.34127
G1 X157.735 Y30.41 E38.40734
G1 X159.127 Y30.409 E38.45363
G1 X160.772 Y30.395 E38.50835
G1 X162.874 Y30.361 E38.57827
G1 X164.792 Y30.343 E38.64207
G1 X166.933 Y30.302 E38.71329
G1 X167.442 Y30.3 E38.73022
G1 X168.287 Y30.311 E38.75833
G1 X169.188 Y30.364 E38.78835
G1 X170.082 Y30.496 E38.8184
G1 X170.96 Y30.707 E38.84844
G1 X171.816 Y30.995 E38.87848
G1 X172.643 Y31.357 E38.9085
G1 X173.435 Y31.791 E38.93854
G1 X174.186 Y32.294 E38.9686
G1 X174.889 Y32.861 E38.99864
G1 X175.539 Y33.488 E39.02868
G1 X176.131 Y34.17 E39.05872
G1 X176.66 Y34.901 E39.08873
G1 X177.123 Y35.677 E39.11878
G1 X177.515 Y36.49 E39.1488
G1 X177.834 Y37.335 E39.17884
G1 X178.077 Y38.205 E39.20889
G1 X178.193 Y38.778 E39.22833
G1 X178.354 Y39.72 E39.26012
G1 X178.494 Y40.609 E39.29005
G1 X178.968 Y43.153 E39.37612
G1 X179.42 Y45.251 E39.4475
G1 X179.491 Y45.6 E39.45935
G1 X179.632 Y46.492 E39.48938
G1 X179.691 Y47.311 E39.51669
G1 X179.701 Y47.628 E39.52724
G1 X179.706 Y47.95 E39.53795
G1 X179.705 Y140.427 E42.61375
G1 X179.696 Y141.154 E42.63793
G1 X179.645 Y142.056 E42.66798
G1 X179.514 Y142.95 E42.69803
G1 X179.305 Y143.828 E42.72805
G1 X179.019 Y144.685 E42.7581
G1 X178.658 Y145.513 E42.78814
G1 X178.226 Y146.305 E42.81815
G1 X177.725 Y147.057 E42.8482
G1 X177.159 Y147.761 E42.87825
G1 X176.534 Y148.412 E42.90826
G1 X175.853 Y149.006 E42.93832
G1 X175.122 Y149.537 E42.96837
G1 X174.348 Y150.001 E42.99839
G1 X173.535 Y150.395 E43.02843
G1 X172.691 Y150.715 E43.05846
G1 X171.821 Y150.96 E43.08852
G1 X170.934 Y151.126 E43.11853
G1 X169.783 Y151.224 E43.15695
G1 X169.462 Y151.233 E43.16763
G1 X169.176 Y151.237 E43.17715
G1 X129.971 Y151.238 E44.48111
G1 X127.365 Y151.275 E44.56779
G1 X124.798 Y151.384 E44.65325
G1 X122.311 Y151.56 E44.73617
G1 X119.771 Y151.813 E44.82107
G1 X117.23 Y152.138 E44.90628
G1 X114.719 Y152.532 E44.99081
G1 X112.249 Y152.991 E45.07437
G1 X109.744 Y153.531 E45.1596
G1 X107.319 Y154.124 E45.24264
