;FLAVOR:Marlin
;TIME:22198
;Filament used: 14.1657m
;Layer height: 0.2
;MINX:69.967
;MINY:38.596
;MINZ:0.2
;MAXX:153.327
;MAXY:179.8
;MAXZ:55
;Generated with Cura_SteamEngine 4.8.0
M140 S60
M105
M190 S60
M104 S200
M105
M109 S200
M82 ;absolute extrusion mode
; Ender 3 Custom Start G-code
G92 E0 ; Reset Extruder
G28 ; Home all axes
G1 Z2.0 F3000 ; Move Z Axis up little to prevent scratching of Heat Bed
G1 X0.1 Y20 Z0.3 F5000.0 ; Move to start position
G1 X0.1 Y200.0 Z0.3 F1500.0 E15 ; Draw the first line
G1 X0.4 Y200.0 Z0.3 F5000.0 ; Move to side a little
G1 X0.4 Y20 Z0.3 F1500.0 E30 ; Draw the second line
G92 E0 ; Reset Extruder
G1 Z2.0 F3000 ; Move Z Axis up little to prevent scratching of Heat Bed
G1 X5 Y20 Z0.3 F5000.0 ; Move over to prevent blob squish
G92 E0
G92 E0
G1 F1500 E-6.5
;LAYER_COUNT:275
;LAYER:0
M107
G0 F6000 X82.286 Y44.559 Z0.2
;TYPE:SKIRT
G1 F1500 E0
G1 F1200 X82.75 Y43.744 E0.03119
G1 X83.282 Y42.972 E0.06238
G1 X83.878 Y42.248 E0.09357
G1 X84.534 Y41.577 E0.12478
G1 X85.244 Y40.965 E0.15595
G1 X86.004 Y40.415 E0.18716
G1 X86.808 Y39.932 E0.21835
G1 X87.65 Y39.52 E0.24953
G1 X88.525 Y39.18 E0.28075
G1 X89.425 Y38.917 E0.31194
G1 X90.344 Y38.73 E0.34313
G1 X91.276 Y38.623 E0.37433
G1 X92.213 Y38.596 E0.40551
G1 X92.991 Y38.634 E0.43142
G1 X93.921 Y38.752 E0.4626
G1 X94.694 Y38.912 E0.48885
G1 X95.041 Y38.997 E0.50073
G1 X95.27 Y39.056 E0.5086
G1 X102.125 Y40.893 E0.74464
G1 X102.751 Y41.07 E0.76628
G1 X103.642 Y41.363 E0.79748
G1 X104.504 Y41.732 E0.82866
G1 X105.332 Y42.172 E0.85985
G1 X106.12 Y42.681 E0.89105
G1 X106.861 Y43.256 E0.92225
G1 X107.703 Y44.048 E0.96069
G1 X107.748 Y44.095 E0.96286
G1 X108.504 Y44.973 E1.00139
G1 X110.089 Y47.022 E1.08755
G1 X111.704 Y48.993 E1.1723
G1 X113.34 Y50.875 E1.25524
G1 X115.062 Y52.749 E1.33989
G1 X116.814 Y54.553 E1.42353
G1 X118.59 Y56.276 E1.50583
G1 X120.497 Y58.027 E1.59194
G1 X122.371 Y59.651 E1.67442
G1 X124.294 Y61.226 E1.75709
G1 X126.312 Y62.785 E1.84191
G1 X128.351 Y64.27 E1.92581
G1 X130.44 Y65.702 E2.01004
G1 X132.517 Y67.043 E2.09227
G1 X134.679 Y68.352 E2.17633
G1 X136.882 Y69.602 E2.26058
G1 X139.123 Y70.793 E2.34499
G1 X141.347 Y71.894 E2.42753
G1 X143.617 Y72.938 E2.51063
G1 X146.326 Y74.082 E2.60844
G1 X146.709 Y74.249 E2.62233
G1 X147.553 Y74.659 E2.65354
G1 X148.358 Y75.14 E2.68473
G1 X149.119 Y75.688 E2.71592
G1 X149.831 Y76.299 E2.74713
G1 X150.488 Y76.968 E2.77831
G1 X151.086 Y77.691 E2.80952
G1 X151.62 Y78.462 E2.84071
G1 X152.086 Y79.276 E2.87191
G1 X152.481 Y80.126 E2.90309
G1 X152.803 Y81.007 E2.93428
G1 X153.048 Y81.912 E2.96547
G1 X153.215 Y82.835 E2.99666
G1 X153.314 Y84.028 E3.03648
G1 X153.323 Y84.351 E3.04723
G1 X153.327 Y84.657 E3.05741
G1 X153.326 Y138.742 E4.85628
G1 X153.316 Y139.47 E4.8805
G1 X153.263 Y140.406 E4.91168
G1 X153.131 Y141.335 E4.94289
G1 X152.92 Y142.249 E4.97409
G1 X152.632 Y143.141 E5.00526
G1 X152.268 Y144.006 E5.03648
G1 X151.833 Y144.837 E5.06767
G1 X151.328 Y145.627 E5.09886
G1 X150.758 Y146.372 E5.13006
G1 X150.127 Y147.065 E5.16123
G1 X149.439 Y147.702 E5.19241
G1 X148.699 Y148.279 E5.22362
G1 X147.912 Y148.79 E5.25483
G1 X146.914 Y149.313 E5.29231
G1 X145.681 Y149.794 E5.33633
G1 X144.456 Y150.189 E5.37914
G1 X142.025 Y151.012 E5.4645
G1 X139.665 Y151.887 E5.54822
G1 X137.334 Y152.826 E5.6318
G1 X135.022 Y153.835 E5.7157
G1 X132.763 Y154.898 E5.79874
G1 X130.484 Y156.05 E5.88367
G1 X128.299 Y157.233 E5.96631
G1 X126.102 Y158.504 E6.05073
G1 X123.977 Y159.815 E6.13378
G1 X121.846 Y161.216 E6.2186
G1 X119.819 Y162.629 E6.30079
G1 X117.762 Y164.154 E6.38595
G1 X115.8 Y165.694 E6.46891
G1 X113.856 Y167.314 E6.55308
G1 X111.98 Y168.967 E6.63624
G1 X110.153 Y170.671 E6.71933
G1 X107.894 Y172.933 E6.82566
G1 X107.434 Y173.387 E6.84716
G1 X106.739 Y174.017 E6.87835
G1 X105.993 Y174.585 E6.90954
G1 X105.51 Y174.903 E6.92877
G1 X105.196 Y175.098 E6.94107
G1 X104.894 Y175.279 E6.95278
G1 X100.182 Y178 E7.13375
G1 X99.427 Y178.42 E7.16249
G1 X98.588 Y178.84 E7.1937
G1 X97.716 Y179.186 E7.2249
G1 X96.818 Y179.457 E7.2561
G1 X95.901 Y179.65 E7.28726
G1 X94.97 Y179.765 E7.31846
G1 X94.033 Y179.8 E7.34965
G1 X93.476 Y179.783 E7.36819
G1 X92.764 Y179.743 E7.3919
G1 X92.424 Y179.718 E7.40324
G1 X92.046 Y179.685 E7.41586
G1 X90.836 Y179.511 E7.45652
G1 X90.418 Y179.427 E7.4707
G1 X90.124 Y179.364 E7.4807
G1 X89.745 Y179.277 E7.49364
G1 X88.841 Y179.029 E7.52481
G1 X87.961 Y178.704 E7.55602
G1 X87.112 Y178.305 E7.58722
G1 X86.3 Y177.836 E7.6184
G1 X85.531 Y177.299 E7.6496
G1 X84.81 Y176.699 E7.6808
G1 X84.144 Y176.039 E7.71198
G1 X83.535 Y175.325 E7.7432
G1 X82.834 Y174.315 E7.78409
G1 X82.673 Y174.053 E7.79432
G1 X82.519 Y173.794 E7.80434
G1 X79.517 Y168.592 E8.0041
G1 X79.186 Y167.999 E8.02669
G1 X78.764 Y167.162 E8.05787
G1 X78.415 Y166.291 E8.08907
G1 X78.142 Y165.394 E8.12026
G1 X77.946 Y164.477 E8.15145
G1 X77.829 Y163.546 E8.18266
G1 X77.795 Y162.947 E8.20261
G1 X77.755 Y161.47 E8.25175
G1 X77.648 Y158.955 E8.33548
G1 X77.471 Y156.461 E8.41864
G1 X77.224 Y153.966 E8.50203
G1 X76.904 Y151.465 E8.58589
G1 X76.513 Y148.976 E8.66969
G1 X76.051 Y146.493 E8.75369
G1 X75.525 Y144.048 E8.83687
G1 X74.92 Y141.578 E8.92146
G1 X74.258 Y139.172 E9.00445
G1 X73.517 Y136.754 E9.08857
G1 X72.71 Y134.362 E9.17253
G1 X71.848 Y132.024 E9.25541
G1 X70.77 Y129.343 E9.35152
G1 X70.458 Y128.459 E9.3827
G1 X70.222 Y127.551 E9.4139
G1 X70.064 Y126.627 E9.44508
G1 X69.98 Y125.548 E9.48108
G1 X69.971 Y125.228 E9.49172
G1 X69.967 Y124.919 E9.502
G1 X69.967 Y70.799 E11.30204
G1 X69.977 Y70.104 E11.32516
G1 X70.031 Y69.167 E11.35638
G1 X70.164 Y68.239 E11.38756
G1 X70.375 Y67.325 E11.41876
G1 X70.664 Y66.433 E11.44994
G1 X71.028 Y65.568 E11.48116
G1 X71.464 Y64.738 E11.51234
G1 X71.779 Y64.227 E11.5323
G1 X71.963 Y63.948 E11.54342
G1 X73.457 Y61.734 E11.63226
G1 X74.821 Y59.586 E11.71689
G1 X76.097 Y57.443 E11.79984
G1 X77.312 Y55.266 E11.88276
G1 X78.491 Y53.003 E11.96763
G1 X79.588 Y50.744 E12.05116
G1 X80.618 Y48.464 E12.13437
G1 X81.373 Y46.656 E12.19954
G1 X81.426 Y46.544 E12.20366
G1 X81.892 Y45.41 E12.24443
G1 X82.286 Y44.559 E12.27563
G0 F6000 X82.649 Y44.727
G1 F1200 X83.107 Y43.928 E12.30626
G1 X83.632 Y43.172 E12.33687
G1 X84.221 Y42.465 E12.36748
G1 X84.87 Y41.811 E12.39812
G1 X85.572 Y41.216 E12.42873
G1 X86.324 Y40.684 E12.45937
G1 X87.119 Y40.22 E12.48998
G1 X87.951 Y39.826 E12.5206
G1 X88.814 Y39.506 E12.55121
G1 X89.702 Y39.262 E12.58184
G1 X90.607 Y39.096 E12.61245
G1 X91.524 Y39.009 E12.64308
G1 X92.444 Y39.002 E12.67368
G1 X92.957 Y39.033 E12.69078
G1 X93.871 Y39.149 E12.72142
G1 X94.599 Y39.3 E12.74615
G1 X94.946 Y39.385 E12.75803
G1 X95.167 Y39.442 E12.76562
G1 X102.016 Y41.278 E13.00146
G1 X102.642 Y41.455 E13.0231
G1 X103.516 Y41.744 E13.05372
G1 X104.362 Y42.107 E13.08434
G1 X105.173 Y42.543 E13.11496
G1 X105.944 Y43.047 E13.1456
G1 X106.667 Y43.616 E13.1762
G1 X107.414 Y44.324 E13.21043
G1 X107.459 Y44.371 E13.21259
G1 X108.188 Y45.217 E13.24974
G1 X109.793 Y47.292 E13.33699
G1 X111.395 Y49.246 E13.42103
G1 X113.06 Y51.162 E13.50546
G1 X114.763 Y53.016 E13.58919
G1 X116.515 Y54.819 E13.6728
G1 X118.342 Y56.592 E13.75748
G1 X120.211 Y58.308 E13.84187
G1 X122.101 Y59.947 E13.92508
G1 X124.08 Y61.567 E14.01014
G1 X126.06 Y63.097 E14.09336
G1 X128.128 Y64.603 E14.17845
G1 X130.202 Y66.024 E14.26207
G1 X132.314 Y67.388 E14.34569
G1 X134.48 Y68.699 E14.4299
G1 X136.703 Y69.96 E14.51491
G1 X138.895 Y71.126 E14.59749
G1 X141.181 Y72.257 E14.68232
G1 X143.486 Y73.318 E14.76671
G1 X146.279 Y74.497 E14.86755
G1 X146.55 Y74.615 E14.87738
G1 X147.377 Y75.019 E14.90799
G1 X148.166 Y75.493 E14.9386
G1 X148.911 Y76.034 E14.96923
G1 X149.607 Y76.638 E14.99988
G1 X150.247 Y77.299 E15.03048
G1 X150.828 Y78.014 E15.06112
G1 X151.344 Y78.776 E15.09173
G1 X151.792 Y79.58 E15.12234
G1 X152.169 Y80.42 E15.15296
G1 X152.471 Y81.29 E15.18359
G1 X152.697 Y82.182 E15.2142
G1 X152.845 Y83.091 E15.24483
G1 X152.914 Y84.039 E15.27645
G1 X152.923 Y84.362 E15.28719
G1 X152.927 Y84.657 E15.29701
G1 X152.926 Y138.737 E17.09571
G1 X152.916 Y139.465 E17.11993
G1 X152.863 Y140.384 E17.15055
G1 X152.731 Y141.295 E17.18116
G1 X152.52 Y142.191 E17.21178
G1 X152.233 Y143.066 E17.24241
G1 X151.87 Y143.912 E17.27303
G1 X151.436 Y144.724 E17.30365
G1 X150.932 Y145.494 E17.33426
G1 X150.364 Y146.219 E17.36489
G1 X149.735 Y146.891 E17.3955
G1 X149.05 Y147.506 E17.42612
G1 X148.314 Y148.059 E17.45674
G1 X147.533 Y148.547 E17.48737
G1 X146.746 Y148.949 E17.51676
G1 X145.558 Y149.413 E17.55918
G1 X144.352 Y149.802 E17.60133
G1 X141.895 Y150.634 E17.68761
G1 X139.525 Y151.512 E17.77167
G1 X137.191 Y152.452 E17.85536
G1 X134.841 Y153.479 E17.94066
G1 X132.577 Y154.543 E18.02386
G1 X130.335 Y155.677 E18.10743
G1 X128.072 Y156.902 E18.19301
G1 X125.913 Y158.151 E18.27597
G1 X123.744 Y159.489 E18.36074
G1 X121.645 Y160.869 E18.44429
G1 X119.559 Y162.324 E18.52888
G1 X117.544 Y163.816 E18.61227
G1 X115.522 Y165.405 E18.6978
G1 X113.62 Y166.99 E18.78015
G1 X111.689 Y168.691 E18.86574
G1 X109.894 Y170.365 E18.94737
G1 X107.613 Y172.648 E19.05471
G1 X107.153 Y173.102 E19.07621
G1 X106.47 Y173.72 E19.10685
G1 X105.736 Y174.276 E19.13747
G1 X105.299 Y174.563 E19.15486
G1 X104.985 Y174.758 E19.16715
G1 X104.694 Y174.932 E19.17843
G1 X99.821 Y177.745 E19.36557
G1 X99.233 Y178.071 E19.38794
G1 X98.409 Y178.482 E19.41856
G1 X97.553 Y178.82 E19.44917
G1 X96.67 Y179.082 E19.47981
G1 X95.768 Y179.267 E19.51043
G1 X94.854 Y179.373 E19.54103
G1 X93.498 Y179.383 E19.58614
G1 X92.786 Y179.343 E19.60985
G1 X92.459 Y179.32 E19.62076
G1 X92.081 Y179.287 E19.63338
G1 X90.915 Y179.119 E19.67256
G1 X90.497 Y179.035 E19.68674
G1 X90.213 Y178.974 E19.6964
G1 X89.834 Y178.887 E19.70934
G1 X88.947 Y178.643 E19.73993
G1 X88.084 Y178.322 E19.77056
G1 X87.252 Y177.927 E19.80119
G1 X86.458 Y177.462 E19.83179
G1 X85.707 Y176.93 E19.86241
G1 X85.004 Y176.334 E19.89306
G1 X84.357 Y175.68 E19.92366
G1 X83.768 Y174.972 E19.95429
G1 X83.175 Y174.106 E19.9892
G1 X83.014 Y173.844 E19.99943
G1 X82.865 Y173.594 E20.00911
G1 X79.866 Y168.397 E20.20867
G1 X79.535 Y167.804 E20.23126
G1 X79.122 Y166.982 E20.26186
G1 X78.781 Y166.126 E20.29251
G1 X78.516 Y165.245 E20.3231
G1 X78.329 Y164.343 E20.35374
G1 X78.221 Y163.429 E20.38435
G1 X78.195 Y162.935 E20.40081
G1 X78.155 Y161.455 E20.45005
G1 X78.048 Y158.946 E20.53358
G1 X77.87 Y156.426 E20.6176
G1 X77.621 Y153.912 E20.70163
G1 X77.302 Y151.423 E20.78509
G1 X76.901 Y148.871 E20.87101
G1 X76.45 Y146.448 E20.95298
G1 X75.911 Y143.94 E21.0383
G1 X75.317 Y141.516 E21.12131
G1 X74.631 Y139.022 E21.20734
G1 X73.903 Y136.646 E21.28999
G1 X73.089 Y134.232 E21.37473
G1 X72.223 Y131.885 E21.45793
G1 X71.141 Y129.194 E21.5544
G1 X70.835 Y128.326 E21.58501
G1 X70.606 Y127.434 E21.61564
G1 X70.454 Y126.526 E21.64626
G1 X70.38 Y125.537 E21.67925
G1 X70.371 Y125.217 E21.68989
G1 X70.367 Y124.919 E21.69981
G1 X70.367 Y70.804 E23.49968
G1 X70.377 Y70.109 E23.5228
G1 X70.43 Y69.19 E23.55341
G1 X70.563 Y68.279 E23.58404
G1 X70.774 Y67.383 E23.61465
G1 X71.063 Y66.509 E23.64527
G1 X71.426 Y65.663 E23.67589
G1 X71.861 Y64.852 E23.7065
G1 X72.114 Y64.446 E23.72241
G1 X72.295 Y64.172 E23.73333
G1 X73.794 Y61.951 E23.82245
G1 X75.143 Y59.825 E23.9062
G1 X76.447 Y57.637 E23.99091
G1 X77.673 Y55.439 E24.07462
G1 X78.848 Y53.184 E24.1592
G1 X79.941 Y50.934 E24.24239
G1 X80.993 Y48.605 E24.32739
G1 X81.742 Y46.811 E24.39205
G1 X81.793 Y46.703 E24.39602
G1 X82.262 Y45.562 E24.43706
G1 X82.649 Y44.727 E24.46767
G0 F6000 X83.012 Y44.895
G1 F1200 X83.463 Y44.113 E24.49769
G1 X83.982 Y43.374 E24.52773
G1 X84.564 Y42.683 E24.55777
G1 X85.205 Y42.047 E24.58781
G1 X85.899 Y41.47 E24.61783
G1 X86.642 Y40.956 E24.64787
G1 X87.427 Y40.51 E24.6779
G1 X88.249 Y40.136 E24.70794
G1 X89.101 Y39.835 E24.73799
G1 X89.976 Y39.611 E24.76804
G1 X90.867 Y39.466 E24.79806
G1 X91.768 Y39.399 E24.82811
G1 X92.924 Y39.431 E24.86657
G1 X93.82 Y39.546 E24.89662
G1 X94.504 Y39.689 E24.91986
G1 X95.063 Y39.828 E24.93902
G1 X101.771 Y41.625 E25.17
G1 X102.533 Y41.84 E25.19633
G1 X103.391 Y42.124 E25.22639
G1 X104.219 Y42.482 E25.25639
G1 X105.013 Y42.913 E25.28644
G1 X105.766 Y43.412 E25.31649
G1 X106.471 Y43.976 E25.34651
G1 X107.126 Y44.601 E25.37663
G1 X107.171 Y44.648 E25.37879
G1 X107.872 Y45.462 E25.41452
G1 X109.483 Y47.545 E25.5021
G1 X111.085 Y49.499 E25.58614
G1 X112.762 Y51.43 E25.67121
G1 X114.482 Y53.302 E25.75576
G1 X116.232 Y55.102 E25.83926
G1 X118.056 Y56.872 E25.9238
G1 X119.944 Y58.606 E26.00906
G1 X121.852 Y60.26 E26.09304
G1 X123.806 Y61.86 E26.17704
G1 X125.843 Y63.433 E26.26264
G1 X127.896 Y64.928 E26.34711
G1 X129.98 Y66.358 E26.43117
G1 X132.095 Y67.723 E26.5149
G1 X134.281 Y69.047 E26.5999
G1 X136.497 Y70.303 E26.68462
G1 X138.751 Y71.501 E26.76952
G1 X141.015 Y72.622 E26.85355
G1 X143.279 Y73.664 E26.93644
G1 X146.119 Y74.864 E27.03898
G1 X146.39 Y74.982 E27.04881
G1 X147.201 Y75.379 E27.07885
G1 X147.974 Y75.846 E27.10888
G1 X148.703 Y76.38 E27.13894
G1 X149.381 Y76.975 E27.16894
G1 X150.005 Y77.629 E27.19901
G1 X150.568 Y78.335 E27.22904
G1 X151.066 Y79.089 E27.2591
G1 X151.496 Y79.883 E27.28913
G1 X151.853 Y80.712 E27.31915
G1 X152.136 Y81.57 E27.3492
G1 X152.342 Y82.449 E27.37923
G1 X152.47 Y83.343 E27.40926
G1 X152.514 Y84.05 E27.43282
G1 X152.523 Y84.373 E27.44357
G1 X152.527 Y84.657 E27.45302
G1 X152.526 Y138.731 E29.25153
G1 X152.516 Y139.459 E29.27574
G1 X152.464 Y140.361 E29.30579
G1 X152.332 Y141.254 E29.33582
G1 X152.121 Y142.132 E29.36585
G1 X151.834 Y142.989 E29.39591
G1 X151.472 Y143.816 E29.42594
G1 X151.039 Y144.608 E29.45596
G1 X150.536 Y145.359 E29.48602
G1 X149.97 Y146.062 E29.51604
G1 X149.344 Y146.713 E29.54608
G1 X148.662 Y147.305 E29.57612
G1 X147.931 Y147.835 E29.60615
G1 X147.155 Y148.298 E29.6362
G1 X146.578 Y148.586 E29.65765
G1 X145.436 Y149.032 E29.69843
G1 X144.228 Y149.422 E29.74065
G1 X141.764 Y150.256 E29.82717
G1 X139.373 Y151.142 E29.91198
G1 X137.03 Y152.086 E29.99599
G1 X134.69 Y153.108 E30.08092
G1 X132.405 Y154.182 E30.1649
G1 X130.128 Y155.333 E30.24976
G1 X127.902 Y156.538 E30.33395
G1 X125.682 Y157.823 E30.41926
G1 X123.545 Y159.142 E30.50279
G1 X121.418 Y160.54 E30.58744
G1 X119.338 Y161.99 E30.67177
G1 X117.282 Y163.513 E30.75688
G1 X115.285 Y165.082 E30.84134
G1 X113.363 Y166.683 E30.92454
G1 X111.435 Y168.382 E31.01001
G1 X109.593 Y170.1 E31.09379
G1 X107.332 Y172.364 E31.20021
G1 X106.872 Y172.818 E31.22171
G1 X106.202 Y173.423 E31.25173
G1 X105.481 Y173.967 E31.28177
G1 X105.088 Y174.223 E31.29737
G1 X104.774 Y174.418 E31.30967
G1 X104.494 Y174.586 E31.32053
G1 X99.627 Y177.395 E31.50743
G1 X99.039 Y177.721 E31.52979
G1 X98.23 Y178.123 E31.55984
G1 X97.389 Y178.453 E31.58989
G1 X96.523 Y178.706 E31.6199
G1 X95.637 Y178.882 E31.64994
G1 X94.739 Y178.98 E31.67998
G1 X93.521 Y178.984 E31.7205
G1 X92.809 Y178.944 E31.74421
G1 X92.494 Y178.921 E31.75472
G1 X92.116 Y178.888 E31.76734
G1 X90.993 Y178.727 E31.80507
G1 X90.575 Y178.643 E31.81925
G1 X90.303 Y178.584 E31.82851
G1 X89.924 Y178.497 E31.84144
G1 X89.054 Y178.257 E31.87146
G1 X88.208 Y177.94 E31.90151
G1 X87.393 Y177.549 E31.93157
G1 X86.617 Y177.088 E31.9616
G1 X85.884 Y176.561 E31.99162
G1 X85.201 Y175.97 E32.02166
G1 X84.572 Y175.321 E32.05172
G1 X84.004 Y174.62 E32.08173
G1 X83.516 Y173.896 E32.11077
G1 X83.355 Y173.634 E32.121
G1 X83.211 Y173.394 E32.13031
G1 X80.288 Y168.331 E32.32475
G1 X79.885 Y167.609 E32.35225
G1 X79.48 Y166.802 E32.38229
G1 X79.148 Y165.962 E32.41233
G1 X78.892 Y165.096 E32.44236
G1 X78.713 Y164.211 E32.47239
G1 X78.595 Y162.924 E32.51538
G1 X78.555 Y161.459 E32.56412
G1 X78.446 Y158.902 E32.64925
