;FLAVOR:Marlin
;TIME:21427
;Filament used: 19.7676m
;Layer height: 0.2
;MINX:36.5
;MINY:28.576
;MINZ:0.2
;MAXX:183.5
;MAXY:156.212
;MAXZ:17.4
;Generated with Cura_SteamEngine 4.8.0
M140 S60
M105
M190 S60
M104 S200
M105
M109 S200
M82 ;absolute extrusion mode
; Ender 3 Custom Start G-code
G92 E0 ; Reset Extruder
G28 ; Home all axes
G1 Z2.0 F3000 ; Move Z Axis up little to prevent scratching of Heat Bed
G1 X0.1 Y20 Z0.3 F5000.0 ; Move to start position
G1 X0.1 Y200.0 Z0.3 F1500.0 E15 ; Draw the first line
G1 X0.4 Y200.0 Z0.3 F5000.0 ; Move to side a little
G1 X0.4 Y20 Z0.3 F1500.0 E30 ; Draw the second line
G92 E0 ; Reset Extruder
G1 Z2.0 F3000 ; Move Z Axis up little to prevent scratching of Heat Bed
G1 X5 Y20 Z0.3 F5000.0 ; Move over to prevent blob squish
G92 E0
G92 E0
G1 F1500 E-6.5
;LAYER_COUNT:87
;LAYER:0
M107
G0 F6000 X39.074 Y32.526 Z0.2
;TYPE:SKIRT
G1 F1500 E0
G1 F1200 X39.706 Y31.833 E0.03119
G1 X40.395 Y31.196 E0.0624
G1 X41.135 Y30.62 E0.09359
G1 X41.922 Y30.11 E0.12479
G1 X42.75 Y29.668 E0.156
G1 X43.612 Y29.299 E0.18719
G1 X44.502 Y29.004 E0.21838
G1 X45.414 Y28.786 E0.24956
G1 X46.342 Y28.647 E0.28077
G1 X47.201 Y28.589 E0.30941
G1 X47.521 Y28.58 E0.32006
G1 X47.83 Y28.576 E0.33033
G1 X54.293 Y28.576 E0.54529
G1 X55.32 Y28.589 E0.57945
G1 X55.628 Y28.598 E0.5897
G1 X56.061 Y28.616 E0.60412
G1 X152.042 Y33.467 E3.80053
G1 X152.761 Y33.514 E3.8245
G1 X153.956 Y33.659 E3.86454
G1 X154.755 Y33.801 E3.89153
G1 X156.286 Y34.096 E3.94338
G1 X156.92 Y34.228 E3.96492
G1 X158.103 Y34.544 E4.00565
G1 X159.053 Y34.857 E4.03892
G1 X160.356 Y35.31 E4.0848
G1 X160.969 Y35.532 E4.10648
G1 X161.862 Y35.901 E4.13862
G1 X162.808 Y36.342 E4.17334
G1 X163.762 Y36.806 E4.20862
G1 X164.772 Y37.315 E4.24624
G1 X166.606 Y38.268 E4.31498
G1 X168.857 Y39.359 E4.39818
G1 X171.158 Y40.396 E4.48212
G1 X173.531 Y41.385 E4.56763
G1 X175.846 Y42.273 E4.6501
G1 X176.287 Y42.435 E4.66573
G1 X177.153 Y42.796 E4.69693
G1 X177.985 Y43.229 E4.72813
G1 X178.777 Y43.732 E4.75933
G1 X179.523 Y44.3 E4.79052
G1 X180.218 Y44.93 E4.82172
G1 X180.857 Y45.616 E4.8529
G1 X181.435 Y46.355 E4.8841
G1 X181.948 Y47.14 E4.91529
G1 X182.392 Y47.966 E4.94648
G1 X182.764 Y48.827 E4.97768
G1 X183.062 Y49.716 E5.00886
G1 X183.283 Y50.628 E5.04008
G1 X183.425 Y51.555 E5.07127
G1 X183.487 Y52.453 E5.10121
G1 X183.496 Y52.776 E5.11195
G1 X183.5 Y53.082 E5.12213
G1 X183.499 Y131.451 E7.72869
G1 X183.489 Y132.179 E7.75291
G1 X183.436 Y133.115 E7.78409
G1 X183.304 Y134.044 E7.8153
G1 X183.093 Y134.958 E7.8465
G1 X182.805 Y135.85 E7.87768
G1 X182.441 Y136.715 E7.90889
G1 X182.006 Y137.546 E7.94009
G1 X181.501 Y138.336 E7.97127
G1 X180.931 Y139.081 E8.00247
G1 X180.3 Y139.774 E8.03364
G1 X179.612 Y140.411 E8.06483
G1 X178.872 Y140.988 E8.09604
G1 X178.085 Y141.499 E8.12725
G1 X177.258 Y141.941 E8.15844
G1 X176.459 Y142.287 E8.1874
G1 X175.773 Y142.551 E8.21184
G1 X174.309 Y143.093 E8.26377
G1 X171.978 Y144.032 E8.34735
G1 X169.691 Y145.029 E8.43033
G1 X167.377 Y146.116 E8.51536
G1 X165.115 Y147.258 E8.59964
G1 X163.902 Y147.905 E8.64537
G1 X163.302 Y148.218 E8.66787
G1 X162.417 Y148.63 E8.70034
G1 X161.216 Y149.125 E8.74355
G1 X159.881 Y149.646 E8.79121
G1 X159.203 Y149.9 E8.81529
G1 X157.998 Y150.274 E8.85726
G1 X157.092 Y150.498 E8.8883
G1 X155.859 Y150.784 E8.9304
G1 X155.27 Y150.913 E8.95045
G1 X154.598 Y151.039 E8.97319
G1 X153.919 Y151.144 E8.99604
G1 X153.559 Y151.193 E9.00813
G1 X153.344 Y151.219 E9.01533
G1 X152.75 Y151.275 E9.03518
G1 X151.929 Y151.328 E9.06254
G1 X56.092 Y156.17 E12.25416
G1 X55.263 Y156.2 E12.28175
G1 X54.985 Y156.206 E12.291
G1 X54.407 Y156.212 E12.31022
G1 X48.049 Y156.211 E12.52169
G1 X47.351 Y156.201 E12.54491
G1 X46.415 Y156.147 E12.57609
G1 X45.487 Y156.015 E12.60727
G1 X44.573 Y155.803 E12.63847
G1 X43.681 Y155.514 E12.66966
G1 X42.816 Y155.151 E12.70086
G1 X41.986 Y154.715 E12.73204
G1 X41.195 Y154.21 E12.76326
G1 X40.451 Y153.639 E12.79445
G1 X39.758 Y153.007 E12.82564
G1 X39.121 Y152.319 E12.85683
G1 X38.546 Y151.578 E12.88802
G1 X38.035 Y150.792 E12.91921
G1 X37.593 Y149.964 E12.95042
G1 X37.224 Y149.102 E12.98161
G1 X36.929 Y148.212 E13.0128
G1 X36.711 Y147.3 E13.04398
G1 X36.571 Y146.372 E13.0752
G1 X36.513 Y145.5 E13.10427
G1 X36.504 Y145.168 E13.11531
G1 X36.5 Y144.87 E13.12522
G1 X36.501 Y40.114 E16.60942
G1 X36.511 Y39.425 E16.63234
G1 X36.565 Y38.489 E16.66352
G1 X36.698 Y37.561 E16.69471
G1 X36.91 Y36.647 E16.72591
G1 X37.198 Y35.755 E16.75709
G1 X37.562 Y34.89 E16.7883
G1 X37.998 Y34.06 E16.81948
G1 X38.503 Y33.27 E16.85067
G1 X39.074 Y32.526 E16.88186
G0 F6000 X39.468 Y32.679
G1 F1200 X40.098 Y32.007 E16.9125
G1 X40.783 Y31.393 E16.9431
G1 X41.52 Y30.84 E16.97374
G1 X42.301 Y30.353 E17.00435
G1 X43.122 Y29.936 E17.03498
G1 X43.976 Y29.592 E17.0656
G1 X44.856 Y29.323 E17.09621
G1 X45.757 Y29.131 E17.12685
G1 X46.67 Y29.018 E17.15745
G1 X47.212 Y28.989 E17.1755
G1 X47.532 Y28.98 E17.18615
G1 X47.83 Y28.976 E17.19606
G1 X54.293 Y28.976 E17.41102
G1 X55.315 Y28.989 E17.44502
G1 X55.611 Y28.997 E17.45486
G1 X56.041 Y29.016 E17.46918
G1 X152.015 Y33.867 E20.66536
G1 X152.734 Y33.914 E20.68933
G1 X153.886 Y34.052 E20.72792
G1 X154.526 Y34.165 E20.74953
G1 X156.04 Y34.455 E20.80081
G1 X156.839 Y34.62 E20.82794
G1 X157.979 Y34.924 E20.86718
G1 X158.745 Y35.175 E20.89399
G1 X160.088 Y35.64 E20.94126
G1 X160.832 Y35.908 E20.96756
G1 X161.693 Y36.264 E20.99855
G1 X162.633 Y36.702 E21.03304
G1 X163.583 Y37.164 E21.06818
G1 X164.588 Y37.67 E21.1056
G1 X166.427 Y38.626 E21.17454
G1 X168.711 Y39.732 E21.25894
G1 X170.976 Y40.753 E21.34158
G1 X173.4 Y41.764 E21.42893
G1 X175.65 Y42.626 E21.50907
G1 X176.149 Y42.81 E21.52676
G1 X176.999 Y43.165 E21.5574
G1 X177.814 Y43.593 E21.58802
G1 X178.59 Y44.089 E21.61865
G1 X179.319 Y44.651 E21.64926
G1 X179.997 Y45.274 E21.67989
G1 X180.618 Y45.954 E21.71052
G1 X181.178 Y46.684 E21.74112
G1 X181.672 Y47.461 E21.77174
G1 X182.097 Y48.278 E21.80237
G1 X182.45 Y49.128 E21.83299
G1 X182.727 Y50.006 E21.86361
G1 X182.928 Y50.905 E21.89425
G1 X183.049 Y51.817 E21.92484
G1 X183.087 Y52.464 E21.9464
G1 X183.096 Y52.787 E21.95715
G1 X183.1 Y53.082 E21.96696
G1 X183.099 Y131.446 E24.57336
G1 X183.089 Y132.174 E24.59757
G1 X183.036 Y133.093 E24.62819
G1 X182.904 Y134.004 E24.65881
G1 X182.693 Y134.9 E24.68942
G1 X182.406 Y135.775 E24.72005
G1 X182.043 Y136.621 E24.75067
G1 X181.609 Y137.433 E24.78129
G1 X181.105 Y138.203 E24.8119
G1 X180.537 Y138.928 E24.84253
G1 X179.908 Y139.6 E24.87315
G1 X179.223 Y140.215 E24.90377
G1 X178.487 Y140.768 E24.93439
G1 X177.706 Y141.256 E24.96502
G1 X176.886 Y141.674 E24.99563
G1 X176.315 Y141.914 E25.01623
G1 X175.634 Y142.176 E25.0405
G1 X174.169 Y142.718 E25.09245
G1 X171.835 Y143.659 E25.17615
G1 X169.51 Y144.672 E25.2605
G1 X167.206 Y145.755 E25.34518
G1 X164.926 Y146.906 E25.43013
G1 X163.717 Y147.55 E25.47569
G1 X163.117 Y147.863 E25.4982
G1 X162.265 Y148.261 E25.52947
G1 X161.259 Y148.677 E25.56568
G1 X159.884 Y149.216 E25.6148
G1 X159.063 Y149.525 E25.64398
G1 X157.902 Y149.886 E25.68442
G1 X157.154 Y150.072 E25.71005
G1 X155.774 Y150.394 E25.75718
G1 X155.185 Y150.523 E25.77724
G1 X154.537 Y150.643 E25.79916
G1 X153.858 Y150.748 E25.82201
G1 X153.511 Y150.796 E25.83366
G1 X153.296 Y150.822 E25.84086
G1 X152.724 Y150.876 E25.85997
G1 X152.075 Y150.919 E25.88161
G1 X56.077 Y155.77 E29.07859
G1 X55.248 Y155.8 E29.10618
G1 X54.981 Y155.806 E29.11506
G1 X54.407 Y155.812 E29.13415
G1 X48.055 Y155.811 E29.34542
G1 X47.357 Y155.801 E29.36864
G1 X46.438 Y155.748 E29.39926
G1 X45.527 Y155.615 E29.42988
G1 X44.631 Y155.404 E29.46049
G1 X43.757 Y155.116 E29.4911
G1 X42.91 Y154.753 E29.52175
G1 X42.099 Y154.318 E29.55236
G1 X41.329 Y153.814 E29.58297
G1 X40.605 Y153.245 E29.6136
G1 X39.933 Y152.615 E29.64423
G1 X39.318 Y151.93 E29.67485
G1 X38.765 Y151.194 E29.70547
G1 X38.278 Y150.413 E29.73608
G1 X37.861 Y149.592 E29.76671
G1 X37.516 Y148.738 E29.79734
G1 X37.247 Y147.858 E29.82795
G1 X37.055 Y146.957 E29.85859
G1 X36.942 Y146.044 E29.88919
G1 X36.913 Y145.489 E29.90767
G1 X36.904 Y145.157 E29.91872
G1 X36.9 Y144.87 E29.92827
G1 X36.901 Y40.12 E33.41226
G1 X36.911 Y39.431 E33.43518
G1 X36.964 Y38.512 E33.4658
G1 X37.097 Y37.601 E33.49642
G1 X37.309 Y36.705 E33.52705
G1 X37.597 Y35.831 E33.55765
G1 X37.96 Y34.985 E33.58827
G1 X38.395 Y34.173 E33.61891
G1 X38.899 Y33.403 E33.64952
G1 X39.468 Y32.679 E33.68015
G0 F6000 X39.862 Y32.836
G1 F1200 X40.489 Y32.186 E33.71018
G1 X41.171 Y31.594 E33.74022
G1 X41.903 Y31.064 E33.77028
G1 X42.679 Y30.602 E33.80032
G1 X43.492 Y30.21 E33.83034
G1 X44.337 Y29.891 E33.86038
G1 X45.207 Y29.648 E33.89042
G1 X46.095 Y29.484 E33.92046
G1 X47.223 Y29.389 E33.95811
G1 X47.543 Y29.38 E33.96875
G1 X47.83 Y29.376 E33.9783
G1 X54.293 Y29.376 E34.19326
G1 X55.31 Y29.389 E34.22709
G1 X55.595 Y29.397 E34.23657
G1 X56.021 Y29.415 E34.25075
G1 X151.839 Y34.257 E37.44174
G1 X152.708 Y34.313 E37.4707
G1 X153.817 Y34.446 E37.50785
G1 X154.457 Y34.559 E37.52947
G1 X156.123 Y34.879 E37.58589
G1 X156.757 Y35.011 E37.60743
G1 X157.854 Y35.304 E37.6452
G1 X158.62 Y35.555 E37.67201
G1 X159.957 Y36.018 E37.71907
G1 X160.696 Y36.285 E37.7452
G1 X161.524 Y36.626 E37.77498
G1 X162.459 Y37.062 E37.8093
G1 X163.403 Y37.521 E37.84421
G1 X164.403 Y38.025 E37.88145
G1 X166.246 Y38.983 E37.95054
G1 X168.508 Y40.079 E38.03414
G1 X170.866 Y41.141 E38.12016
G1 X173.21 Y42.119 E38.20463
G1 X175.581 Y43.028 E38.28909
G1 X176.011 Y43.186 E38.30432
G1 X176.844 Y43.535 E38.33436
G1 X177.643 Y43.956 E38.3644
G1 X178.402 Y44.446 E38.39445
G1 X179.114 Y45.002 E38.4245
G1 X179.774 Y45.618 E38.45452
G1 X180.377 Y46.29 E38.48455
G1 X180.918 Y47.013 E38.51459
G1 X181.394 Y47.781 E38.54464
G1 X181.799 Y48.588 E38.57467
G1 X182.132 Y49.427 E38.60469
G1 X182.388 Y50.293 E38.63473
G1 X182.568 Y51.178 E38.66477
G1 X182.687 Y52.475 E38.70809
G1 X182.696 Y52.798 E38.71883
G1 X182.7 Y53.082 E38.72828
G1 X182.699 Y131.44 E41.33448
G1 X182.689 Y132.168 E41.35869
G1 X182.637 Y133.07 E41.38874
G1 X182.505 Y133.963 E41.41877
G1 X182.294 Y134.841 E41.4488
G1 X182.007 Y135.698 E41.47886
G1 X181.645 Y136.525 E41.50889
G1 X181.212 Y137.317 E41.53891
G1 X180.709 Y138.068 E41.56897
G1 X180.143 Y138.771 E41.59899
G1 X179.517 Y139.422 E41.62903
G1 X178.835 Y140.014 E41.65907
G1 X178.104 Y140.544 E41.6891
G1 X177.328 Y141.007 E41.71915
G1 X176.171 Y141.541 E41.76154
G1 X175.495 Y141.801 E41.78563
G1 X174.017 Y142.348 E41.83804
G1 X171.687 Y143.287 E41.9216
G1 X169.346 Y144.307 E42.00653
G1 X167.034 Y145.394 E42.0915
G1 X164.737 Y146.554 E42.17709
G1 X163.532 Y147.195 E42.22248
G1 X162.932 Y147.508 E42.24499
G1 X162.112 Y147.891 E42.27509
G1 X161.106 Y148.307 E42.3113
G1 X160.924 Y148.38 E42.31782
G1 X159.6 Y148.897 E42.3651
G1 X158.922 Y149.151 E42.38918
G1 X157.805 Y149.498 E42.42808
G1 X156.911 Y149.719 E42.45871
G1 X155.688 Y150.003 E42.50047
G1 X155.099 Y150.132 E42.52053
G1 X154.476 Y150.248 E42.5416
G1 X153.797 Y150.353 E42.56445
G1 X153.463 Y150.399 E42.57567
G1 X153.248 Y150.425 E42.58287
G1 X152.697 Y150.477 E42.60128
G1 X151.889 Y150.529 E42.62821
G1 X56.063 Y155.37 E45.81946
G1 X55.234 Y155.4 E45.84705
G1 X54.976 Y155.406 E45.85563
G1 X54.407 Y155.412 E45.87456
G1 X48.061 Y155.411 E46.08563
G1 X47.363 Y155.401 E46.10885
G1 X46.461 Y155.348 E46.1389
G1 X45.568 Y155.216 E46.16892
G1 X44.69 Y155.005 E46.19896
G1 X43.834 Y154.717 E46.229
G1 X43.007 Y154.355 E46.25902
G1 X42.215 Y153.92 E46.28908
G1 X41.464 Y153.418 E46.31912
G1 X40.761 Y152.851 E46.34916
G1 X40.111 Y152.224 E46.3792
G1 X39.519 Y151.542 E46.40923
G1 X38.989 Y150.811 E46.43927
G1 X38.527 Y150.035 E46.4693
G1 X38.134 Y149.222 E46.49934
G1 X37.816 Y148.377 E46.52937
G1 X37.573 Y147.507 E46.55941
G1 X37.408 Y146.619 E46.58945
G1 X37.313 Y145.478 E46.62753
G1 X37.304 Y145.146 E46.63858
G1 X37.3 Y144.87 E46.64776
G1 X37.301 Y40.126 E50.13156
G1 X37.311 Y39.437 E50.15448
G1 X37.364 Y38.535 E50.18453
G1 X37.497 Y37.642 E50.21456
G1 X37.708 Y36.764 E50.24459
G1 X37.996 Y35.908 E50.27463
G1 X38.358 Y35.081 E50.30466
G1 X38.793 Y34.289 E50.33471
G1 X39.295 Y33.539 E50.36473
G1 X39.862 Y32.836 E50.39477
G1 F1500 E43.89477
;MESH:Sensor_B6.STL
G0 F6000 X138.165 Y129.745
G0 X136.73 Y129.745
G0 X136.9 Y131.452
;TYPE:WALL-INNER
G1 F1500 E50.39477
G1 F1200 X136.9 Y131.453 E50.3948
G1 X136.9 Y131.661 E50.40172
G1 X137.108 Y131.651 E50.40614
G1 X151.757 Y130.909 E50.89399
G1 X151.757 Y53.878 E53.45605
G1 X137.108 Y53.137 E53.9439
G1 X136.9 Y53.127 E53.95083
G1 X136.9 Y53.335 E53.95525
G1 X136.9 Y53.336 E53.95528
G1 X136.9 Y131.452 E56.55343
G0 F6000 X137.3 Y131.24
;TYPE:WALL-OUTER
G1 F1200 X151.357 Y130.529 E57.02156
G1 X151.357 Y54.258 E59.55835
G1 X137.3 Y53.548 E60.02648
G1 X137.3 Y131.24 E62.61053
G1 F1500 E56.11053
G0 F6000 X137 Y131.24
G0 X151.55 Y131.13
G0 X150.504 Y129.718
G0 X152.834 Y140.869
G0 X152.634 Y139.41
G0 X151.984 Y139.71
;TYPE:WALL-INNER
G1 F1500 E62.61053
G1 F1200 X54.99 Y144.612 E65.84068
G1 X48.1 Y144.612 E66.06984
G1 X48.1 Y40.176 E69.5434
G1 X54.99 Y40.176 E69.77256
G1 X151.965 Y45.077 E73.00208
G1 X154.545 Y45.573 E73.08946
G1 X157.037 Y46.437 E73.17718
G1 X159.167 Y47.468 E73.25589
G1 X162.151 Y49.32 E73.3727
G1 X165.625 Y51.961 E73.51784
G1 X167.281 Y53.352 E73.58977
G1 X171.9 Y53.352 E73.7434
G1 X171.9 Y131.436 E76.34049
G1 X167.288 Y131.436 E76.49388
G1 X163.418 Y134.556 E76.65922
G1 X160.404 Y136.606 E76.78046
G1 X157.876 Y137.976 E76.87609
G1 X155.159 Y139.038 E76.97312
G1 X152.679 Y139.616 E77.05781
G1 X151.984 Y139.71 E77.08114
G0 F6000 X152.023 Y140.108
;TYPE:WALL-OUTER
G1 F1200 X54.99 Y145.012 E80.31259
G1 X47.7 Y145.012 E80.55506
G1 X47.7 Y39.776 E84.05522
G1 X54.99 Y39.776 E84.29769
G1 X152.017 Y44.68 E87.52894
G1 X154.649 Y45.185 E87.61807
G1 X157.189 Y46.066 E87.70749
G1 X159.363 Y47.119 E87.78783
G1 X162.373 Y48.987 E87.90566
G1 X165.874 Y51.649 E88.05194
G1 X167.427 Y52.952 E88.11937
G1 X172.3 Y52.952 E88.28144
G1 X172.3 Y131.836 E90.90514
G1 X167.429 Y131.836 E91.06715
G1 X163.651 Y134.882 E91.22856
G1 X160.61 Y136.95 E91.35087
G1 X158.044 Y138.34 E91.44793
G1 X155.279 Y139.421 E91.54668
G1 X152.76 Y140.008 E91.6327
G1 X152.023 Y140.108 E91.65744
G0 F6000 X151.983 Y139.67
G0 X151.96 Y139.32
;TYPE:SKIN
G1 F1200 X54.97 Y144.222 E94.88746
G1 X48.49 Y144.222 E95.10299
G1 X48.49 Y40.566 E98.5506
G1 X54.97 Y40.566 E98.76612
G1 X151.921 Y45.466 E101.99484
G1 X154.44 Y45.95 E102.08016
G1 X156.893 Y46.8 E102.1665
G1 X158.984 Y47.813 E102.24378
G1 X161.928 Y49.64 E102.35902
G1 X165.381 Y52.265 E102.50329
G1 X167.139 Y53.742 E102.57966
G1 X171.51 Y53.742 E102.72504
G1 X171.51 Y131.046 E105.29618
G1 X167.15 Y131.046 E105.44119
G1 X163.18 Y134.247 E105.61081
G1 X160.208 Y136.268 E105.73035
G1 X157.708 Y137.623 E105.82493
G1 X155.045 Y138.664 E105.92003
G1 X152.603 Y139.234 E106.00343
G1 X151.96 Y139.32 E106.02501
G1 F1500 E99.52501
G0 F6000 X151.996 Y139.598
G0 X152.634 Y139.41
G0 X152.969 Y140.845
G0 X150.504 Y129.718
G0 X151.953 Y131.096
G0 X152.147 Y131.28
G1 F1500 E106.02501
G1 F1200 X152.147 Y53.507 E108.61175
G1 X136.51 Y52.717 E109.1325
G1 X136.51 Y132.071 E111.77183
G1 X152.147 Y131.28 E112.29258
G1 F1500 E105.79258
G0 F6000 X151.894 Y131.013
G0 X151.947 Y54.252
G0 X150.504 Y55.069
G0 X173.165 Y54.252
G0 X171.69 Y54.252
G0 X171.349 Y54.252
G1 F1500 E112.29258
G1 F1200 X170.998 Y53.902 E112.30907
G0 F6000 X170.433 Y53.902
G1 F1200 X171.349 Y54.818 E112.35215
G0 F6000 X171.349 Y55.384
G1 F1200 X169.867 Y53.902 E112.42186
G0 F6000 X169.301 Y53.902
G1 F1200 X171.349 Y55.949 E112.51817
G0 F6000 X171.349 Y56.515
G1 F1200 X168.736 Y53.902 E112.64108
