;FLAVOR:Marlin
;TIME:9946
;Filament used: 8.19026m
;Layer height: 0.2
;MINX:38.893
;MINY:71.5
;MINZ:0.2
;MAXX:170.54
;MAXY:148.5
;MAXZ:12.2
;Generated with Cura_SteamEngine 4.8.0
M140 S60
M105
M190 S60
M104 S200
M105
M109 S200
M82 ;absolute extrusion mode
; Ender 3 Custom Start G-code
G92 E0 ; Reset Extruder
G28 ; Home all axes
G1 Z2.0 F3000 ; Move Z Axis up little to prevent scratching of Heat Bed
G1 X0.1 Y20 Z0.3 F5000.0 ; Move to start position
G1 X0.1 Y200.0 Z0.3 F1500.0 E15 ; Draw the first line
G1 X0.4 Y200.0 Z0.3 F5000.0 ; Move to side a little
G1 X0.4 Y20 Z0.3 F1500.0 E30 ; Draw the second line
G92 E0 ; Reset Extruder
G1 Z2.0 F3000 ; Move Z Axis up little to prevent scratching of Heat Bed
G1 X5 Y20 Z0.3 F5000.0 ; Move over to prevent blob squish
G92 E0
G92 E0
G1 F1500 E-6.5
;LAYER_COUNT:62
;LAYER:0
M107
G0 F6000 X44.504 Y74.617 Z0.2
;TYPE:SKIRT
G1 F1500 E0
G1 F1200 X45.332 Y74.175 E0.03122
G1 X46.194 Y73.806 E0.0624
G1 X47.084 Y73.511 E0.09359
G1 X47.911 Y73.31 E0.1219
G1 X49.028 Y73.084 E0.1598
G1 X49.56 Y72.984 E0.17781
G1 X52.025 Y72.451 E0.26169
G1 X54.317 Y71.886 E0.3402
G1 X55.059 Y71.73 E0.36542
G1 X55.317 Y71.685 E0.37413
G1 X56.247 Y71.563 E0.40533
G1 X56.985 Y71.523 E0.42991
G1 X58.025 Y71.502 E0.46451
G1 X58.247 Y71.5 E0.47189
G1 X154.866 Y71.5 E3.68545
G1 X155.722 Y71.511 E3.71392
G1 X156.658 Y71.565 E3.74511
G1 X157.586 Y71.697 E3.77628
G1 X158.5 Y71.909 E3.80749
G1 X159.392 Y72.198 E3.83868
G1 X160.257 Y72.561 E3.86988
G1 X161.087 Y72.997 E3.90106
G1 X161.878 Y73.502 E3.93227
G1 X162.622 Y74.073 E3.96347
G1 X163.315 Y74.705 E3.99466
G1 X163.952 Y75.393 E4.02585
G1 X164.527 Y76.134 E4.05704
G1 X165.038 Y76.92 E4.08822
G1 X165.48 Y77.748 E4.11944
G1 X165.849 Y78.61 E4.15063
G1 X166.144 Y79.5 E4.18181
G1 X166.362 Y80.412 E4.213
G1 X166.502 Y81.34 E4.24422
G1 X166.559 Y82.187 E4.27245
G1 X166.568 Y82.493 E4.28263
G1 X166.573 Y82.816 E4.29338
G1 X166.573 Y136.914 E6.09268
G1 X166.563 Y137.641 E6.11687
G1 X166.51 Y138.578 E6.14808
G1 X166.378 Y139.506 E6.17926
G1 X166.167 Y140.42 E6.21046
G1 X165.878 Y141.312 E6.24164
G1 X165.515 Y142.177 E6.27284
G1 X165.08 Y143.008 E6.30404
G1 X164.575 Y143.798 E6.33523
G1 X164.005 Y144.543 E6.36643
G1 X163.374 Y145.237 E6.39762
G1 X162.685 Y145.874 E6.42883
G1 X161.945 Y146.45 E6.46002
G1 X161.159 Y146.961 E6.4912
G1 X160.332 Y147.403 E6.52239
G1 X159.47 Y147.773 E6.55359
G1 X158.58 Y148.068 E6.58478
G1 X157.668 Y148.287 E6.61597
G1 X156.741 Y148.427 E6.64715
G1 X155.838 Y148.487 E6.67725
G1 X155.436 Y148.497 E6.69063
G1 X155.162 Y148.5 E6.69974
G1 X57.65 Y148.499 E9.943
G1 X56.952 Y148.49 E9.96622
G1 X56.016 Y148.438 E9.9974
G1 X55.087 Y148.306 E10.02861
G1 X54.173 Y148.096 E10.0598
G1 X53.28 Y147.809 E10.091
G1 X52.415 Y147.446 E10.1222
G1 X51.584 Y147.012 E10.15338
G1 X50.793 Y146.508 E10.18458
G1 X50.048 Y145.938 E10.21578
G1 X49.354 Y145.307 E10.24697
G1 X48.717 Y144.62 E10.27813
G1 X48.14 Y143.88 E10.30934
G1 X47.628 Y143.094 E10.34054
G1 X47.185 Y142.267 E10.37175
G1 X46.814 Y141.406 E10.40293
G1 X46.518 Y140.516 E10.43413
G1 X46.299 Y139.604 E10.46532
G1 X46.165 Y138.737 E10.4945
G1 X46.082 Y138.013 E10.51874
G1 X45.744 Y135.392 E10.60664
G1 X45.35 Y132.891 E10.69085
G1 X44.889 Y130.427 E10.77422
G1 X44.366 Y128.014 E10.85634
G1 X43.753 Y125.52 E10.94176
G1 X43.087 Y123.109 E11.02495
G1 X42.342 Y120.682 E11.10939
G1 X41.542 Y118.317 E11.19243
G1 X40.663 Y115.945 E11.27657
G1 X40.137 Y114.634 E11.32355
G1 X39.88 Y113.971 E11.3472
G1 X39.578 Y113.083 E11.3784
G1 X39.354 Y112.172 E11.4096
G1 X39.207 Y111.246 E11.44078
G1 X39.14 Y110.299 E11.47236
G1 X39.131 Y109.974 E11.48317
G1 X39.127 Y109.67 E11.49329
G1 X39.127 Y107.763 E11.55671
G1 X39.09 Y105.154 E11.6435
G1 X38.983 Y102.63 E11.72752
G1 X38.942 Y101.994 E11.74872
G1 X38.924 Y101.613 E11.76141
G1 X38.914 Y101.291 E11.77212
G1 X38.893 Y100.032 E11.814
G1 X38.895 Y94.421 E12.00062
G1 X38.905 Y93.707 E12.02437
G1 X38.914 Y93.39 E12.03492
G1 X38.958 Y92.355 E12.06938
G1 X39.037 Y89.624 E12.16025
G1 X39.058 Y88.148 E12.20934
G1 X39.055 Y88.114 E12.21048
G1 X39.05 Y87.488 E12.2313
G1 X39.082 Y85.985 E12.2813
G1 X39.083 Y84.621 E12.32667
G1 X39.093 Y83.932 E12.34959
G1 X39.147 Y82.996 E12.38077
G1 X39.28 Y82.068 E12.41195
G1 X39.492 Y81.154 E12.44316
G1 X39.78 Y80.262 E12.47433
G1 X40.144 Y79.397 E12.50555
G1 X40.58 Y78.567 E12.53673
G1 X41.085 Y77.777 E12.56792
G1 X41.656 Y77.033 E12.59911
G1 X42.288 Y76.34 E12.6303
G1 X42.977 Y75.703 E12.66151
G1 X43.717 Y75.127 E12.6927
G1 X44.504 Y74.617 E12.7239
G0 F6000 X44.883 Y74.86
G1 F1200 X45.704 Y74.443 E12.75452
G1 X46.558 Y74.099 E12.78514
G1 X47.438 Y73.83 E12.81575
G1 X47.99 Y73.703 E12.83459
G1 X49.264 Y73.446 E12.87782
G1 X49.653 Y73.373 E12.89098
G1 X52.101 Y72.844 E12.97428
G1 X54.413 Y72.274 E13.05348
G1 X55.128 Y72.124 E13.07778
G1 X55.386 Y72.079 E13.08649
G1 X56.299 Y71.96 E13.11711
G1 X56.993 Y71.923 E13.14023
G1 X58.033 Y71.902 E13.17483
G1 X58.247 Y71.9 E13.18194
G1 X154.866 Y71.9 E16.39551
G1 X155.716 Y71.911 E16.42378
G1 X156.635 Y71.964 E16.4544
G1 X157.546 Y72.097 E16.48502
G1 X158.442 Y72.308 E16.51563
G1 X159.316 Y72.596 E16.54624
G1 X160.163 Y72.959 E16.57689
G1 X160.974 Y73.394 E16.6075
G1 X161.744 Y73.898 E16.63811
G1 X162.468 Y74.467 E16.66873
G1 X163.14 Y75.097 E16.69937
G1 X163.755 Y75.782 E16.72999
G1 X164.308 Y76.518 E16.76061
G1 X164.795 Y77.299 E16.79122
G1 X165.212 Y78.12 E16.82185
G1 X165.557 Y78.974 E16.85248
G1 X165.826 Y79.854 E16.88309
G1 X166.018 Y80.755 E16.91373
G1 X166.131 Y81.668 E16.94433
G1 X166.159 Y82.198 E16.96198
G1 X166.168 Y82.504 E16.97216
G1 X166.173 Y82.816 E16.98254
G1 X166.173 Y136.909 E18.78168
G1 X166.163 Y137.636 E18.80586
G1 X166.11 Y138.555 E18.83648
G1 X165.978 Y139.466 E18.8671
G1 X165.767 Y140.362 E18.89771
G1 X165.48 Y141.237 E18.92834
G1 X165.117 Y142.083 E18.95896
G1 X164.683 Y142.895 E18.98958
G1 X164.179 Y143.666 E19.02022
G1 X163.611 Y144.39 E19.05083
G1 X162.982 Y145.062 E19.08144
G1 X162.297 Y145.677 E19.11206
G1 X161.561 Y146.23 E19.14268
G1 X160.78 Y146.718 E19.17331
G1 X159.96 Y147.136 E19.20392
G1 X159.106 Y147.481 E19.23455
G1 X158.226 Y147.75 E19.26516
G1 X157.325 Y147.943 E19.29581
G1 X156.412 Y148.056 E19.32641
G1 X155.828 Y148.087 E19.34586
G1 X155.426 Y148.097 E19.35923
G1 X155.162 Y148.1 E19.36801
G1 X57.655 Y148.099 E22.61111
G1 X56.957 Y148.09 E22.63433
G1 X56.038 Y148.038 E22.66494
G1 X55.127 Y147.907 E22.69555
G1 X54.231 Y147.697 E22.72616
G1 X53.356 Y147.41 E22.75679
G1 X52.509 Y147.048 E22.78743
G1 X51.697 Y146.614 E22.81805
G1 X50.926 Y146.112 E22.84865
G1 X50.201 Y145.544 E22.87928
G1 X49.528 Y144.915 E22.90992
G1 X48.913 Y144.231 E22.94051
G1 X48.359 Y143.496 E22.97113
G1 X47.871 Y142.715 E23.00176
G1 X47.452 Y141.895 E23.03238
G1 X47.106 Y141.042 E23.063
G1 X46.836 Y140.162 E23.09362
G1 X46.643 Y139.261 E23.12426
G1 X46.562 Y138.691 E23.14341
G1 X46.475 Y137.924 E23.16909
G1 X46.138 Y135.315 E23.25658
G1 X45.751 Y132.861 E23.33921
G1 X45.285 Y130.367 E23.4236
G1 X44.746 Y127.879 E23.50827
G1 X44.142 Y125.425 E23.59232
G1 X43.47 Y122.989 E23.67637
G1 X42.731 Y120.583 E23.76009
G1 X41.924 Y118.199 E23.8438
G1 X41.033 Y115.793 E23.92913
G1 X40.51 Y114.489 E23.97586
G1 X40.253 Y113.826 E23.99951
G1 X39.957 Y112.954 E24.03014
G1 X39.739 Y112.06 E24.06075
G1 X39.599 Y111.15 E24.09137
G1 X39.54 Y110.288 E24.12011
G1 X39.531 Y109.963 E24.13092
G1 X39.527 Y109.67 E24.14067
G1 X39.527 Y107.757 E24.20429
G1 X39.49 Y105.132 E24.29161
G1 X39.383 Y102.626 E24.37504
G1 X39.354 Y102.189 E24.3896
G1 X39.324 Y101.594 E24.40942
G1 X39.314 Y101.284 E24.41973
G1 X39.293 Y100.032 E24.46138
G1 X39.295 Y94.427 E24.6478
G1 X39.305 Y93.713 E24.67155
G1 X39.314 Y93.407 E24.68174
G1 X39.358 Y92.382 E24.71586
G1 X39.437 Y89.627 E24.80753
G1 X39.462 Y87.829 E24.86734
G1 X39.45 Y87.496 E24.87842
G1 X39.482 Y85.993 E24.92842
G1 X39.483 Y84.627 E24.97385
G1 X39.493 Y83.938 E24.99677
G1 X39.546 Y83.019 E25.02739
G1 X39.679 Y82.108 E25.05801
G1 X39.891 Y81.212 E25.08863
G1 X40.179 Y80.338 E25.11924
G1 X40.542 Y79.492 E25.14986
G1 X40.977 Y78.68 E25.1805
G1 X41.481 Y77.91 E25.21111
G1 X42.05 Y77.186 E25.24173
G1 X42.68 Y76.514 E25.27237
G1 X43.365 Y75.9 E25.30297
G1 X44.102 Y75.347 E25.33361
G1 X44.883 Y74.86 E25.36423
G0 F6000 X45.261 Y75.109
G1 F1200 X46.074 Y74.717 E25.39425
G1 X46.919 Y74.398 E25.42429
G1 X48.069 Y74.095 E25.46384
G1 X49.337 Y73.839 E25.50687
G1 X49.739 Y73.764 E25.52047
G1 X52.175 Y73.237 E25.60336
G1 X54.508 Y72.662 E25.68328
G1 X55.196 Y72.518 E25.70666
G1 X55.454 Y72.473 E25.71537
G1 X56.35 Y72.357 E25.74542
G1 X57.001 Y72.323 E25.7671
G1 X58.041 Y72.302 E25.8017
G1 X58.247 Y72.3 E25.80855
G1 X154.866 Y72.3 E29.02211
G1 X155.71 Y72.311 E29.05019
G1 X156.612 Y72.364 E29.08024
G1 X157.505 Y72.496 E29.11026
G1 X158.383 Y72.707 E29.1403
G1 X159.239 Y72.995 E29.17034
G1 X160.066 Y73.357 E29.20036
G1 X160.858 Y73.792 E29.23042
G1 X161.609 Y74.294 E29.26046
G1 X162.312 Y74.861 E29.2905
G1 X162.962 Y75.488 E29.32054
G1 X163.554 Y76.17 E29.35057
G1 X164.084 Y76.901 E29.38061
G1 X164.546 Y77.677 E29.41064
G1 X164.939 Y78.49 E29.44068
G1 X165.257 Y79.335 E29.47071
G1 X165.5 Y80.205 E29.50075
G1 X165.665 Y81.093 E29.53079
G1 X165.76 Y82.21 E29.56808
G1 X165.769 Y82.516 E29.57826
G1 X165.773 Y82.816 E29.58824
G1 X165.773 Y136.903 E31.38718
G1 X165.763 Y137.63 E31.41136
G1 X165.711 Y138.532 E31.44141
G1 X165.579 Y139.425 E31.47144
G1 X165.368 Y140.304 E31.5015
G1 X165.081 Y141.16 E31.53153
G1 X164.719 Y141.987 E31.56156
G1 X164.285 Y142.779 E31.59159
G1 X163.783 Y143.53 E31.62164
G1 X163.217 Y144.233 E31.65166
G1 X162.59 Y144.884 E31.68172
G1 X161.909 Y145.476 E31.71173
G1 X161.178 Y146.006 E31.74176
G1 X160.402 Y146.469 E31.77182
G1 X159.589 Y146.862 E31.80185
G1 X158.744 Y147.182 E31.8319
G1 X157.875 Y147.425 E31.86192
G1 X156.987 Y147.59 E31.89196
G1 X155.818 Y147.687 E31.93097
G1 X155.416 Y147.697 E31.94435
G1 X155.162 Y147.7 E31.95279
G1 X57.66 Y147.699 E35.19572
G1 X56.962 Y147.69 E35.21894
G1 X56.061 Y147.639 E35.24896
G1 X55.167 Y147.507 E35.27901
G1 X54.289 Y147.298 E35.30903
G1 X53.432 Y147.011 E35.33909
G1 X52.605 Y146.65 E35.3691
G1 X51.812 Y146.217 E35.39915
G1 X51.061 Y145.716 E35.42918
G1 X50.357 Y145.15 E35.45923
G1 X49.706 Y144.524 E35.48926
G1 X49.113 Y143.843 E35.5193
G1 X48.583 Y143.112 E35.54933
G1 X48.119 Y142.337 E35.57937
G1 X47.725 Y141.524 E35.60942
G1 X47.405 Y140.68 E35.63944
G1 X47.161 Y139.81 E35.6695
G1 X46.96 Y138.646 E35.70878
G1 X46.874 Y137.894 E35.73396
G1 X46.536 Y135.274 E35.82182
G1 X46.145 Y132.797 E35.90523
G1 X45.674 Y130.274 E35.99059
G1 X45.139 Y127.804 E36.07465
G1 X44.532 Y125.337 E36.15915
G1 X43.851 Y122.871 E36.24424
G1 X43.106 Y120.443 E36.32871
G1 X42.302 Y118.068 E36.41211
G1 X41.408 Y115.654 E36.49773
G1 X40.883 Y114.345 E36.54464
G1 X40.626 Y113.682 E36.56829
G1 X40.337 Y112.826 E36.59833
G1 X40.125 Y111.948 E36.62838
G1 X39.991 Y111.055 E36.65841
G1 X39.94 Y110.277 E36.68434
G1 X39.931 Y109.952 E36.69516
G1 X39.927 Y109.67 E36.70454
G1 X39.927 Y107.751 E36.76836
G1 X39.89 Y105.145 E36.85505
G1 X39.781 Y102.582 E36.94037
G1 X39.741 Y101.956 E36.96123
G1 X39.723 Y101.575 E36.97392
G1 X39.714 Y101.277 E36.98384
G1 X39.693 Y100.032 E37.02525
G1 X39.695 Y94.432 E37.21151
G1 X39.705 Y93.718 E37.23526
G1 X39.713 Y93.424 E37.24504
G1 X39.759 Y92.341 E37.28109
G1 X39.836 Y89.659 E37.37033
G1 X39.86 Y87.965 E37.42668
G1 X39.85 Y87.505 E37.44198
G1 X39.882 Y86.002 E37.49199
G1 X39.883 Y84.633 E37.53752
G1 X39.893 Y83.944 E37.56044
G1 X39.946 Y83.042 E37.59049
G1 X40.079 Y82.149 E37.62052
G1 X40.29 Y81.271 E37.65055
G1 X40.578 Y80.415 E37.68059
G1 X40.94 Y79.588 E37.71062
G1 X41.375 Y78.796 E37.74067
G1 X41.877 Y78.046 E37.77069
G1 X42.444 Y77.343 E37.80073
G1 X43.071 Y76.693 E37.83077
G1 X43.753 Y76.101 E37.8608
G1 X44.485 Y75.571 E37.89086
G1 X45.261 Y75.109 E37.9209
G0 F6000 X50.682 Y84.683
G1 F1200 X51.482 Y84.683 E37.94751
G1 X51.482 Y86.046 E37.99284
G1 X51.439 Y86.408 E38.00497
G1 X51.435 Y86.479 E38.00733
G1 X51.435 Y91.011 E38.15807
G1 X51.333 Y91.282 E38.1677
G1 X51.294 Y91.494 E38.17487
G1 X51.293 Y102.591 E38.54395
G1 X51.333 Y102.806 E38.55123
G1 X51.528 Y103.109 E38.56321
G1 X51.527 Y109.4 E38.77245
G1 X50.727 Y109.4 E38.79906
G1 X50.728 Y101.235 E39.07063
G1 X50.688 Y101.02 E39.0779
G1 X50.493 Y100.717 E39.08989
G1 X50.494 Y93.984 E39.31383
G1 X50.596 Y93.713 E39.32346
G1 X50.635 Y93.501 E39.33063
G1 X50.635 Y89.155 E39.47518
G1 X50.678 Y88.793 E39.4873
G1 X50.682 Y88.722 E39.48967
G1 X50.682 Y84.683 E39.624
G0 F6000 X50.282 Y84.283
G1 F1200 X51.882 Y84.283 E39.67722
G1 X51.882 Y86.067 E39.73656
G1 X51.836 Y86.455 E39.74955
G1 X51.835 Y91.083 E39.90348
G1 X51.707 Y91.423 E39.91556
G1 X51.694 Y91.494 E39.91796
G1 X51.693 Y102.591 E40.28705
G1 X51.731 Y102.709 E40.29117
G1 X51.928 Y102.98 E40.30232
G1 X51.927 Y109.8 E40.52915
G1 X50.327 Y109.8 E40.58237
G1 X50.328 Y101.235 E40.86724
G1 X50.29 Y101.117 E40.87136
G1 X50.093 Y100.846 E40.88251
G1 X50.094 Y93.912 E41.11313
G1 X50.222 Y93.572 E41.12522
G1 X50.235 Y93.501 E41.12762
G1 X50.235 Y89.134 E41.27286
G1 X50.281 Y88.746 E41.28586
G1 X50.282 Y84.283 E41.4343
G1 F1500 E34.9343
;MESH:Body3.STL
G0 F6000 X56.42 Y84.283
G0 X57.895 Y84.283
G0 X138.599 Y105.122
;TYPE:WALL-INNER
G1 F1500 E41.4343
G1 F1200 X154.846 Y105.122 E41.97468
G1 X154.846 Y96.9 E42.24814
G1 X138.599 Y96.9 E42.78852
G1 X138.599 Y105.122 E43.06198
G0 F6000 X138.999 Y104.722
;TYPE:WALL-OUTER
G1 F1200 X154.446 Y104.722 E43.57575
G1 X154.446 Y97.3 E43.82261
G1 X138.999 Y97.3 E44.33638
G1 X138.999 Y104.722 E44.58324
G1 F1500 E38.08324
G0 F6000 X138.699 Y104.722
G0 X154.791 Y105.304
G0 X154.974 Y136.9
;TYPE:WALL-INNER
G1 F1500 E44.58324
G1 F1200 X154.775 Y136.9 E44.58985
G1 X57.685 Y136.9 E47.81908
G1 X57.685 Y83.101 E49.60844
G1 X154.973 Y83.1 E52.84425
G1 X154.973 Y96.9 E53.30324
G1 X154.973 Y105.121 E53.39027
G1 X154.974 Y136.701 E54.44062
G1 X154.974 Y136.9 E54.4449
G0 F6000 X155.374 Y137.3
;TYPE:WALL-OUTER
G1 F1200 X57.285 Y137.3 E57.70736
G1 X57.285 Y82.701 E59.52333
G1 X155.373 Y82.7 E62.78575
G1 X155.374 Y137.3 E64.60175
G0 F6000 X155.104 Y137.03
G0 X154.864 Y136.51
G0 X154.584 Y136.51
;TYPE:SKIN
G1 F1200 X58.075 Y136.51 E67.81165
G1 X58.075 Y83.491 E69.57507
G1 X154.583 Y83.49 E72.78494
G1 X154.583 Y96.51 E73.21799
G1 X138.209 Y96.51 E73.76259
G1 X138.209 Y105.512 E74.062
G1 X154.583 Y105.512 E74.6066
G1 X154.584 Y136.51 E75.6376
G1 F1500 E69.1376
G0 F6000 X154.864 Y136.51
G0 X154.863 Y83.712
G0 X154.422 Y83.712
G1 F1500 E75.6376
G1 F1200 X154.36 Y83.65 E75.64051
G0 F6000 X153.795 Y83.65
G1 F1200 X154.422 Y84.277 E75.67
G0 F6000 X154.422 Y84.843
G1 F1200 X153.229 Y83.65 E75.72612
G0 F6000 X152.663 Y83.65
G1 F1200 X154.422 Y85.409 E75.80886
G0 F6000 X154.422 Y85.974
G1 F1200 X152.097 Y83.65 E75.91819
G0 F6000 X151.532 Y83.65
G1 F1200 X154.422 Y86.54 E76.05413
G0 F6000 X154.422 Y87.106
G1 F1200 X150.966 Y83.65 E76.21669
G0 F6000 X150.4 Y83.65
G1 F1200 X154.422 Y87.672 E76.40587
G0 F6000 X154.422 Y88.237
G1 F1200 X149.835 Y83.65 E76.62163
G0 F6000 X149.269 Y83.65
G1 F1200 X154.422 Y88.803 E76.86401
G0 F6000 X154.422 Y89.369
G1 F1200 X148.703 Y83.65 E77.13302
G0 F6000 X148.138 Y83.65
G1 F1200 X154.422 Y89.934 E77.4286
G0 F6000 X154.422 Y90.5
G1 F1200 X147.572 Y83.65 E77.7508
G0 F6000 X147.006 Y83.65
G1 F1200 X154.422 Y91.066 E78.09963
G0 F6000 X154.422 Y91.631
G1 F1200 X146.441 Y83.65 E78.47503
G0 F6000 X145.875 Y83.65
G1 F1200 X154.422 Y92.197 E78.87705
G0 F6000 X154.422 Y92.763
G1 F1200 X145.309 Y83.65 E79.3057
G0 F6000 X144.744 Y83.65
G1 F1200 X154.422 Y93.328 E79.76092
