;FLAVOR:Marlin
;TIME:1141
;Filament used: 0.76099m
;Layer height: 0.2
;MINX:96.51
;MINY:86.175
;MINZ:0.2
;MAXX:123.49
;MAXY:163.146
;MAXZ:10
;Generated with Cura_SteamEngine 4.8.0
M140 S60
M105
M190 S60
M104 S200
M105
M109 S200
M82 ;absolute extrusion mode
; Ender 3 Custom Start G-code
G92 E0 ; Reset Extruder
G28 ; Home all axes
G1 Z2.0 F3000 ; Move Z Axis up little to prevent scratching of Heat Bed
G1 X0.1 Y20 Z0.3 F5000.0 ; Move to start position
G1 X0.1 Y200.0 Z0.3 F1500.0 E15 ; Draw the first line
G1 X0.4 Y200.0 Z0.3 F5000.0 ; Move to side a little
G1 X0.4 Y20 Z0.3 F1500.0 E30 ; Draw the second line
G92 E0 ; Reset Extruder
G1 Z2.0 F3000 ; Move Z Axis up little to prevent scratching of Heat Bed
G1 X5 Y20 Z0.3 F5000.0 ; Move over to prevent blob squish
G92 E0
G92 E0
G1 F1500 E-6.5
;LAYER_COUNT:50
;LAYER:0
M107
G0 F6000 X99.076 Y90.133 Z0.2
;TYPE:SKIRT
G1 F1500 E0
G1 F1200 X99.708 Y89.439 E0.03122
G1 X100.396 Y88.802 E0.0624
G1 X101.136 Y88.226 E0.09359
G1 X101.922 Y87.714 E0.12479
G1 X102.749 Y87.272 E0.15598
G1 X103.611 Y86.902 E0.18718
G1 X104.501 Y86.606 E0.21838
G1 X105.413 Y86.388 E0.24957
G1 X106.34 Y86.247 E0.28075
G1 X107.211 Y86.188 E0.30979
G1 X107.532 Y86.179 E0.32047
G1 X107.84 Y86.175 E0.33071
G1 X111.783 Y86.175 E0.46186
G1 X112.639 Y86.186 E0.49033
G1 X113.575 Y86.24 E0.52151
G1 X114.503 Y86.372 E0.55269
G1 X115.417 Y86.584 E0.5839
G1 X116.309 Y86.873 E0.61508
G1 X117.174 Y87.236 E0.64628
G1 X118.004 Y87.672 E0.67747
G1 X118.795 Y88.177 E0.70868
G1 X119.539 Y88.748 E0.73987
G1 X120.232 Y89.38 E0.77107
G1 X120.869 Y90.068 E0.80225
G1 X121.444 Y90.809 E0.83345
G1 X121.955 Y91.595 E0.86463
G1 X122.397 Y92.423 E0.89585
G1 X122.766 Y93.285 E0.92704
G1 X123.061 Y94.175 E0.95822
G1 X123.279 Y95.087 E0.98941
G1 X123.419 Y96.015 E1.02062
G1 X123.477 Y96.876 E1.04933
G1 X123.486 Y97.196 E1.05997
G1 X123.49 Y97.505 E1.07025
G1 X123.489 Y151.546 E2.86766
G1 X123.48 Y152.273 E2.89184
G1 X123.429 Y153.21 E2.92305
G1 X123.297 Y154.138 E2.95423
G1 X123.088 Y155.052 E2.98542
G1 X122.801 Y155.945 E3.01661
G1 X122.439 Y156.811 E3.04783
G1 X122.005 Y157.642 E3.07901
G1 X121.501 Y158.433 E3.11021
G1 X120.932 Y159.178 E3.14139
G1 X120.301 Y159.873 E3.17261
G1 X119.614 Y160.511 E3.20379
G1 X118.875 Y161.088 E3.23498
G1 X118.089 Y161.6 E3.26618
G1 X117.263 Y162.043 E3.29735
G1 X116.401 Y162.415 E3.32858
G1 X115.512 Y162.711 E3.35974
G1 X114.6 Y162.931 E3.39094
G1 X113.673 Y163.072 E3.42213
G1 X112.789 Y163.133 E3.4516
G1 X112.468 Y163.142 E3.46228
G1 X112.16 Y163.146 E3.47253
G1 X108.075 Y163.145 E3.6084
G1 X107.377 Y163.136 E3.63161
G1 X106.441 Y163.084 E3.66279
G1 X105.512 Y162.952 E3.694
G1 X104.598 Y162.742 E3.72519
G1 X103.705 Y162.455 E3.75639
G1 X102.84 Y162.092 E3.78759
G1 X102.009 Y161.658 E3.81877
G1 X101.218 Y161.154 E3.84997
G1 X100.473 Y160.584 E3.88117
G1 X99.779 Y159.953 E3.91237
G1 X99.142 Y159.266 E3.94353
G1 X98.565 Y158.526 E3.97474
G1 X98.053 Y157.74 E4.00594
G1 X97.61 Y156.913 E4.03714
G1 X97.239 Y156.052 E4.06832
G1 X96.943 Y155.162 E4.09952
G1 X96.724 Y154.25 E4.13071
G1 X96.583 Y153.323 E4.1619
G1 X96.523 Y152.434 E4.19154
G1 X96.514 Y152.101 E4.20262
G1 X96.51 Y151.804 E4.2125
G1 X96.511 Y97.7 E6.012
G1 X96.52 Y97.035 E6.03412
G1 X96.573 Y96.099 E6.0653
G1 X96.705 Y95.17 E6.09651
G1 X96.916 Y94.256 E6.12771
G1 X97.204 Y93.364 E6.15889
G1 X97.567 Y92.499 E6.19009
G1 X98.002 Y91.668 E6.22129
G1 X98.506 Y90.878 E6.25245
G1 X99.076 Y90.133 E6.28365
G0 F6000 X99.471 Y90.286
G1 F1200 X100.099 Y89.614 E6.31424
G1 X100.784 Y88.998 E6.34488
G1 X101.52 Y88.445 E6.3755
G1 X102.301 Y87.957 E6.40613
G1 X103.121 Y87.539 E6.43675
G1 X103.975 Y87.194 E6.46738
G1 X104.855 Y86.924 E6.498
G1 X105.755 Y86.732 E6.5286
G1 X106.669 Y86.618 E6.55924
G1 X107.222 Y86.588 E6.57766
G1 X107.543 Y86.579 E6.58834
G1 X107.84 Y86.575 E6.59822
G1 X111.783 Y86.575 E6.72936
G1 X112.633 Y86.586 E6.75764
G1 X113.552 Y86.639 E6.78825
G1 X114.463 Y86.772 E6.81887
G1 X115.359 Y86.983 E6.84949
G1 X116.233 Y87.271 E6.8801
G1 X117.08 Y87.634 E6.91075
G1 X117.891 Y88.069 E6.94136
G1 X118.661 Y88.573 E6.97197
G1 X119.385 Y89.142 E7.00259
G1 X120.057 Y89.772 E7.03323
G1 X120.672 Y90.457 E7.06385
G1 X121.225 Y91.193 E7.09447
G1 X121.712 Y91.974 E7.12508
G1 X122.129 Y92.795 E7.15571
G1 X122.474 Y93.649 E7.18634
G1 X122.743 Y94.529 E7.21695
G1 X122.935 Y95.43 E7.24759
G1 X123.048 Y96.343 E7.27819
G1 X123.077 Y96.887 E7.2963
G1 X123.086 Y97.207 E7.30695
G1 X123.09 Y97.505 E7.31686
G1 X123.089 Y151.541 E9.11411
G1 X123.08 Y152.268 E9.13829
G1 X123.029 Y153.187 E9.1689
G1 X122.898 Y154.099 E9.19955
G1 X122.688 Y154.995 E9.23016
G1 X122.402 Y155.87 E9.26077
G1 X122.041 Y156.717 E9.2914
G1 X121.607 Y157.529 E9.32202
G1 X121.105 Y158.301 E9.35265
G1 X120.537 Y159.026 E9.38328
G1 X119.909 Y159.699 E9.4139
G1 X119.225 Y160.315 E9.44451
G1 X118.49 Y160.869 E9.47513
G1 X117.71 Y161.358 E9.50575
G1 X116.89 Y161.777 E9.53637
G1 X116.037 Y162.123 E9.56699
G1 X115.157 Y162.394 E9.59761
G1 X114.257 Y162.587 E9.62823
G1 X113.343 Y162.702 E9.65887
G1 X112.778 Y162.733 E9.67769
G1 X112.457 Y162.742 E9.68837
G1 X112.16 Y162.746 E9.69825
G1 X108.08 Y162.745 E9.83395
G1 X107.382 Y162.736 E9.85717
G1 X106.463 Y162.684 E9.88778
G1 X105.552 Y162.553 E9.91839
G1 X104.656 Y162.343 E9.949
G1 X103.781 Y162.056 E9.97963
G1 X102.934 Y161.694 E10.01027
G1 X102.122 Y161.26 E10.04089
G1 X101.351 Y160.758 E10.07149
G1 X100.626 Y160.19 E10.10212
G1 X99.953 Y159.561 E10.13276
G1 X99.338 Y158.877 E10.16336
G1 X98.784 Y158.142 E10.19397
G1 X98.296 Y157.361 E10.2246
G1 X97.877 Y156.541 E10.25523
G1 X97.531 Y155.688 E10.28584
G1 X97.261 Y154.808 E10.31646
G1 X97.068 Y153.907 E10.3471
G1 X96.954 Y152.994 E10.37771
G1 X96.923 Y152.423 E10.39673
G1 X96.914 Y152.09 E10.40781
G1 X96.91 Y151.804 E10.41732
G1 X96.911 Y97.706 E12.21663
G1 X96.92 Y97.041 E12.23875
G1 X96.972 Y96.121 E12.26939
G1 X97.104 Y95.21 E12.30001
G1 X97.315 Y94.314 E12.33063
G1 X97.602 Y93.439 E12.36125
G1 X97.965 Y92.593 E12.39187
G1 X98.399 Y91.781 E12.4225
G1 X98.902 Y91.01 E12.45312
G1 X99.471 Y90.286 E12.48374
G0 F6000 X99.865 Y90.442
G1 F1200 X100.491 Y89.792 E12.51376
G1 X101.172 Y89.199 E12.54379
G1 X101.904 Y88.669 E12.57385
G1 X102.679 Y88.206 E12.60388
G1 X103.492 Y87.813 E12.63391
G1 X104.337 Y87.493 E12.66396
G1 X105.206 Y87.25 E12.69397
G1 X106.094 Y87.084 E12.72402
G1 X107.233 Y86.988 E12.76204
G1 X107.554 Y86.979 E12.77272
G1 X107.84 Y86.975 E12.78223
G1 X111.783 Y86.975 E12.91338
G1 X112.627 Y86.986 E12.94145
G1 X113.529 Y87.039 E12.9715
G1 X114.422 Y87.171 E13.00153
G1 X115.3 Y87.382 E13.03156
G1 X116.156 Y87.67 E13.0616
G1 X116.983 Y88.032 E13.09163
G1 X117.775 Y88.467 E13.12168
G1 X118.526 Y88.969 E13.15172
G1 X119.229 Y89.536 E13.18176
G1 X119.879 Y90.163 E13.2118
G1 X120.471 Y90.845 E13.24184
G1 X121.001 Y91.576 E13.27187
G1 X121.463 Y92.352 E13.30191
G1 X121.856 Y93.165 E13.33194
G1 X122.174 Y94.01 E13.36197
G1 X122.417 Y94.88 E13.39201
G1 X122.582 Y95.768 E13.42206
G1 X122.677 Y96.898 E13.45977
G1 X122.686 Y97.218 E13.47042
G1 X122.69 Y97.505 E13.47997
G1 X122.689 Y151.536 E15.27704
G1 X122.68 Y152.263 E15.30123
G1 X122.629 Y153.165 E15.33127
G1 X122.498 Y154.059 E15.36133
G1 X122.289 Y154.937 E15.39135
G1 X122.003 Y155.794 E15.42139
G1 X121.642 Y156.622 E15.45144
G1 X121.21 Y157.414 E15.48144
G1 X120.709 Y158.166 E15.5115
G1 X120.143 Y158.87 E15.54154
G1 X119.518 Y159.521 E15.57156
G1 X118.837 Y160.115 E15.60161
G1 X118.106 Y160.646 E15.63166
G1 X117.332 Y161.11 E15.66168
G1 X116.519 Y161.504 E15.69173
G1 X115.675 Y161.824 E15.72175
G1 X114.805 Y162.069 E15.75181
G1 X113.918 Y162.235 E15.78182
G1 X112.767 Y162.333 E15.82025
G1 X112.446 Y162.342 E15.83093
G1 X112.16 Y162.346 E15.84044
G1 X108.085 Y162.345 E15.97597
G1 X107.387 Y162.336 E15.99919
G1 X106.486 Y162.285 E16.02921
G1 X105.592 Y162.153 E16.05926
G1 X104.714 Y161.944 E16.08928
G1 X103.857 Y161.657 E16.11934
G1 X103.03 Y161.296 E16.14936
G1 X102.237 Y160.863 E16.17941
G1 X101.486 Y160.362 E16.20943
G1 X100.782 Y159.796 E16.23948
G1 X100.131 Y159.17 E16.26952
G1 X99.538 Y158.489 E16.29955
G1 X99.008 Y157.758 E16.32958
G1 X98.544 Y156.983 E16.35962
G1 X98.15 Y156.17 E16.38967
G1 X97.83 Y155.326 E16.41969
G1 X97.586 Y154.456 E16.44975
G1 X97.42 Y153.568 E16.47979
G1 X97.323 Y152.413 E16.51834
G1 X97.314 Y152.08 E16.52942
G1 X97.31 Y151.804 E16.5386
G1 X97.311 Y97.711 E18.33775
G1 X97.32 Y97.046 E18.35987
G1 X97.372 Y96.144 E18.38992
G1 X97.504 Y95.251 E18.41994
G1 X97.714 Y94.373 E18.44997
G1 X98.001 Y93.516 E18.48003
G1 X98.363 Y92.689 E18.51005
G1 X98.796 Y91.897 E18.54007
G1 X99.298 Y91.146 E18.57012
G1 X99.865 Y90.442 E18.60018
G1 F1500 E12.10018
;MESH:Middle_3_4.STL
G0 F6000 X106.845 Y97.589
G0 X107.924 Y97.589
G0 X108.41 Y125.261
;TYPE:WALL-INNER
G1 F1500 E18.60018
G1 F1200 X111.59 Y125.261 E18.70595
G1 X111.59 Y98.075 E19.61016
G1 X108.41 Y98.075 E19.71593
G1 X108.41 Y125.261 E20.62014
G0 F6000 X108.81 Y124.861
;TYPE:WALL-OUTER
G1 F1200 X111.19 Y124.861 E20.6993
G1 X111.19 Y98.475 E21.5769
G1 X108.81 Y98.475 E21.65606
G1 X108.81 Y124.861 E22.53366
G1 F1500 E16.03366
G0 F6000 X108.51 Y124.861
G0 X108.581 Y125.431
G0 X111.708 Y125.443
G0 X111.89 Y151.546
;TYPE:WALL-INNER
G1 F1500 E22.53366
G1 F1200 X108.11 Y151.546 E22.65938
G1 X108.11 Y125.261 E23.53363
G1 X108.11 Y98.075 E24.21348
G1 X108.11 Y97.775 E24.22346
G1 X108.41 Y97.775 E24.23344
G1 X111.59 Y97.775 E24.31296
G1 X111.89 Y97.775 E24.32294
G1 X111.89 Y98.075 E24.33292
G1 X111.89 Y125.261 E25.01278
G1 X111.89 Y151.546 E25.88702
G0 F6000 X112.29 Y151.946
;TYPE:WALL-OUTER
G1 F1200 X107.71 Y151.946 E26.03935
G1 X107.71 Y97.375 E27.85439
G1 X112.29 Y97.375 E28.00672
G1 X112.29 Y151.946 E29.82176
G0 F6000 X112.02 Y151.676
G0 X111.78 Y151.156
G0 X111.5 Y151.156
;TYPE:SKIN
G1 F1200 X108.5 Y151.156 E29.92154
G1 X108.5 Y125.651 E30.76984
G1 X111.5 Y125.651 E30.86962
G1 X111.5 Y151.156 E31.71792
G0 F6000 X111.78 Y151.156
G0 X109.134 Y151.436
G0 X109.134 Y150.995
G1 F1200 X108.659 Y150.52 E31.74026
G0 F6000 X108.659 Y149.954
G1 F1200 X109.7 Y150.995 E31.78923
G0 F6000 X110.266 Y150.995
G1 F1200 X108.659 Y149.389 E31.86479
G0 F6000 X108.659 Y148.823
G1 F1200 X110.831 Y150.995 E31.96696
G0 F6000 X111.34 Y150.938
G1 F1200 X108.659 Y148.257 E32.09306
G0 F6000 X108.659 Y147.691
G1 F1200 X111.34 Y150.372 E32.21917
G0 F6000 X111.34 Y149.806
G1 F1200 X108.659 Y147.126 E32.34525
G0 F6000 X108.659 Y146.56
G1 F1200 X111.34 Y149.241 E32.47136
G0 F6000 X111.34 Y148.675
G1 F1200 X108.659 Y145.994 E32.59746
G0 F6000 X108.659 Y145.429
G1 F1200 X111.34 Y148.109 E32.72355
G0 F6000 X111.34 Y147.544
G1 F1200 X108.659 Y144.863 E32.84965
G0 F6000 X108.659 Y144.297
G1 F1200 X111.34 Y146.978 E32.97576
G0 F6000 X111.34 Y146.412
G1 F1200 X108.659 Y143.732 E33.10184
G0 F6000 X108.659 Y143.166
G1 F1200 X111.34 Y145.847 E33.22795
G0 F6000 X111.34 Y145.281
G1 F1200 X108.659 Y142.6 E33.35405
G0 F6000 X108.659 Y142.035
G1 F1200 X111.34 Y144.715 E33.48014
G0 F6000 X111.34 Y144.15
G1 F1200 X108.659 Y141.469 E33.60624
G0 F6000 X108.659 Y140.903
G1 F1200 X111.34 Y143.584 E33.73235
G0 F6000 X111.34 Y143.018
G1 F1200 X108.659 Y140.338 E33.85843
G0 F6000 X108.659 Y139.772
G1 F1200 X111.34 Y142.453 E33.98454
G0 F6000 X111.34 Y141.887
G1 F1200 X108.659 Y139.206 E34.11064
G0 F6000 X108.659 Y138.641
G1 F1200 X111.34 Y141.321 E34.23672
G0 F6000 X111.34 Y140.755
G1 F1200 X108.659 Y138.075 E34.36281
G0 F6000 X108.659 Y137.509
G1 F1200 X111.34 Y140.19 E34.48891
G0 F6000 X111.34 Y139.624
G1 F1200 X108.659 Y136.943 E34.61502
G0 F6000 X108.659 Y136.378
G1 F1200 X111.34 Y139.058 E34.7411
G0 F6000 X111.34 Y138.493
G1 F1200 X108.659 Y135.812 E34.86721
G0 F6000 X108.659 Y135.246
G1 F1200 X111.34 Y137.927 E34.99331
G0 F6000 X111.34 Y137.361
G1 F1200 X108.659 Y134.681 E35.1194
G0 F6000 X108.659 Y134.115
G1 F1200 X111.34 Y136.796 E35.2455
G0 F6000 X111.34 Y136.23
G1 F1200 X108.659 Y133.549 E35.37161
G0 F6000 X108.659 Y132.984
G1 F1200 X111.34 Y135.664 E35.49769
G0 F6000 X111.34 Y135.099
G1 F1200 X108.659 Y132.418 E35.6238
G0 F6000 X108.659 Y131.852
G1 F1200 X111.34 Y134.533 E35.7499
G0 F6000 X111.34 Y133.967
G1 F1200 X108.659 Y131.287 E35.87599
G0 F6000 X108.659 Y130.721
G1 F1200 X111.34 Y133.402 E36.00209
G0 F6000 X111.34 Y132.836
G1 F1200 X108.659 Y130.155 E36.1282
G0 F6000 X108.659 Y129.59
G1 F1200 X111.34 Y132.27 E36.25428
G0 F6000 X111.34 Y131.705
G1 F1200 X108.659 Y129.024 E36.38039
G0 F6000 X108.659 Y128.458
G1 F1200 X111.34 Y131.139 E36.50649
G0 F6000 X111.34 Y130.573
G1 F1200 X108.659 Y127.892 E36.6326
G0 F6000 X108.659 Y127.327
G1 F1200 X111.34 Y130.007 E36.75868
G0 F6000 X111.34 Y129.442
G1 F1200 X108.659 Y126.761 E36.88479
G0 F6000 X108.659 Y126.195
G1 F1200 X111.34 Y128.876 E37.01089
G0 F6000 X111.34 Y128.31
G1 F1200 X108.839 Y125.81 E37.12851
G0 F6000 X109.405 Y125.81
G1 F1200 X111.34 Y127.745 E37.21952
G0 F6000 X111.34 Y127.179
G1 F1200 X109.971 Y125.81 E37.28392
G0 F6000 X110.537 Y125.81
G1 F1200 X111.34 Y126.613 E37.32169
G0 F6000 X111.34 Y126.048
G1 F1200 X111.102 Y125.81 E37.33288
G0 F6000 X111.102 Y125.461
;MESH:NONMESH
G0 F300 X111.102 Y125.461 Z0.4
G0 F6000 X111.102 Y125.371
G0 X108.41 Y125.261
;TIME_ELAPSED:68.429642
;LAYER:1
M106 S85
;TYPE:WALL-INNER
;MESH:Middle_3_4.STL
G1 F1350 X111.59 Y125.261 E37.43865
G1 X111.59 Y98.075 E38.34286
G1 X108.41 Y98.075 E38.44863
G1 X108.41 Y125.261 E39.35284
G0 F7500 X108.81 Y124.861
;TYPE:WALL-OUTER
G1 F1350 X111.19 Y124.861 E39.432
G1 X111.19 Y98.475 E40.3096
G1 X108.81 Y98.475 E40.38876
G1 X108.81 Y124.861 E41.26636
G1 F1500 E34.76636
G0 F7500 X108.51 Y124.861
G0 X108.581 Y125.431
G0 X111.708 Y125.443
G0 X111.89 Y151.546
;TYPE:WALL-INNER
G1 F1500 E41.26636
G1 F1350 X108.11 Y151.546 E41.39208
G1 X108.11 Y125.261 E42.26633
G1 X108.11 Y98.075 E42.94618
G1 X108.11 Y97.775 E42.95616
G1 X108.41 Y97.775 E42.96614
G1 X111.59 Y97.775 E43.04566
G1 X111.89 Y97.775 E43.05564
G1 X111.89 Y98.075 E43.06562
G1 X111.89 Y125.261 E43.74548
G1 X111.89 Y151.546 E44.61972
G0 F7500 X112.29 Y151.946
;TYPE:WALL-OUTER
G1 F1350 X107.71 Y151.946 E44.77205
G1 X107.71 Y97.375 E46.58709
G1 X112.29 Y97.375 E46.73942
G1 X112.29 Y151.946 E48.55446
G0 F7500 X112.02 Y151.676
G0 X111.78 Y151.156
G0 X111.5 Y151.156
;TYPE:SKIN
G1 F1350 X108.5 Y151.156 E48.65424
G1 X108.5 Y125.651 E49.50254
G1 X111.5 Y125.651 E49.60232
G1 X111.5 Y151.156 E50.45062
G0 F7500 X110.916 Y150.995
G1 F1350 X111.339 Y150.572 E50.47052
G0 F7500 X111.339 Y150.007
G1 F1350 X110.351 Y150.995 E50.51699
G0 F7500 X109.785 Y150.995
G1 F1350 X111.339 Y149.441 E50.59008
G0 F7500 X111.339 Y148.875
G1 F1350 X109.219 Y150.995 E50.6898
G0 F7500 X108.66 Y150.989
G1 F1350 X111.339 Y148.309 E50.81584
G0 F7500 X111.339 Y147.744
G1 F1350 X108.66 Y150.423 E50.94185
G0 F7500 X108.66 Y149.857
G1 F1350 X111.339 Y147.178 E51.06786
G0 F7500 X111.339 Y146.612
G1 F1350 X108.66 Y149.292 E51.1939
G0 F7500 X108.66 Y148.726
G1 F1350 X111.339 Y146.047 E51.31991
G0 F7500 X111.339 Y145.481
G1 F1350 X108.66 Y148.16 E51.44592
G0 F7500 X108.66 Y147.595
G1 F1350 X111.339 Y144.915 E51.57196
G0 F7500 X111.339 Y144.35
G1 F1350 X108.66 Y147.029 E51.69797
G0 F7500 X108.66 Y146.463
G1 F1350 X111.339 Y143.784 E51.82398
G0 F7500 X111.339 Y143.218
G1 F1350 X108.66 Y145.898 E51.95002
G0 F7500 X108.66 Y145.332
G1 F1350 X111.339 Y142.653 E52.07603
G0 F7500 X111.339 Y142.087
G1 F1350 X108.66 Y144.766 E52.20204
G0 F7500 X108.66 Y144.2
G1 F1350 X111.339 Y141.521 E52.32805
G0 F7500 X111.339 Y140.956
G1 F1350 X108.66 Y143.635 E52.45406
G0 F7500 X108.66 Y143.069
G1 F1350 X111.339 Y140.39 E52.58008
G0 F7500 X111.339 Y139.824
