;FLAVOR:Marlin
;TIME:19567
;Filament used: 12.8229m
;Layer height: 0.2
;MINX:81.9
;MINY:47.242
;MINZ:0.2
;MAXX:138
;MAXY:172.757
;MAXZ:55
;Generated with Cura_SteamEngine 4.8.0
M140 S60
M105
M190 S60
M104 S200
M105
M109 S200
M82 ;absolute extrusion mode
; Ender 3 Custom Start G-code
G92 E0 ; Reset Extruder
G28 ; Home all axes
G1 Z2.0 F3000 ; Move Z Axis up little to prevent scratching of Heat Bed
G1 X0.1 Y20 Z0.3 F5000.0 ; Move to start position
G1 X0.1 Y200.0 Z0.3 F1500.0 E15 ; Draw the first line
G1 X0.4 Y200.0 Z0.3 F5000.0 ; Move to side a little
G1 X0.4 Y20 Z0.3 F1500.0 E30 ; Draw the second line
G92 E0 ; Reset Extruder
G1 Z2.0 F3000 ; Move Z Axis up little to prevent scratching of Heat Bed
G1 X5 Y20 Z0.3 F5000.0 ; Move over to prevent blob squish
G92 E0
G92 E0
G1 F1500 E-6.5
;LAYER_COUNT:275
;LAYER:0
M107
G0 F6000 X83.492 Y52.723 Z0.2
;TYPE:SKIRT
G1 F1500 E0
G1 F1200 X83.996 Y51.933 E0.03117
G1 X84.566 Y51.188 E0.06237
G1 X85.198 Y50.494 E0.09359
G1 X85.886 Y49.857 E0.12477
G1 X86.626 Y49.281 E0.15596
G1 X87.412 Y48.769 E0.18716
G1 X88.239 Y48.327 E0.21835
G1 X89.101 Y47.957 E0.24955
G1 X89.991 Y47.661 E0.28074
G1 X90.903 Y47.443 E0.31193
G1 X91.83 Y47.302 E0.34312
G1 X92.766 Y47.242 E0.37431
G1 X93.61 Y47.255 E0.40239
G1 X96.28 Y47.366 E0.49127
G1 X98.763 Y47.4 E0.57386
G1 X100.549 Y47.401 E0.63327
G1 X101.252 Y47.411 E0.65665
G1 X102.189 Y47.464 E0.68786
G1 X103.117 Y47.597 E0.71905
G1 X104.031 Y47.809 E0.75025
G1 X104.923 Y48.097 E0.78143
G1 X105.788 Y48.461 E0.81264
G1 X106.618 Y48.897 E0.84382
G1 X107.409 Y49.402 E0.87504
G1 X108.153 Y49.972 E0.90621
G1 X109.008 Y50.768 E0.94507
G1 X109.318 Y51.091 E0.95996
G1 X110.742 Y52.62 E1.02945
G1 X112.499 Y54.404 E1.11273
G1 X114.306 Y56.137 E1.196
G1 X116.174 Y57.829 E1.27983
G1 X118.117 Y59.491 E1.36487
G1 X120.041 Y61.046 E1.44715
G1 X122.047 Y62.574 E1.53102
G1 X124.1 Y64.05 E1.61512
G1 X126.173 Y65.451 E1.69834
G1 X128.315 Y66.814 E1.78278
G1 X129.091 Y67.277 E1.81284
G1 X129.26 Y67.388 E1.81956
G1 X129.885 Y67.764 E1.84382
G1 X130.085 Y67.887 E1.85163
G1 X130.641 Y68.238 E1.8735
G1 X131.671 Y68.975 E1.91563
G1 X131.877 Y69.141 E1.92443
G1 X132.236 Y69.443 E1.94003
G1 X132.599 Y69.762 E1.9561
G1 X133.551 Y70.707 E2.00072
G1 X134.074 Y71.294 E2.02687
G1 X134.38 Y71.653 E2.04256
G1 X134.487 Y71.784 E2.04818
G1 X135.147 Y72.681 E2.08522
G1 X135.289 Y72.896 E2.09379
G1 X135.574 Y73.352 E2.11168
G1 X135.866 Y73.845 E2.13073
G1 X136.44 Y74.951 E2.17218
G1 X136.557 Y75.212 E2.18169
G1 X136.739 Y75.644 E2.19728
G1 X136.944 Y76.159 E2.21572
G1 X137.34 Y77.346 E2.25734
G1 X137.413 Y77.615 E2.26661
G1 X137.525 Y78.063 E2.28197
G1 X137.652 Y78.623 E2.30107
G1 X137.861 Y79.877 E2.34335
G1 X137.89 Y80.146 E2.35235
G1 X137.93 Y80.619 E2.36814
G1 X137.968 Y81.21 E2.38783
G1 X137.984 Y81.529 E2.39846
G1 X137.995 Y81.936 E2.412
G1 X138 Y82.418 E2.42803
G1 X137.999 Y137.549 E4.2617
G1 X137.989 Y138.254 E4.28515
G1 X137.973 Y138.708 E4.30026
G1 X137.955 Y139.032 E4.31105
G1 X137.926 Y139.429 E4.32429
G1 X137.878 Y139.951 E4.34172
G1 X137.692 Y141.191 E4.38343
G1 X137.639 Y141.445 E4.39206
G1 X137.527 Y141.927 E4.40852
G1 X137.381 Y142.497 E4.42809
G1 X137.023 Y143.635 E4.46777
G1 X136.931 Y143.88 E4.47647
G1 X136.728 Y144.383 E4.49451
G1 X136.499 Y144.912 E4.51368
G1 X135.957 Y145.995 E4.55396
G1 X135.812 Y146.249 E4.56369
G1 X135.56 Y146.668 E4.57995
G1 X135.262 Y147.14 E4.59852
G1 X134.522 Y148.175 E4.64084
G1 X134.355 Y148.382 E4.64968
G1 X134.057 Y148.736 E4.66507
G1 X133.738 Y149.099 E4.68115
G1 X132.793 Y150.051 E4.72576
G1 X132.206 Y150.574 E4.75191
G1 X131.815 Y150.906 E4.76897
G1 X131.683 Y151.013 E4.77462
G1 X130.808 Y151.653 E4.81068
G1 X130.594 Y151.794 E4.8192
G1 X130.157 Y152.068 E4.83636
G1 X129.311 Y152.57 E4.86908
G1 X127.042 Y153.959 E4.95756
G1 X124.973 Y155.307 E5.03969
G1 X122.867 Y156.766 E5.12491
G1 X120.862 Y158.24 E5.20767
G1 X118.865 Y159.798 E5.29192
G1 X116.96 Y161.373 E5.37413
G1 X115.033 Y163.061 E5.45933
G1 X113.196 Y164.762 E5.5426
G1 X111.42 Y166.505 E5.62537
G1 X109.378 Y168.629 E5.72337
G1 X109.049 Y168.983 E5.73944
G1 X108.381 Y169.642 E5.77065
G1 X107.66 Y170.241 E5.80183
G1 X106.89 Y170.777 E5.83303
G1 X106.078 Y171.246 E5.86422
G1 X105.228 Y171.643 E5.89542
G1 X104.348 Y171.967 E5.92661
G1 X103.444 Y172.215 E5.95779
G1 X102.521 Y172.384 E5.989
G1 X101.299 Y172.487 E6.02979
G1 X100.975 Y172.496 E6.04057
G1 X100.67 Y172.5 E6.05071
G1 X100.432 Y172.5 E6.05863
G1 X97.824 Y172.537 E6.14538
G1 X95.318 Y172.643 E6.2288
G1 X95.04 Y172.661 E6.23807
G1 X93.653 Y172.742 E6.28428
G1 X92.716 Y172.757 E6.31545
G1 X91.78 Y172.692 E6.34666
G1 X90.853 Y172.547 E6.37786
G1 X89.942 Y172.324 E6.40906
G1 X89.054 Y172.024 E6.44023
G1 X88.194 Y171.65 E6.47142
G1 X87.369 Y171.203 E6.50263
G1 X86.585 Y170.688 E6.53383
G1 X85.848 Y170.108 E6.56502
G1 X85.163 Y169.468 E6.5962
G1 X84.535 Y168.771 E6.62741
G1 X83.969 Y168.024 E6.65858
G1 X83.468 Y167.231 E6.68978
G1 X83.037 Y166.398 E6.72097
G1 X82.678 Y165.531 E6.75218
G1 X82.395 Y164.637 E6.78337
G1 X82.188 Y163.722 E6.81457
G1 X82.061 Y162.793 E6.84576
G1 X82.013 Y161.93 E6.87451
G1 X82 Y160.981 E6.90607
G1 X82 Y156.506 E7.05491
G1 X81.995 Y156.424 E7.05765
G1 X81.994 Y155.528 E7.08745
G1 X82 Y155.384 E7.09224
G1 X82.001 Y154.036 E7.13708
G1 X82.012 Y153.329 E7.16059
G1 X82.067 Y152.393 E7.19178
G1 X82.201 Y151.464 E7.223
G1 X82.414 Y150.551 E7.25418
G1 X82.703 Y149.659 E7.28537
G1 X83.055 Y148.822 E7.31557
G1 X83.455 Y147.971 E7.34684
G1 X84.5 Y145.657 E7.43129
G1 X85.488 Y143.296 E7.51641
G1 X86.391 Y140.948 E7.60009
G1 X87.22 Y138.599 E7.68294
G1 X87.994 Y136.193 E7.767
G1 X88.691 Y133.795 E7.85006
G1 X89.331 Y131.337 E7.93454
G1 X89.903 Y128.857 E8.01919
G1 X90.387 Y126.437 E8.10127
G1 X90.815 Y123.94 E8.18553
G1 X91.169 Y121.453 E8.26908
G1 X91.455 Y118.935 E8.35337
G1 X91.668 Y116.437 E8.43676
G1 X91.809 Y113.955 E8.51944
G1 X91.881 Y111.398 E8.60452
G1 X91.881 Y108.908 E8.68734
G1 X91.809 Y106.351 E8.77242
G1 X91.669 Y103.892 E8.85434
G1 X91.454 Y101.35 E8.93919
G1 X91.17 Y98.85 E9.02287
G1 X90.813 Y96.346 E9.107
G1 X90.396 Y93.911 E9.18917
G1 X89.889 Y91.386 E9.27482
G1 X89.341 Y88.995 E9.35641
G1 X88.702 Y86.542 E9.44072
G1 X87.99 Y84.089 E9.52568
G1 X87.227 Y81.718 E9.60852
G1 X86.383 Y79.328 E9.69282
G1 X85.491 Y77.011 E9.7754
G1 X84.501 Y74.645 E9.8607
G1 X83.463 Y72.346 E9.9446
G1 X83.037 Y71.455 E9.97745
G1 X82.863 Y71.072 E9.99144
G1 X82.812 Y70.954 E9.99572
G1 X82.477 Y70.078 E10.02691
G1 X82.217 Y69.177 E10.0581
G1 X82.036 Y68.257 E10.08928
G1 X81.913 Y66.899 E10.13464
G1 X81.904 Y66.579 E10.14528
G1 X81.9 Y66.27 E10.15556
G1 X81.901 Y64.983 E10.19837
G1 X81.912 Y64.172 E10.22535
G1 X82 Y60.044 E10.36267
G1 X82.001 Y58.755 E10.40555
G1 X82.01 Y58.09 E10.42767
G1 X82.063 Y57.154 E10.45885
G1 X82.195 Y56.225 E10.49006
G1 X82.406 Y55.311 E10.52126
G1 X82.694 Y54.419 E10.55243
G1 X83.057 Y53.554 E10.58363
G1 X83.492 Y52.723 E10.61483
G0 F6000 X83.889 Y52.836
G1 F1200 X84.392 Y52.065 E10.64545
G1 X84.961 Y51.341 E10.67608
G1 X85.589 Y50.669 E10.70667
G1 X86.274 Y50.053 E10.73731
G1 X87.01 Y49.5 E10.76793
G1 X87.791 Y49.012 E10.79856
G1 X88.611 Y48.594 E10.82917
G1 X89.465 Y48.249 E10.8598
G1 X90.345 Y47.979 E10.89042
G1 X91.245 Y47.787 E10.92103
G1 X92.159 Y47.673 E10.95166
G1 X93.079 Y47.639 E10.98228
G1 X93.629 Y47.657 E11.00059
G1 X96.257 Y47.766 E11.08807
G1 X98.758 Y47.8 E11.17126
G1 X100.544 Y47.801 E11.23066
G1 X101.247 Y47.811 E11.25405
G1 X102.166 Y47.864 E11.28466
G1 X103.077 Y47.997 E11.31528
G1 X103.973 Y48.208 E11.3459
G1 X104.847 Y48.496 E11.37651
G1 X105.694 Y48.859 E11.40716
G1 X106.505 Y49.294 E11.43777
G1 X107.276 Y49.798 E11.4684
G1 X108 Y50.366 E11.49901
G1 X108.72 Y51.046 E11.53195
G1 X109.025 Y51.364 E11.5466
G1 X110.447 Y52.891 E11.616
G1 X112.22 Y54.691 E11.70004
G1 X114.043 Y56.439 E11.78404
G1 X115.891 Y58.114 E11.867
G1 X117.852 Y59.791 E11.95282
G1 X119.81 Y61.373 E12.03654
G1 X121.799 Y62.889 E12.11972
G1 X123.865 Y64.373 E12.20432
G1 X125.98 Y65.804 E12.28926
G1 X128.1 Y67.152 E12.37282
G1 X128.886 Y67.621 E12.40326
G1 X129.048 Y67.727 E12.4097
G1 X129.679 Y68.107 E12.4342
G1 X129.872 Y68.226 E12.44174
G1 X130.428 Y68.577 E12.46361
G1 X131.42 Y69.286 E12.50416
G1 X131.626 Y69.452 E12.51296
G1 X131.972 Y69.744 E12.52802
G1 X132.335 Y70.063 E12.54409
G1 X133.252 Y70.974 E12.58709
G1 X133.775 Y71.561 E12.61323
G1 X134.071 Y71.907 E12.62838
G1 X134.178 Y72.038 E12.634
G1 X134.813 Y72.901 E12.66964
G1 X134.955 Y73.116 E12.67821
G1 X135.23 Y73.556 E12.69547
G1 X135.522 Y74.049 E12.71453
G1 X136.075 Y75.115 E12.75447
G1 X136.192 Y75.376 E12.76398
G1 X136.367 Y75.792 E12.77899
G1 X136.572 Y76.307 E12.79743
G1 X136.954 Y77.451 E12.83754
G1 X137.027 Y77.72 E12.84681
G1 X137.134 Y78.152 E12.86162
G1 X137.261 Y78.712 E12.88072
G1 X137.463 Y79.92 E12.92145
G1 X137.492 Y80.189 E12.93045
G1 X137.531 Y80.645 E12.94567
G1 X137.569 Y81.236 E12.96537
G1 X137.589 Y81.685 E12.98032
G1 X137.595 Y81.94 E12.9888
G1 X137.6 Y82.418 E13.0047
G1 X137.599 Y137.543 E14.83817
G1 X137.589 Y138.248 E14.86162
G1 X137.574 Y138.686 E14.87619
G1 X137.556 Y139.01 E14.88699
G1 X137.527 Y139.393 E14.89976
G1 X137.479 Y139.915 E14.9172
G1 X137.301 Y141.109 E14.95735
G1 X137.248 Y141.363 E14.96598
G1 X137.14 Y141.828 E14.98186
G1 X136.994 Y142.398 E15.00143
G1 X136.648 Y143.494 E15.03965
G1 X136.556 Y143.739 E15.04836
G1 X136.361 Y144.224 E15.06574
G1 X136.132 Y144.753 E15.08491
G1 X135.61 Y145.797 E15.12374
G1 X135.465 Y146.051 E15.13346
G1 X135.222 Y146.455 E15.14915
G1 X134.924 Y146.927 E15.16771
G1 X134.211 Y147.924 E15.20848
G1 X134.044 Y148.131 E15.21732
G1 X133.756 Y148.472 E15.23217
G1 X133.437 Y148.835 E15.24824
G1 X132.526 Y149.752 E15.29123
G1 X131.939 Y150.275 E15.31738
G1 X131.563 Y150.595 E15.33381
G1 X131.431 Y150.702 E15.33946
G1 X130.588 Y151.319 E15.3742
G1 X130.374 Y151.46 E15.38273
G1 X129.953 Y151.724 E15.39925
G1 X129.049 Y152.261 E15.43423
G1 X126.862 Y153.599 E15.5195
G1 X124.733 Y154.987 E15.60403
G1 X122.648 Y156.431 E15.68839
G1 X120.625 Y157.919 E15.77191
G1 X118.61 Y159.491 E15.85691
G1 X116.692 Y161.076 E15.93967
G1 X114.761 Y162.767 E16.02504
G1 X112.927 Y164.465 E16.10817
G1 X111.117 Y166.242 E16.19253
G1 X109.109 Y168.33 E16.28888
G1 X108.756 Y168.71 E16.30613
G1 X108.1 Y169.356 E16.33676
G1 X107.391 Y169.943 E16.36737
G1 X106.633 Y170.467 E16.39802
G1 X105.833 Y170.922 E16.42863
G1 X104.996 Y171.306 E16.45926
G1 X104.13 Y171.617 E16.48986
G1 X103.239 Y171.851 E16.5205
G1 X102.332 Y172.006 E16.55111
G1 X101.288 Y172.087 E16.58594
G1 X100.964 Y172.096 E16.59672
G1 X100.67 Y172.1 E16.6065
G1 X100.426 Y172.1 E16.61461
G1 X97.801 Y172.137 E16.70193
G1 X95.311 Y172.243 E16.78482
G1 X95.017 Y172.262 E16.79462
G1 X93.63 Y172.343 E16.84083
G1 X92.709 Y172.357 E16.87147
G1 X91.791 Y172.29 E16.90208
G1 X90.882 Y172.145 E16.93269
G1 X89.989 Y171.921 E16.96332
G1 X89.119 Y171.62 E16.99394
G1 X88.278 Y171.245 E17.02456
G1 X87.473 Y170.799 E17.05517
G1 X86.71 Y170.284 E17.08579
G1 X85.994 Y169.705 E17.11641
G1 X85.331 Y169.066 E17.14704
G1 X84.726 Y168.372 E17.17766
G1 X84.184 Y167.628 E17.20828
G1 X83.708 Y166.84 E17.2389
G1 X83.302 Y166.013 E17.26954
G1 X82.97 Y165.155 E17.30014
G1 X82.713 Y164.271 E17.33076
G1 X82.534 Y163.368 E17.36138
G1 X82.435 Y162.452 E17.39202
G1 X82.413 Y161.924 E17.4096
G1 X82.4 Y160.981 E17.44096
G1 X82.4 Y156.528 E17.58907
G1 X82.395 Y156.424 E17.59254
G1 X82.394 Y155.528 E17.62234
G1 X82.4 Y155.386 E17.62706
G1 X82.401 Y154.042 E17.67177
G1 X82.412 Y153.335 E17.69528
G1 X82.467 Y152.416 E17.7259
G1 X82.6 Y151.505 E17.75652
G1 X82.813 Y150.609 E17.78716
G1 X83.102 Y149.735 E17.81777
G1 X83.417 Y148.992 E17.84462
G1 X83.81 Y148.155 E17.87537
G1 X84.875 Y145.797 E17.96143
G1 X85.871 Y143.416 E18.04727
G1 X86.758 Y141.109 E18.12947
G1 X87.602 Y138.718 E18.21381
G1 X88.376 Y136.312 E18.29787
G1 X89.076 Y133.903 E18.38131
G1 X89.72 Y131.43 E18.4663
G1 X90.291 Y128.952 E18.55088
G1 X90.78 Y126.511 E18.63368
G1 X91.212 Y123.992 E18.71869
G1 X91.569 Y121.483 E18.80298
G1 X91.849 Y119.013 E18.88566
G1 X92.067 Y116.457 E18.97098
G1 X92.209 Y113.955 E19.05433
G1 X92.281 Y111.409 E19.13904
G1 X92.281 Y108.897 E19.22259
G1 X92.209 Y106.353 E19.30724
G1 X92.066 Y103.834 E19.39116
G1 X91.852 Y101.307 E19.47551
G1 X91.569 Y98.815 E19.55893
G1 X91.211 Y96.299 E19.64345
G1 X90.782 Y93.796 E19.72791
G1 X90.293 Y91.359 E19.81059
G1 X89.723 Y88.877 E19.89529
G1 X89.079 Y86.401 E19.98038
G1 X88.379 Y83.992 E20.06382
G1 X87.613 Y81.61 E20.14704
G1 X86.762 Y79.199 E20.23208
G1 X85.852 Y76.837 E20.31627
G1 X84.876 Y74.505 E20.40035
G1 X83.814 Y72.151 E20.48624
G1 X83.398 Y71.282 E20.51828
G1 X83.23 Y70.913 E20.53177
G1 X83.179 Y70.795 E20.53605
G1 X82.851 Y69.935 E20.56666
G1 X82.598 Y69.05 E20.59727
G1 X82.424 Y68.146 E20.62789
G1 X82.313 Y66.888 E20.6699
G1 X82.304 Y66.568 E20.68054
G1 X82.3 Y66.27 E20.69046
G1 X82.301 Y64.988 E20.7331
G1 X82.312 Y64.18 E20.75997
G1 X82.4 Y60.052 E20.8973
G1 X82.401 Y58.761 E20.94024
G1 X82.41 Y58.096 E20.96236
G1 X82.462 Y57.176 E20.99301
G1 X82.594 Y56.265 E21.02362
G1 X82.805 Y55.369 E21.05424
G1 X83.092 Y54.494 E21.08487
G1 X83.455 Y53.648 E21.11549
G1 X83.889 Y52.836 E21.14611
G0 F6000 X84.286 Y52.952
G1 F1200 X84.788 Y52.201 E21.17616
G1 X85.355 Y51.497 E21.20622
G1 X85.981 Y50.847 E21.23624
G1 X86.662 Y50.254 E21.26627
G1 X87.394 Y49.724 E21.29633
G1 X88.169 Y49.261 E21.32635
G1 X88.982 Y48.868 E21.35639
G1 X89.827 Y48.548 E21.38644
G1 X90.696 Y48.305 E21.41645
G1 X91.584 Y48.139 E21.4465
G1 X92.483 Y48.053 E21.47654
G1 X93.566 Y48.054 E21.51256
G1 X96.236 Y48.166 E21.60144
G1 X98.752 Y48.2 E21.68513
G1 X100.538 Y48.201 E21.74453
G1 X101.241 Y48.211 E21.76792
G1 X102.143 Y48.264 E21.79797
G1 X103.036 Y48.396 E21.82799
G1 X103.914 Y48.607 E21.85803
G1 X104.77 Y48.895 E21.88807
G1 X105.597 Y49.257 E21.91809
G1 X106.389 Y49.691 E21.94813
G1 X107.14 Y50.193 E21.97817
G1 X107.843 Y50.76 E22.00821
G1 X108.432 Y51.324 E22.03534
G1 X108.732 Y51.636 E22.04973
G1 X110.151 Y53.161 E22.11902
G1 X111.941 Y54.977 E22.20383
G1 X113.763 Y56.724 E22.28778
G1 X115.646 Y58.43 E22.37229
G1 X117.603 Y60.104 E22.45795
G1 X119.544 Y61.673 E22.54096
G1 X121.586 Y63.229 E22.62635
G1 X123.613 Y64.685 E22.70936
G1 X125.763 Y66.139 E22.79568
G1 X127.886 Y67.49 E22.87938
G1 X128.681 Y67.964 E22.91016
G1 X128.847 Y68.073 E22.91677
G1 X129.473 Y68.45 E22.94107
G1 X129.658 Y68.564 E22.9483
G1 X130.214 Y68.915 E22.97017
G1 X131.169 Y69.598 E23.00922
G1 X131.375 Y69.764 E23.01802
G1 X131.708 Y70.044 E23.03249
G1 X132.071 Y70.363 E23.04856
G1 X132.954 Y71.24 E23.08996
G1 X133.477 Y71.827 E23.11611
G1 X133.761 Y72.16 E23.13066
G1 X133.868 Y72.291 E23.13629
G1 X134.479 Y73.122 E23.17059
G1 X134.621 Y73.337 E23.17916
G1 X134.886 Y73.76 E23.19577
G1 X135.178 Y74.253 E23.21482
G1 X135.71 Y75.279 E23.25326
G1 X135.827 Y75.54 E23.26278
G1 X135.996 Y75.94 E23.27722
G1 X136.201 Y76.455 E23.29565
G1 X136.568 Y77.556 E23.33425
G1 X136.641 Y77.825 E23.34353
G1 X136.744 Y78.24 E23.35775
G1 X136.871 Y78.8 E23.37685
G1 X137.065 Y79.963 E23.41606
G1 X137.094 Y80.232 E23.42506
G1 X137.132 Y80.671 E23.43972
G1 X137.17 Y81.262 E23.45941
G1 X137.185 Y81.557 E23.46924
G1 X137.195 Y81.945 E23.48215
G1 X137.2 Y82.418 E23.49788
G1 X137.199 Y137.538 E25.33118
G1 X137.189 Y138.243 E25.35463
G1 X137.174 Y138.664 E25.36864
G1 X137.156 Y138.988 E25.37943
G1 X137.129 Y139.356 E25.39171
G1 X137.081 Y139.878 E25.40914
G1 X136.909 Y141.027 E25.44778
G1 X136.856 Y141.281 E25.45641
G1 X136.752 Y141.729 E25.47171
G1 X136.606 Y142.299 E25.49128
