;FLAVOR:Marlin
;TIME:11373
;Filament used: 6.74843m
;Layer height: 0.2
;MINX:78.627
;MINY:36.015
;MINZ:0.2
;MAXX:138.603
;MAXY:183.987
;MAXZ:30
;Generated with Cura_SteamEngine 4.8.0
M140 S60
M105
M190 S60
M104 S200
M105
M109 S200
M82 ;absolute extrusion mode
; Ender 3 Custom Start G-code
G92 E0 ; Reset Extruder
G28 ; Home all axes
G1 Z2.0 F3000 ; Move Z Axis up little to prevent scratching of Heat Bed
G1 X0.1 Y20 Z0.3 F5000.0 ; Move to start position
G1 X0.1 Y200.0 Z0.3 F1500.0 E15 ; Draw the first line
G1 X0.4 Y200.0 Z0.3 F5000.0 ; Move to side a little
G1 X0.4 Y20 Z0.3 F1500.0 E30 ; Draw the second line
G92 E0 ; Reset Extruder
G1 Z2.0 F3000 ; Move Z Axis up little to prevent scratching of Heat Bed
G1 X5 Y20 Z0.3 F5000.0 ; Move over to prevent blob squish
G92 E0
G92 E0
G1 F1500 E-6.5
;LAYER_COUNT:150
;LAYER:0
M107
G0 F6000 X80.063 Y42.316 Z0.2
;TYPE:SKIRT
G1 F1500 E0
G1 F1200 X80.499 Y41.486 E0.03118
G1 X81.005 Y40.696 E0.06239
G1 X81.576 Y39.952 E0.09358
G1 X82.208 Y39.259 E0.12477
G1 X82.897 Y38.622 E0.15598
G1 X83.637 Y38.047 E0.18715
G1 X84.424 Y37.537 E0.21834
G1 X85.252 Y37.095 E0.24956
G1 X86.114 Y36.726 E0.28075
G1 X87.004 Y36.432 E0.31192
G1 X87.917 Y36.214 E0.34314
G1 X88.844 Y36.075 E0.37432
G1 X89.78 Y36.015 E0.40552
G1 X90.358 Y36.019 E0.42474
G1 X91.48 Y36.056 E0.46208
G1 X109.889 Y36.985 E1.07514
G1 X110.711 Y37.038 E1.10254
G1 X111.643 Y37.139 E1.13372
G1 X112.563 Y37.319 E1.1649
G1 X113.465 Y37.577 E1.1961
G1 X114.341 Y37.911 E1.22729
G1 X115.186 Y38.319 E1.25849
G1 X115.993 Y38.797 E1.28969
G1 X116.757 Y39.341 E1.32089
G1 X117.471 Y39.949 E1.35208
G1 X118.13 Y40.616 E1.38326
G1 X118.731 Y41.336 E1.41446
G1 X119.268 Y42.105 E1.44565
G1 X119.738 Y42.917 E1.47686
G1 X120.137 Y43.766 E1.50806
G1 X120.462 Y44.646 E1.53926
G1 X120.71 Y45.55 E1.57044
G1 X120.881 Y46.472 E1.60163
G1 X120.987 Y47.747 E1.64418
G1 X121.06 Y50.751 E1.74412
G1 X121.192 Y53.245 E1.82719
G1 X121.4 Y55.795 E1.91228
G1 X121.673 Y58.278 E1.99537
G1 X122.02 Y60.788 E2.07964
G1 X122.432 Y63.243 E2.16244
G1 X122.922 Y65.735 E2.24691
G1 X123.472 Y68.16 E2.32961
G1 X124.102 Y70.619 E2.41404
G1 X124.799 Y73.047 E2.49806
G1 X125.562 Y75.451 E2.58195
G1 X126.387 Y77.815 E2.66523
G1 X127.276 Y80.147 E2.74823
G1 X128.237 Y82.471 E2.83188
G1 X129.288 Y84.819 E2.91744
G1 X130.368 Y87.064 E3.0003
G1 X131.503 Y89.255 E3.08237
G1 X132.754 Y91.518 E3.16837
G1 X134.02 Y93.661 E3.25116
G1 X134.588 Y94.562 E3.28658
G1 X134.685 Y94.732 E3.29309
G1 X135.333 Y95.766 E3.33368
G1 X135.796 Y96.581 E3.36485
G1 X136.189 Y97.433 E3.39606
G1 X136.42 Y98.05 E3.41797
G1 X136.625 Y98.65 E3.43906
G1 X136.721 Y98.944 E3.44935
G1 X136.857 Y99.382 E3.4646
G1 X137.097 Y100.289 E3.49581
G1 X137.213 Y100.903 E3.51659
G1 X137.344 Y101.723 E3.54421
G1 X137.806 Y104.369 E3.63355
G1 X138.328 Y106.921 E3.72019
G1 X138.357 Y107.053 E3.72468
G1 X138.519 Y107.977 E3.75588
G1 X138.601 Y108.911 E3.78707
G1 X138.603 Y109.849 E3.81826
G1 X138.525 Y110.784 E3.84947
G1 X138.369 Y111.709 E3.88067
G1 X138.174 Y112.481 E3.90715
G1 X137.457 Y114.946 E3.99254
G1 X136.817 Y117.405 E4.07705
G1 X136.402 Y119.174 E4.13748
G1 X136.167 Y120.229 E4.17343
G1 X136.092 Y120.543 E4.18417
G1 X135.927 Y121.193 E4.20648
G1 X135.69 Y122.154 E4.2394
G1 X135.535 Y122.795 E4.26133
G1 X135.363 Y123.424 E4.28302
G1 X135.132 Y124.18 E4.30931
G1 X135.027 Y124.504 E4.32064
G1 X134.903 Y124.869 E4.33346
G1 X134.564 Y125.744 E4.36467
G1 X134.009 Y126.841 E4.40556
G1 X133.542 Y127.648 E4.43657
G1 X133.07 Y128.435 E4.4671
G1 X131.829 Y130.639 E4.55122
G1 X130.659 Y132.86 E4.63472
G1 X129.554 Y135.111 E4.71812
G1 X128.505 Y137.41 E4.80217
G1 X127.519 Y139.741 E4.88635
G1 X126.597 Y142.106 E4.97077
G1 X125.757 Y144.46 E5.0539
G1 X124.99 Y146.815 E5.13628
G1 X124.266 Y149.268 E5.22135
G1 X123.628 Y151.682 E5.30439
G1 X123.053 Y154.138 E5.38829
G1 X122.542 Y156.628 E5.47283
G1 X122.111 Y159.095 E5.55613
G1 X121.751 Y161.555 E5.63882
G1 X121.456 Y164.065 E5.72288
G1 X121.231 Y166.593 E5.80729
G1 X121.08 Y169.088 E5.89043
G1 X120.991 Y172.004 E5.98746
G1 X120.987 Y172.205 E5.99415
G1 X120.928 Y173.141 E6.02534
G1 X120.79 Y174.069 E6.05654
G1 X120.573 Y174.981 E6.08772
G1 X120.28 Y175.872 E6.11892
G1 X119.911 Y176.734 E6.15011
G1 X119.471 Y177.562 E6.18129
G1 X118.961 Y178.35 E6.21251
G1 X118.387 Y179.091 E6.24369
G1 X117.751 Y179.78 E6.27488
G1 X117.059 Y180.413 E6.30607
G1 X116.315 Y180.985 E6.33728
G1 X115.526 Y181.491 E6.36846
G1 X114.696 Y181.928 E6.39966
G1 X113.832 Y182.293 E6.43085
G1 X112.94 Y182.583 E6.46205
G1 X112.027 Y182.796 E6.49323
G1 X110.948 Y182.944 E6.52945
G1 X110.788 Y182.958 E6.5348
G1 X110.488 Y182.98 E6.5448
G1 X110.034 Y183.007 E6.55993
G1 X91.256 Y183.956 E7.18528
G1 X90.403 Y183.987 E7.21367
G1 X89.465 Y183.98 E7.24487
G1 X88.531 Y183.893 E7.27607
G1 X87.608 Y183.727 E7.30726
G1 X86.703 Y183.483 E7.33844
G1 X85.821 Y183.162 E7.36966
G1 X84.97 Y182.768 E7.40085
G1 X84.156 Y182.302 E7.43204
G1 X83.384 Y181.769 E7.46324
G1 X82.661 Y181.172 E7.49443
G1 X81.991 Y180.516 E7.52562
G1 X81.379 Y179.805 E7.55682
G1 X80.831 Y179.045 E7.58798
G1 X80.349 Y178.24 E7.61919
G1 X79.937 Y177.397 E7.6504
G1 X79.598 Y176.523 E7.68158
G1 X79.336 Y175.622 E7.71279
G1 X79.151 Y174.703 E7.74396
G1 X79.044 Y173.771 E7.77517
G1 X79.019 Y173.197 E7.79428
G1 X79.002 Y172.276 E7.82491
G1 X79 Y172.073 E7.83167
G1 X79 Y169.821 E7.90657
G1 X78.963 Y167.212 E7.99335
G1 X78.857 Y164.705 E8.07681
G1 X78.684 Y162.254 E8.15853
G1 X78.665 Y162.022 E8.16628
G1 X78.627 Y161.085 E8.19747
G1 X78.669 Y160.148 E8.22866
G1 X78.736 Y159.557 E8.24844
G1 X78.763 Y159.367 E8.25483
G1 X78.858 Y158.785 E8.27444
G1 X78.975 Y158.13 E8.29657
G1 X79.493 Y154.931 E8.40436
G1 X79.561 Y154.459 E8.42022
G1 X80.16 Y150.44 E8.55537
G1 X80.466 Y147.92 E8.6398
G1 X80.702 Y145.386 E8.72444
G1 X80.86 Y142.923 E8.80653
G1 X80.951 Y140.39 E8.89083
G1 X80.971 Y137.866 E8.97479
G1 X80.919 Y135.343 E9.05872
G1 X80.796 Y132.822 E9.14267
G1 X80.604 Y130.345 E9.2253
G1 X80.339 Y127.839 E9.30911
G1 X79.838 Y124.266 E9.42912
G1 X79.771 Y123.845 E9.44329
G1 X79.664 Y122.913 E9.4745
G1 X79.637 Y121.976 E9.50567
G1 X79.661 Y121.381 E9.52548
G1 X79.7 Y120.801 E9.54481
G1 X79.839 Y118.19 E9.63178
G1 X79.901 Y115.667 E9.71572
G1 X79.893 Y113.172 E9.7987
G1 X79.812 Y110.62 E9.88363
G1 X79.786 Y110.168 E9.89869
G1 X79.733 Y109.01 E9.93724
G1 X79.727 Y108.142 E9.96611
G1 X79.799 Y105.284 E10.0612
G1 X79.79 Y102.765 E10.14498
G1 X79.709 Y100.277 E10.22778
G1 X79.556 Y97.745 E10.31214
G1 X79.334 Y95.245 E10.39562
G1 X79.038 Y92.724 E10.48005
G1 X78.871 Y91.572 E10.51876
G1 X78.769 Y90.801 E10.54463
G1 X78.686 Y89.867 E10.57582
G1 X78.675 Y89.242 E10.59661
G1 X78.689 Y87.946 E10.63972
G1 X78.697 Y87.611 E10.65086
G1 X78.701 Y86.094 E10.70132
G1 X78.694 Y84.944 E10.73957
G1 X78.727 Y84.026 E10.77012
G1 X78.775 Y83.422 E10.79027
G1 X78.952 Y81.519 E10.85384
G1 X79.112 Y79.029 E10.93683
G1 X79.203 Y76.508 E11.02073
G1 X79.223 Y73.977 E11.10492
G1 X79.173 Y71.495 E11.18748
G1 X79.15 Y70.795 E11.21078
G1 X79.179 Y69.548 E11.25227
G1 X79.258 Y68.568 E11.28497
G1 X79.426 Y66.016 E11.37003
G1 X79.521 Y63.492 E11.45404
G1 X79.544 Y61.001 E11.53689
G1 X79.496 Y58.472 E11.62102
G1 X79.376 Y55.932 E11.7056
G1 X79.159 Y53.113 E11.79963
G1 X79.056 Y51.992 E11.83708
G1 X79.018 Y51.394 E11.85701
G1 X79.005 Y50.948 E11.87185
G1 X79 Y50.468 E11.88781
G1 X79.001 Y47.53 E11.98553
G1 X79.011 Y46.851 E12.00812
G1 X79.065 Y45.915 E12.0393
G1 X79.198 Y44.986 E12.07051
G1 X79.41 Y44.073 E12.10169
G1 X79.699 Y43.18 E12.13291
G1 X80.063 Y42.316 E12.16409
G0 F6000 X80.461 Y42.411
G1 F1200 X80.897 Y41.599 E12.19474
G1 X81.401 Y40.829 E12.22535
G1 X81.97 Y40.105 E12.25598
G1 X82.6 Y39.434 E12.28659
G1 X83.285 Y38.819 E12.31721
G1 X84.022 Y38.267 E12.34784
G1 X84.803 Y37.78 E12.37845
G1 X85.624 Y37.363 E12.40908
G1 X86.478 Y37.019 E12.4397
G1 X87.358 Y36.75 E12.4703
G1 X88.259 Y36.559 E12.50094
G1 X89.173 Y36.446 E12.53157
G1 X90.345 Y36.418 E12.57056
G1 X91.46 Y36.455 E12.60766
G1 X109.869 Y37.384 E13.22073
G1 X110.684 Y37.437 E13.24789
G1 X111.6 Y37.537 E13.27854
G1 X112.503 Y37.716 E13.30916
G1 X113.387 Y37.973 E13.33978
G1 X114.245 Y38.306 E13.37039
G1 X115.072 Y38.711 E13.40102
G1 X115.86 Y39.187 E13.43164
G1 X116.603 Y39.73 E13.46225
G1 X117.297 Y40.335 E13.49287
G1 X117.936 Y40.998 E13.52349
G1 X118.515 Y41.714 E13.55412
G1 X119.029 Y42.478 E13.58475
G1 X119.476 Y43.283 E13.61537
G1 X119.85 Y44.124 E13.64598
G1 X120.151 Y44.994 E13.6766
G1 X120.374 Y45.887 E13.70722
G1 X120.52 Y46.796 E13.73784
G1 X120.587 Y47.757 E13.76988
G1 X120.66 Y50.781 E13.87049
G1 X120.794 Y53.289 E13.95402
G1 X120.999 Y55.805 E14.03798
G1 X121.278 Y58.34 E14.12281
G1 X121.622 Y60.83 E14.20641
G1 X122.04 Y63.321 E14.29042
G1 X122.532 Y65.822 E14.3752
G1 X123.088 Y68.276 E14.45889
G1 X123.715 Y70.723 E14.5429
G1 X124.409 Y73.141 E14.62657
G1 X125.18 Y75.567 E14.71124
G1 X126.012 Y77.953 E14.79528
G1 X126.904 Y80.294 E14.87861
G1 X127.886 Y82.668 E14.96405
G1 X128.906 Y84.947 E15.0471
G1 X130.017 Y87.256 E15.13233
G1 X131.17 Y89.483 E15.21573
G1 X132.372 Y91.657 E15.29836
G1 X133.681 Y93.871 E15.3839
G1 X134.25 Y94.775 E15.41943
G1 X134.348 Y94.946 E15.42599
G1 X134.994 Y95.978 E15.46648
G1 X135.448 Y96.779 E15.4971
G1 X135.831 Y97.616 E15.52772
G1 X136.042 Y98.179 E15.54772
G1 X136.247 Y98.779 E15.56881
G1 X136.339 Y99.063 E15.57873
G1 X136.475 Y99.501 E15.59399
G1 X136.71 Y100.391 E15.6246
G1 X136.818 Y100.966 E15.64406
G1 X136.95 Y101.792 E15.67188
G1 X137.415 Y104.453 E15.76173
G1 X137.937 Y107.008 E15.84847
G1 X137.966 Y107.139 E15.85293
G1 X138.124 Y108.046 E15.88355
G1 X138.203 Y108.963 E15.91416
G1 X138.201 Y109.884 E15.9448
G1 X138.12 Y110.801 E15.97541
G1 X137.959 Y111.707 E16.00602
G1 X137.79 Y112.369 E16.02874
G1 X137.074 Y114.83 E16.11399
G1 X136.431 Y117.301 E16.19891
G1 X135.985 Y119.203 E16.26389
G1 X135.776 Y120.142 E16.29589
G1 X135.704 Y120.445 E16.30624
G1 X135.556 Y121.03 E16.32631
G1 X135.301 Y122.058 E16.36154
G1 X135.146 Y122.701 E16.38354
G1 X134.98 Y123.308 E16.40447
G1 X134.749 Y124.064 E16.43076
G1 X134.649 Y124.376 E16.44166
G1 X134.525 Y124.741 E16.45448
G1 X134.191 Y125.599 E16.48511
G1 X133.663 Y126.64 E16.52393
G1 X133.196 Y127.447 E16.55494
G1 X132.721 Y128.238 E16.58563
G1 X131.481 Y130.441 E16.66971
G1 X130.312 Y132.66 E16.75313
G1 X129.189 Y134.948 E16.8379
G1 X128.13 Y137.267 E16.92269
G1 X127.154 Y139.576 E17.00607
G1 X126.219 Y141.973 E17.09164
G1 X125.386 Y144.307 E17.17407
G1 X124.602 Y146.716 E17.25833
G1 X123.881 Y149.159 E17.34305
G1 X123.238 Y151.594 E17.42681
G1 X122.665 Y154.038 E17.5103
G1 X122.15 Y156.55 E17.59559
G1 X121.719 Y159.012 E17.67872
G1 X121.353 Y161.522 E17.76309
G1 X121.055 Y164.055 E17.84792
G1 X120.834 Y166.535 E17.93073
G1 X120.68 Y169.085 E18.0157
G1 X120.591 Y171.996 E18.11256
G1 X120.587 Y172.197 E18.11925
G1 X120.529 Y173.116 E18.14988
G1 X120.391 Y174.026 E18.18049
G1 X120.175 Y174.921 E18.21111
G1 X119.882 Y175.794 E18.24174
G1 X119.514 Y176.638 E18.27236
G1 X119.074 Y177.447 E18.30299
G1 X118.566 Y178.214 E18.33359
G1 X117.993 Y178.935 E18.36422
G1 X117.36 Y179.603 E18.39483
G1 X116.671 Y180.214 E18.42546
G1 X115.932 Y180.763 E18.45608
G1 X115.148 Y181.246 E18.48671
G1 X114.325 Y181.659 E18.51733
G1 X113.47 Y181.998 E18.54793
G1 X112.588 Y182.263 E18.57856
G1 X111.686 Y182.449 E18.60919
G1 X110.913 Y182.546 E18.6351
G1 X110.753 Y182.56 E18.64044
G1 X110.464 Y182.581 E18.65008
G1 X110.014 Y182.607 E18.66507
G1 X91.073 Y183.563 E19.29585
G1 X90.389 Y183.587 E19.31862
G1 X89.468 Y183.58 E19.34925
G1 X88.552 Y183.492 E19.37986
G1 X87.646 Y183.325 E19.4105
G1 X86.759 Y183.081 E19.4411
G1 X85.896 Y182.76 E19.47172
G1 X85.064 Y182.366 E19.50234
G1 X84.269 Y181.9 E19.53299
G1 X83.518 Y181.368 E19.5636
G1 X82.816 Y180.773 E19.59421
G1 X82.168 Y180.118 E19.62485
G1 X81.58 Y179.41 E19.65546
G1 X81.055 Y178.654 E19.68608
G1 X80.597 Y177.855 E19.71671
G1 X80.211 Y177.019 E19.74733
G1 X79.899 Y176.153 E19.77795
G1 X79.663 Y175.263 E19.80857
G1 X79.505 Y174.356 E19.83919
G1 X79.419 Y173.19 E19.87808
G1 X79.4 Y172.073 E19.91524
G1 X79.4 Y169.815 E19.99034
G1 X79.363 Y167.19 E20.07766
G1 X79.257 Y164.696 E20.16068
G1 X79.081 Y162.188 E20.2443
G1 X79.064 Y161.988 E20.25098
G1 X79.027 Y161.068 E20.2816
G1 X79.07 Y160.149 E20.3122
G1 X79.132 Y159.614 E20.33012
G1 X79.159 Y159.424 E20.3365
G1 X79.2 Y159.161 E20.34535
G1 X79.274 Y158.727 E20.35999
G1 X79.367 Y158.208 E20.37753
G1 X79.888 Y154.995 E20.48579
G1 X79.957 Y154.518 E20.50182
G1 X80.554 Y150.511 E20.63657
G1 X80.867 Y147.934 E20.72291
G1 X81.098 Y145.448 E20.80595
G1 X81.26 Y142.927 E20.88997
G1 X81.351 Y140.408 E20.97381
G1 X81.371 Y137.86 E21.05856
G1 X81.319 Y135.315 E21.14322
G1 X81.196 Y132.807 E21.22674
G1 X81.003 Y130.308 E21.3101
G1 X80.737 Y127.798 E21.39405
G1 X80.234 Y124.213 E21.51446
G1 X80.166 Y123.783 E21.52894
G1 X80.062 Y122.868 E21.55957
G1 X80.037 Y121.948 E21.59018
G1 X80.06 Y121.409 E21.60812
G1 X80.102 Y120.786 E21.62889
G1 X80.238 Y118.22 E21.71436
G1 X80.301 Y115.675 E21.79903
G1 X80.293 Y113.157 E21.88278
G1 X80.213 Y110.618 E21.96727
G1 X80.185 Y110.15 E21.98286
G1 X80.132 Y108.992 E22.02142
G1 X80.127 Y108.155 E22.04926
G1 X80.133 Y107.974 E22.05528
G1 X80.199 Y105.292 E22.14451
G1 X80.19 Y102.786 E22.22786
G1 X80.108 Y100.241 E22.31255
G1 X79.955 Y97.719 E22.39659
G1 X79.731 Y95.199 E22.48073
G1 X79.433 Y92.66 E22.56576
G1 X79.268 Y91.519 E22.60411
G1 X79.166 Y90.748 E22.62997
G1 X79.085 Y89.831 E22.66059
G1 X79.075 Y89.246 E22.68005
G1 X79.089 Y87.956 E22.72296
G1 X79.097 Y87.622 E22.73407
G1 X79.101 Y86.092 E22.78496
G1 X79.094 Y84.942 E22.82321
G1 X79.126 Y84.057 E22.85266
G1 X79.173 Y83.459 E22.87261
G1 X79.351 Y81.545 E22.93655
G1 X79.513 Y79.035 E23.02021
G1 X79.603 Y76.525 E23.10374
G1 X79.623 Y73.972 E23.18866
G1 X79.573 Y71.474 E23.27176
G1 X79.55 Y70.782 E23.29479
G1 X79.578 Y69.58 E23.33478
G1 X79.655 Y68.627 E23.36658
G1 X79.824 Y66.056 E23.45227
G1 X79.919 Y63.51 E23.53701
G1 X79.944 Y60.962 E23.62176
G1 X79.896 Y58.446 E23.70546
G1 X79.778 Y55.945 E23.78874
G1 X79.563 Y53.146 E23.88211
G1 X79.454 Y51.956 E23.92185
G1 X79.417 Y51.379 E23.94108
G1 X79.411 Y51.217 E23.94647
G1 X79.405 Y50.944 E23.95556
G1 X79.4 Y50.468 E23.97139
G1 X79.401 Y47.536 E24.06891
G1 X79.411 Y46.857 E24.09149
G1 X79.465 Y45.938 E24.12211
G1 X79.598 Y45.027 E24.15273
G1 X79.809 Y44.131 E24.18335
G1 X80.098 Y43.257 E24.21397
G1 X80.461 Y42.411 E24.24459
G0 F6000 X80.859 Y42.507
G1 F1200 X81.294 Y41.715 E24.27464
G1 X81.796 Y40.965 E24.30466
G1 X82.364 Y40.262 E24.33472
G1 X82.991 Y39.612 E24.36475
G1 X83.673 Y39.02 E24.39479
G1 X84.405 Y38.491 E24.42483
G1 X85.18 Y38.029 E24.45484
G1 X85.994 Y37.637 E24.48489
G1 X86.839 Y37.318 E24.51493
G1 X87.709 Y37.076 E24.54497
G1 X88.597 Y36.911 E24.57501
G1 X89.496 Y36.826 E24.60504
G1 X90.333 Y36.818 E24.63288
G1 X91.249 Y36.847 E24.66336
G1 X91.44 Y36.855 E24.66972
G1 X110.003 Y37.793 E25.28792
G1 X110.658 Y37.836 E25.30975
G1 X111.556 Y37.935 E25.3398
G1 X112.441 Y38.113 E25.36982
G1 X113.307 Y38.369 E25.39986
G1 X114.148 Y38.7 E25.42992
G1 X114.955 Y39.104 E25.45993
G1 X115.724 Y39.578 E25.48998
G1 X116.447 Y40.118 E25.51999
G1 X117.121 Y40.721 E25.55007
G1 X117.738 Y41.38 E25.5801
G1 X118.294 Y42.091 E25.61012
G1 X118.786 Y42.849 E25.64017
G1 X119.208 Y43.647 E25.6702
G1 X119.558 Y44.48 E25.70025
G1 X119.833 Y45.34 E25.73028
G1 X120.031 Y46.221 E25.76031
G1 X120.15 Y47.116 E25.79034
G1 X120.187 Y47.766 E25.812
G1 X120.26 Y50.778 E25.91221
G1 X120.396 Y53.344 E25.99767
G1 X120.6 Y55.841 E26.081
