;FLAVOR:Marlin
;TIME:1115
;Filament used: 0.728687m
;Layer height: 0.2
;MINX:94
;MINY:77.013
;MINZ:0.2
;MAXX:126
;MAXY:153.984
;MAXZ:4.8
;Generated with Cura_SteamEngine 4.8.0
M140 S60
M105
M190 S60
M104 S200
M105
M109 S200
M82 ;absolute extrusion mode
; Ender 3 Custom Start G-code
G92 E0 ; Reset Extruder
G28 ; Home all axes
G1 Z2.0 F3000 ; Move Z Axis up little to prevent scratching of Heat Bed
G1 X0.1 Y20 Z0.3 F5000.0 ; Move to start position
G1 X0.1 Y200.0 Z0.3 F1500.0 E15 ; Draw the first line
G1 X0.4 Y200.0 Z0.3 F5000.0 ; Move to side a little
G1 X0.4 Y20 Z0.3 F1500.0 E30 ; Draw the second line
G92 E0 ; Reset Extruder
G1 Z2.0 F3000 ; Move Z Axis up little to prevent scratching of Heat Bed
G1 X5 Y20 Z0.3 F5000.0 ; Move over to prevent blob squish
G92 E0
G92 E0
G1 F1500 E-6.5
;LAYER_COUNT:24
;LAYER:0
M107
G0 F6000 X96.566 Y80.971 Z0.2
;TYPE:SKIRT
G1 F1500 E0
G1 F1200 X97.198 Y80.277 E0.03122
G1 X97.886 Y79.64 E0.0624
G1 X98.626 Y79.064 E0.09359
G1 X99.412 Y78.552 E0.12479
G1 X100.239 Y78.11 E0.15598
G1 X101.101 Y77.74 E0.18718
G1 X101.991 Y77.444 E0.21838
G1 X102.903 Y77.226 E0.24957
G1 X103.83 Y77.085 E0.28075
G1 X104.701 Y77.026 E0.30979
G1 X105.022 Y77.017 E0.32047
G1 X105.33 Y77.013 E0.33071
G1 X114.293 Y77.013 E0.62882
G1 X115.149 Y77.024 E0.6573
G1 X116.085 Y77.078 E0.68848
G1 X117.013 Y77.21 E0.71966
G1 X117.927 Y77.422 E0.75086
G1 X118.819 Y77.711 E0.78205
G1 X119.684 Y78.074 E0.81325
G1 X120.514 Y78.51 E0.84443
G1 X121.305 Y79.015 E0.87565
G1 X122.049 Y79.586 E0.90684
G1 X122.742 Y80.218 E0.93804
G1 X123.379 Y80.906 E0.96922
G1 X123.954 Y81.647 E1.00042
G1 X124.465 Y82.433 E1.0316
G1 X124.907 Y83.261 E1.06281
G1 X125.276 Y84.123 E1.094
G1 X125.571 Y85.013 E1.12519
G1 X125.789 Y85.925 E1.15637
G1 X125.929 Y86.853 E1.18759
G1 X125.987 Y87.714 E1.21629
G1 X125.996 Y88.034 E1.22694
G1 X126 Y88.343 E1.23722
G1 X125.999 Y142.384 E3.03463
G1 X125.99 Y143.111 E3.05881
G1 X125.939 Y144.048 E3.09002
G1 X125.807 Y144.976 E3.1212
G1 X125.598 Y145.89 E3.15238
G1 X125.311 Y146.783 E3.18358
G1 X124.949 Y147.649 E3.2148
G1 X124.515 Y148.48 E3.24598
G1 X124.011 Y149.271 E3.27717
G1 X123.442 Y150.016 E3.30835
G1 X122.811 Y150.711 E3.33958
G1 X122.124 Y151.349 E3.37076
G1 X121.385 Y151.926 E3.40194
G1 X120.599 Y152.438 E3.43314
G1 X119.773 Y152.881 E3.46432
G1 X118.911 Y153.253 E3.49554
G1 X118.022 Y153.549 E3.52671
G1 X117.11 Y153.769 E3.55791
G1 X116.183 Y153.91 E3.5891
G1 X115.299 Y153.971 E3.61857
G1 X114.978 Y153.98 E3.62925
G1 X114.67 Y153.984 E3.63949
G1 X105.565 Y153.983 E3.94233
G1 X104.867 Y153.974 E3.96555
G1 X103.931 Y153.922 E3.99673
G1 X103.002 Y153.79 E4.02793
G1 X102.088 Y153.58 E4.05913
G1 X101.195 Y153.293 E4.09032
G1 X100.33 Y152.93 E4.12152
G1 X99.499 Y152.496 E4.15271
G1 X98.708 Y151.992 E4.1839
G1 X97.963 Y151.422 E4.2151
G1 X97.269 Y150.791 E4.2463
G1 X96.632 Y150.104 E4.27746
G1 X96.055 Y149.364 E4.30867
G1 X95.543 Y148.578 E4.33987
G1 X95.1 Y147.751 E4.37107
G1 X94.729 Y146.89 E4.40225
G1 X94.433 Y146 E4.43345
G1 X94.214 Y145.088 E4.46465
G1 X94.073 Y144.161 E4.49583
G1 X94.013 Y143.272 E4.52547
G1 X94.004 Y142.939 E4.53655
G1 X94 Y142.642 E4.54643
G1 X94.001 Y88.538 E6.34593
G1 X94.01 Y87.873 E6.36805
G1 X94.063 Y86.937 E6.39923
G1 X94.195 Y86.008 E6.43044
G1 X94.406 Y85.094 E6.46164
G1 X94.694 Y84.202 E6.49282
G1 X95.057 Y83.337 E6.52402
G1 X95.492 Y82.506 E6.55522
G1 X95.996 Y81.716 E6.58638
G1 X96.566 Y80.971 E6.61758
G0 F6000 X96.961 Y81.124
G1 F1200 X97.589 Y80.452 E6.64818
G1 X98.274 Y79.836 E6.67882
G1 X99.01 Y79.283 E6.70943
G1 X99.791 Y78.795 E6.74007
G1 X100.611 Y78.377 E6.77068
G1 X101.465 Y78.032 E6.80131
G1 X102.345 Y77.762 E6.83193
G1 X103.245 Y77.57 E6.86254
G1 X104.159 Y77.456 E6.89317
G1 X104.712 Y77.426 E6.91159
G1 X105.033 Y77.417 E6.92227
G1 X105.33 Y77.413 E6.93215
G1 X114.293 Y77.413 E7.23026
G1 X115.143 Y77.424 E7.25853
G1 X116.062 Y77.477 E7.28915
G1 X116.973 Y77.61 E7.31977
G1 X117.869 Y77.821 E7.35039
G1 X118.743 Y78.109 E7.381
G1 X119.59 Y78.472 E7.41165
G1 X120.401 Y78.907 E7.44225
G1 X121.171 Y79.411 E7.47286
G1 X121.895 Y79.98 E7.50349
G1 X122.567 Y80.61 E7.53413
G1 X123.182 Y81.295 E7.56475
G1 X123.735 Y82.031 E7.59536
G1 X124.222 Y82.812 E7.62598
G1 X124.639 Y83.633 E7.6566
G1 X124.984 Y84.487 E7.68724
G1 X125.253 Y85.367 E7.71784
G1 X125.445 Y86.268 E7.74848
G1 X125.558 Y87.181 E7.77908
G1 X125.587 Y87.725 E7.7972
G1 X125.596 Y88.045 E7.80785
G1 X125.6 Y88.343 E7.81776
G1 X125.599 Y142.379 E9.61501
G1 X125.59 Y143.106 E9.63919
G1 X125.539 Y144.025 E9.6698
G1 X125.408 Y144.937 E9.70045
G1 X125.198 Y145.833 E9.73105
G1 X124.912 Y146.708 E9.76167
G1 X124.551 Y147.555 E9.7923
G1 X124.117 Y148.367 E9.82292
G1 X123.615 Y149.139 E9.85355
G1 X123.047 Y149.864 E9.88418
G1 X122.419 Y150.537 E9.9148
G1 X121.735 Y151.153 E9.94541
G1 X121 Y151.707 E9.97602
G1 X120.22 Y152.196 E10.00664
G1 X119.4 Y152.615 E10.03727
G1 X118.547 Y152.961 E10.06789
G1 X117.667 Y153.232 E10.09851
G1 X116.767 Y153.425 E10.12913
G1 X115.853 Y153.54 E10.15977
G1 X115.288 Y153.571 E10.17859
G1 X114.967 Y153.58 E10.18927
G1 X114.67 Y153.584 E10.19915
G1 X105.57 Y153.583 E10.50181
G1 X104.872 Y153.574 E10.52503
G1 X103.953 Y153.522 E10.55565
G1 X103.042 Y153.391 E10.58626
G1 X102.146 Y153.181 E10.61687
G1 X101.271 Y152.894 E10.64749
G1 X100.424 Y152.532 E10.67813
G1 X99.612 Y152.098 E10.70875
G1 X98.841 Y151.596 E10.73935
G1 X98.116 Y151.028 E10.76999
G1 X97.443 Y150.399 E10.80063
G1 X96.828 Y149.715 E10.83122
G1 X96.274 Y148.98 E10.86183
G1 X95.786 Y148.199 E10.89246
G1 X95.367 Y147.379 E10.92309
G1 X95.021 Y146.526 E10.95371
G1 X94.751 Y145.646 E10.98432
G1 X94.558 Y144.745 E11.01497
G1 X94.444 Y143.832 E11.04557
G1 X94.413 Y143.261 E11.06459
G1 X94.404 Y142.928 E11.07567
G1 X94.4 Y142.642 E11.08518
G1 X94.401 Y88.544 E12.88449
G1 X94.41 Y87.879 E12.90661
G1 X94.462 Y86.959 E12.93726
G1 X94.594 Y86.048 E12.96787
G1 X94.805 Y85.152 E12.99849
G1 X95.092 Y84.277 E13.02912
G1 X95.455 Y83.431 E13.05974
G1 X95.889 Y82.619 E13.09036
G1 X96.392 Y81.848 E13.12098
G1 X96.961 Y81.124 E13.15161
G0 F6000 X97.355 Y81.28
G1 F1200 X97.981 Y80.63 E13.18162
G1 X98.662 Y80.037 E13.21165
G1 X99.394 Y79.507 E13.24171
G1 X100.169 Y79.044 E13.27174
G1 X100.982 Y78.651 E13.30177
G1 X101.827 Y78.331 E13.33183
G1 X102.696 Y78.088 E13.36184
G1 X103.584 Y77.922 E13.39188
G1 X104.723 Y77.826 E13.4299
G1 X105.044 Y77.817 E13.44058
G1 X105.33 Y77.813 E13.4501
G1 X114.293 Y77.813 E13.74821
G1 X115.137 Y77.824 E13.77628
G1 X116.039 Y77.877 E13.80633
G1 X116.932 Y78.009 E13.83636
G1 X117.81 Y78.22 E13.86639
G1 X118.666 Y78.508 E13.89643
G1 X119.493 Y78.87 E13.92646
G1 X120.285 Y79.305 E13.95651
G1 X121.036 Y79.807 E13.98655
G1 X121.739 Y80.374 E14.01659
G1 X122.389 Y81.001 E14.04663
G1 X122.981 Y81.683 E14.07667
G1 X123.511 Y82.414 E14.1067
G1 X123.973 Y83.19 E14.13674
G1 X124.366 Y84.003 E14.16677
G1 X124.684 Y84.848 E14.1968
G1 X124.927 Y85.718 E14.22684
G1 X125.092 Y86.606 E14.25688
G1 X125.187 Y87.736 E14.2946
G1 X125.196 Y88.056 E14.30525
G1 X125.2 Y88.343 E14.3148
G1 X125.199 Y142.374 E16.11187
G1 X125.19 Y143.101 E16.13606
G1 X125.139 Y144.003 E16.1661
G1 X125.008 Y144.897 E16.19616
G1 X124.799 Y145.775 E16.22617
G1 X124.513 Y146.632 E16.25622
G1 X124.152 Y147.46 E16.28627
G1 X123.72 Y148.252 E16.31627
G1 X123.219 Y149.004 E16.34633
G1 X122.653 Y149.708 E16.37637
G1 X122.028 Y150.359 E16.40639
G1 X121.347 Y150.953 E16.43644
G1 X120.616 Y151.484 E16.46649
G1 X119.842 Y151.948 E16.49651
G1 X119.029 Y152.342 E16.52656
G1 X118.185 Y152.662 E16.55658
G1 X117.315 Y152.907 E16.58664
G1 X116.428 Y153.073 E16.61665
G1 X115.277 Y153.171 E16.65507
G1 X114.956 Y153.18 E16.66576
G1 X114.67 Y153.184 E16.67527
G1 X105.575 Y153.183 E16.97777
G1 X104.877 Y153.174 E17.00099
G1 X103.976 Y153.123 E17.031
G1 X103.082 Y152.991 E17.06106
G1 X102.204 Y152.782 E17.09108
G1 X101.347 Y152.495 E17.12114
G1 X100.52 Y152.134 E17.15115
G1 X99.727 Y151.701 E17.1812
G1 X98.976 Y151.2 E17.21123
G1 X98.272 Y150.634 E17.24127
G1 X97.621 Y150.008 E17.27131
G1 X97.028 Y149.327 E17.30134
G1 X96.498 Y148.596 E17.33138
G1 X96.034 Y147.821 E17.36142
G1 X95.64 Y147.008 E17.39147
G1 X95.32 Y146.164 E17.42149
G1 X95.076 Y145.294 E17.45154
G1 X94.91 Y144.406 E17.48159
G1 X94.813 Y143.251 E17.52014
G1 X94.804 Y142.918 E17.53122
G1 X94.8 Y142.642 E17.5404
G1 X94.801 Y88.549 E19.33954
G1 X94.81 Y87.884 E19.36166
G1 X94.862 Y86.982 E19.39171
G1 X94.994 Y86.089 E19.42173
G1 X95.204 Y85.211 E19.45176
G1 X95.491 Y84.354 E19.48182
G1 X95.853 Y83.527 E19.51185
G1 X96.286 Y82.735 E19.54187
G1 X96.788 Y81.984 E19.57191
G1 X97.355 Y81.28 E19.60198
G1 F1500 E13.10198
;MESH:Middle_3_4.STL
G0 F6000 X104.335 Y88.433
G0 X105.42 Y88.433
G0 X105.782 Y142.202
G0 X114.4 Y142.384
;TYPE:WALL-INNER
G1 F1500 E19.60198
G1 F1200 X105.6 Y142.384 E19.89467
G1 X105.6 Y88.613 E21.6831
G1 X114.4 Y88.613 E21.97579
G1 X114.4 Y142.384 E23.76422
G0 F6000 X114.8 Y142.784
;TYPE:WALL-OUTER
G1 F1200 X105.2 Y142.784 E24.08352
G1 X105.2 Y88.213 E25.89855
G1 X114.8 Y88.213 E26.21785
G1 X114.8 Y142.784 E28.03289
G0 F6000 X114.53 Y142.514
G0 X114.29 Y141.994
G0 X114.01 Y141.994
;TYPE:SKIN
G1 F1200 X105.99 Y141.994 E28.29964
G1 X105.99 Y89.003 E30.06212
G1 X114.01 Y89.003 E30.32887
G1 X114.01 Y141.994 E32.09136
G0 F6000 X114.29 Y141.994
G0 X106.76 Y142.274
G0 X106.76 Y141.832
G1 F1200 X106.149 Y141.221 E32.1201
G0 F6000 X106.149 Y140.656
G1 F1200 X107.326 Y141.832 E32.17544
G0 F6000 X107.891 Y141.832
G1 F1200 X106.149 Y140.09 E32.25738
G0 F6000 X106.149 Y139.524
G1 F1200 X108.457 Y141.832 E32.36594
G0 F6000 X109.023 Y141.832
G1 F1200 X106.149 Y138.959 E32.5011
G0 F6000 X106.149 Y138.393
G1 F1200 X109.588 Y141.832 E32.66286
G0 F6000 X110.154 Y141.832
G1 F1200 X106.149 Y137.827 E32.85124
G0 F6000 X106.149 Y137.262
G1 F1200 X110.72 Y141.832 E33.06622
G0 F6000 X111.285 Y141.832
G1 F1200 X106.149 Y136.696 E33.3078
G0 F6000 X106.149 Y136.13
G1 F1200 X111.851 Y141.832 E33.57601
G0 F6000 X112.417 Y141.832
G1 F1200 X106.149 Y135.565 E33.87081
G0 F6000 X106.149 Y134.999
G1 F1200 X112.982 Y141.832 E34.19222
G0 F6000 X113.548 Y141.832
G1 F1200 X106.149 Y134.433 E34.54024
G0 F6000 X106.149 Y133.868
G1 F1200 X113.849 Y141.568 E34.90243
G0 F6000 X113.849 Y141.002
G1 F1200 X106.149 Y133.302 E35.26461
G0 F6000 X106.149 Y132.736
G1 F1200 X113.849 Y140.437 E35.62682
G0 F6000 X113.849 Y139.871
G1 F1200 X106.149 Y132.17 E35.98903
G0 F6000 X106.149 Y131.605
G1 F1200 X113.849 Y139.305 E36.35121
G0 F6000 X113.849 Y138.74
G1 F1200 X106.149 Y131.039 E36.71342
G0 F6000 X106.149 Y130.473
G1 F1200 X113.849 Y138.174 E37.07563
G0 F6000 X113.849 Y137.608
G1 F1200 X106.149 Y129.908 E37.43781
G0 F6000 X106.149 Y129.342
G1 F1200 X113.849 Y137.042 E37.8
G0 F6000 X113.849 Y136.477
G1 F1200 X106.149 Y128.776 E38.1622
G0 F6000 X106.149 Y128.211
G1 F1200 X113.849 Y135.911 E38.52439
G0 F6000 X113.849 Y135.345
G1 F1200 X106.149 Y127.645 E38.88657
G0 F6000 X106.149 Y127.079
G1 F1200 X113.849 Y134.78 E39.24878
G0 F6000 X113.849 Y134.214
G1 F1200 X106.149 Y126.514 E39.61097
G0 F6000 X106.149 Y125.948
G1 F1200 X113.849 Y133.648 E39.97315
G0 F6000 X113.849 Y133.083
G1 F1200 X106.149 Y125.382 E40.33536
G0 F6000 X106.149 Y124.817
G1 F1200 X113.849 Y132.517 E40.69754
G0 F6000 X113.849 Y131.951
G1 F1200 X106.149 Y124.251 E41.05973
G0 F6000 X106.149 Y123.685
G1 F1200 X113.849 Y131.386 E41.42193
G0 F6000 X113.849 Y130.82
G1 F1200 X106.149 Y123.12 E41.78412
G0 F6000 X106.149 Y122.554
G1 F1200 X113.849 Y130.254 E42.1463
G0 F6000 X113.849 Y129.689
G1 F1200 X106.149 Y121.988 E42.50851
G0 F6000 X106.149 Y121.422
G1 F1200 X113.849 Y129.123 E42.87072
G0 F6000 X113.849 Y128.557
G1 F1200 X106.149 Y120.857 E43.2329
G0 F6000 X106.149 Y120.291
G1 F1200 X113.849 Y127.991 E43.59509
G0 F6000 X113.849 Y127.426
G1 F1200 X106.149 Y119.725 E43.9573
G0 F6000 X106.149 Y119.16
G1 F1200 X113.849 Y126.86 E44.31948
G0 F6000 X113.849 Y126.294
G1 F1200 X106.149 Y118.594 E44.68166
G0 F6000 X106.149 Y118.028
G1 F1200 X113.849 Y125.729 E45.04387
G0 F6000 X113.849 Y125.163
G1 F1200 X106.149 Y117.463 E45.40606
G0 F6000 X106.149 Y116.897
G1 F1200 X113.849 Y124.597 E45.76824
G0 F6000 X113.849 Y124.032
G1 F1200 X106.149 Y116.331 E46.13045
G0 F6000 X106.149 Y115.766
G1 F1200 X113.849 Y123.466 E46.49263
G0 F6000 X113.849 Y122.9
G1 F1200 X106.149 Y115.2 E46.85482
G0 F6000 X106.149 Y114.634
G1 F1200 X113.849 Y122.335 E47.21703
G0 F6000 X113.849 Y121.769
G1 F1200 X106.149 Y114.069 E47.57921
G0 F6000 X106.149 Y113.503
G1 F1200 X113.849 Y121.203 E47.94139
G0 F6000 X113.849 Y120.638
G1 F1200 X106.149 Y112.937 E48.3036
G0 F6000 X106.149 Y112.371
G1 F1200 X113.849 Y120.072 E48.66581
G0 F6000 X113.849 Y119.506
G1 F1200 X106.149 Y111.806 E49.02799
G0 F6000 X106.149 Y111.24
G1 F1200 X113.849 Y118.941 E49.3902
G0 F6000 X113.849 Y118.375
G1 F1200 X106.149 Y110.674 E49.75241
G0 F6000 X106.149 Y110.109
G1 F1200 X113.849 Y117.809 E50.11459
G0 F6000 X113.849 Y117.243
G1 F1200 X106.149 Y109.543 E50.47678
G0 F6000 X106.149 Y108.977
G1 F1200 X113.849 Y116.678 E50.83899
G0 F6000 X113.849 Y116.112
G1 F1200 X106.149 Y108.412 E51.20117
G0 F6000 X106.149 Y107.846
G1 F1200 X113.849 Y115.546 E51.56336
G0 F6000 X113.849 Y114.981
G1 F1200 X106.149 Y107.28 E51.92556
G0 F6000 X106.149 Y106.715
G1 F1200 X113.849 Y114.415 E52.28775
G0 F6000 X113.849 Y113.849
G1 F1200 X106.149 Y106.149 E52.64993
G0 F6000 X106.149 Y105.583
G1 F1200 X113.849 Y113.284 E53.01214
G0 F6000 X113.849 Y112.718
G1 F1200 X106.149 Y105.018 E53.37433
G0 F6000 X106.149 Y104.452
G1 F1200 X113.849 Y112.152 E53.73651
G0 F6000 X113.849 Y111.587
G1 F1200 X106.149 Y103.886 E54.09872
G0 F6000 X106.149 Y103.321
G1 F1200 X113.849 Y111.021 E54.4609
G0 F6000 X113.849 Y110.455
G1 F1200 X106.149 Y102.755 E54.82309
G0 F6000 X106.149 Y102.189
G1 F1200 X113.849 Y109.89 E55.18529
G0 F6000 X113.849 Y109.324
G1 F1200 X106.149 Y101.623 E55.5475
G0 F6000 X106.149 Y101.058
G1 F1200 X113.849 Y108.758 E55.90969
G0 F6000 X113.849 Y108.192
G1 F1200 X106.149 Y100.492 E56.27187
G0 F6000 X106.149 Y99.926
G1 F1200 X113.849 Y107.627 E56.63408
G0 F6000 X113.849 Y107.061
G1 F1200 X106.149 Y99.361 E56.99626
G0 F6000 X106.149 Y98.795
G1 F1200 X113.849 Y106.495 E57.35845
G0 F6000 X113.849 Y105.93
G1 F1200 X106.149 Y98.229 E57.72066
G0 F6000 X106.149 Y97.664
G1 F1200 X113.849 Y105.364 E58.08284
G0 F6000 X113.849 Y104.798
G1 F1200 X106.149 Y97.098 E58.44502
G0 F6000 X106.149 Y96.532
G1 F1200 X113.849 Y104.233 E58.80723
G0 F6000 X113.849 Y103.667
G1 F1200 X106.149 Y95.967 E59.16942
G0 F6000 X106.149 Y95.401
G1 F1200 X113.849 Y103.101 E59.5316
G0 F6000 X113.849 Y102.536
G1 F1200 X106.149 Y94.835 E59.89381
G0 F6000 X106.149 Y94.27
G1 F1200 X113.849 Y101.97 E60.25599
G0 F6000 X113.849 Y101.404
G1 F1200 X106.149 Y93.704 E60.61818
G0 F6000 X106.149 Y93.138
G1 F1200 X113.849 Y100.839 E60.98039
G0 F6000 X113.849 Y100.273
G1 F1200 X106.149 Y92.573 E61.34257
G0 F6000 X106.149 Y92.007
G1 F1200 X113.849 Y99.707 E61.70475
G0 F6000 X113.849 Y99.142
G1 F1200 X106.149 Y91.441 E62.06696
G0 F6000 X106.149 Y90.875
G1 F1200 X113.849 Y98.576 E62.42917
G0 F6000 X113.849 Y98.01
G1 F1200 X106.149 Y90.31 E62.79135
G0 F6000 X106.149 Y89.744
G1 F1200 X113.849 Y97.444 E63.15354
G0 F6000 X113.849 Y96.879
G1 F1200 X106.149 Y89.178 E63.51575
G0 F6000 X106.699 Y89.163
G1 F1200 X113.849 Y96.313 E63.85206
G0 F6000 X113.849 Y95.747
G1 F1200 X107.265 Y89.163 E64.16175
G0 F6000 X107.83 Y89.163
G1 F1200 X113.849 Y95.182 E64.44487
G0 F6000 X113.849 Y94.616
G1 F1200 X108.396 Y89.163 E64.70136
G0 F6000 X108.962 Y89.163
G1 F1200 X113.849 Y94.05 E64.93123
G0 F6000 X113.849 Y93.485
