;FLAVOR:Marlin
;TIME:21389
;Filament used: 13.6682m
;Layer height: 0.2
;MINX:77.792
;MINY:38.597
;MINZ:0.2
;MAXX:138
;MAXY:179.8
;MAXZ:55
;Generated with Cura_SteamEngine 4.8.0
M140 S60
M105
M190 S60
M104 S200
M105
M109 S200
M82 ;absolute extrusion mode
; Ender 3 Custom Start G-code
G92 E0 ; Reset Extruder
G28 ; Home all axes
G1 Z2.0 F3000 ; Move Z Axis up little to prevent scratching of Heat Bed
G1 X0.1 Y20 Z0.3 F5000.0 ; Move to start position
G1 X0.1 Y200.0 Z0.3 F1500.0 E15 ; Draw the first line
G1 X0.4 Y200.0 Z0.3 F5000.0 ; Move to side a little
G1 X0.4 Y20 Z0.3 F1500.0 E30 ; Draw the second line
G92 E0 ; Reset Extruder
G1 Z2.0 F3000 ; Move Z Axis up little to prevent scratching of Heat Bed
G1 X5 Y20 Z0.3 F5000.0 ; Move over to prevent blob squish
G92 E0
G92 E0
G1 F1500 E-6.5
;LAYER_COUNT:275
;LAYER:0
M107
G0 F6000 X82.576 Y44.03 Z0.2
;TYPE:SKIRT
G1 F1500 E0
G1 F1200 X83.084 Y43.242 E0.03118
G1 X83.658 Y42.5 E0.06238
G1 X84.293 Y41.81 E0.09357
G1 X84.984 Y41.176 E0.12476
G1 X85.727 Y40.604 E0.15595
G1 X86.516 Y40.097 E0.18714
G1 X87.345 Y39.659 E0.21833
G1 X88.209 Y39.293 E0.24954
G1 X89.1 Y39.002 E0.28071
G1 X90.014 Y38.788 E0.31194
G1 X90.942 Y38.652 E0.34313
G1 X91.878 Y38.597 E0.37432
G1 X92.921 Y38.628 E0.40902
G1 X93.852 Y38.74 E0.44021
G1 X94.694 Y38.912 E0.46879
G1 X95.041 Y38.997 E0.48068
G1 X95.27 Y39.056 E0.48854
G1 X102.109 Y40.889 E0.72404
G1 X102.735 Y41.065 E0.74566
G1 X103.626 Y41.357 E0.77685
G1 X104.49 Y41.724 E0.80807
G1 X105.318 Y42.163 E0.83924
G1 X106.107 Y42.671 E0.87045
G1 X106.849 Y43.244 E0.90163
G1 X107.539 Y43.879 E0.93282
G1 X108.11 Y44.495 E0.96076
G1 X108.146 Y44.537 E0.9626
G1 X108.861 Y45.468 E1.00164
G1 X110.365 Y47.658 E1.09
G1 X111.88 Y49.737 E1.17556
G1 X113.378 Y51.673 E1.25698
G1 X115.009 Y53.662 E1.34253
G1 X116.622 Y55.521 E1.42439
G1 X118.372 Y57.427 E1.51046
G1 X120.077 Y59.179 E1.59177
G1 X121.924 Y60.973 E1.67741
G1 X123.771 Y62.669 E1.76081
G1 X125.632 Y64.282 E1.84272
G1 X127.634 Y65.922 E1.9288
G1 X129.613 Y67.452 E2.01199
G1 X131.175 Y68.595 E2.07637
G1 X131.461 Y68.81 E2.08827
G1 X131.836 Y69.107 E2.10418
G1 X132.246 Y69.451 E2.12198
G1 X132.607 Y69.769 E2.13798
G1 X133.547 Y70.704 E2.18208
G1 X134.072 Y71.293 E2.20832
G1 X134.38 Y71.653 E2.22408
G1 X134.487 Y71.784 E2.22971
G1 X135.147 Y72.681 E2.26675
G1 X135.289 Y72.896 E2.27532
G1 X135.574 Y73.352 E2.2932
G1 X135.866 Y73.845 E2.31226
G1 X136.44 Y74.951 E2.3537
G1 X136.557 Y75.212 E2.36322
G1 X136.739 Y75.644 E2.37881
G1 X136.944 Y76.159 E2.39725
G1 X137.34 Y77.346 E2.43886
G1 X137.413 Y77.615 E2.44813
G1 X137.525 Y78.063 E2.46349
G1 X137.652 Y78.623 E2.48259
G1 X137.861 Y79.877 E2.52488
G1 X137.89 Y80.146 E2.53387
G1 X137.93 Y80.619 E2.54966
G1 X137.968 Y81.21 E2.56936
G1 X137.984 Y81.529 E2.57998
G1 X137.995 Y81.936 E2.59353
G1 X138 Y82.418 E2.60956
G1 X137.999 Y137.549 E4.44322
G1 X137.989 Y138.254 E4.46667
G1 X137.973 Y138.708 E4.48178
G1 X137.955 Y139.032 E4.49258
G1 X137.926 Y139.429 E4.50581
G1 X137.878 Y139.951 E4.52325
G1 X137.692 Y141.191 E4.56495
G1 X137.639 Y141.445 E4.57358
G1 X137.527 Y141.927 E4.59004
G1 X137.381 Y142.497 E4.60961
G1 X137.023 Y143.635 E4.64929
G1 X136.931 Y143.88 E4.658
G1 X136.728 Y144.383 E4.67604
G1 X136.499 Y144.912 E4.69521
G1 X135.957 Y145.995 E4.73549
G1 X135.812 Y146.249 E4.74522
G1 X135.56 Y146.668 E4.76148
G1 X135.262 Y147.14 E4.78004
G1 X134.522 Y148.175 E4.82236
G1 X134.355 Y148.382 E4.83121
G1 X134.057 Y148.736 E4.8466
G1 X133.738 Y149.099 E4.86267
G1 X132.793 Y150.051 E4.90729
G1 X132.206 Y150.574 E4.93344
G1 X131.745 Y150.962 E4.95348
G1 X131.597 Y151.08 E4.95977
G1 X130.787 Y151.668 E4.99306
G1 X130.234 Y152.032 E5.01508
G1 X128.129 Y153.456 E5.09961
G1 X126.055 Y154.945 E5.18453
G1 X124.071 Y156.458 E5.26752
G1 X122.103 Y158.047 E5.35164
G1 X120.202 Y159.675 E5.43489
G1 X118.321 Y161.379 E5.51931
G1 X116.512 Y163.114 E5.60267
G1 X114.742 Y164.91 E5.68654
G1 X113.036 Y166.742 E5.7698
G1 X111.343 Y168.667 E5.85507
G1 X109.763 Y170.569 E5.93731
G1 X108.533 Y172.135 E6.00354
G1 X108.266 Y172.466 E6.01768
G1 X107.646 Y173.171 E6.04891
G1 X106.969 Y173.819 E6.08008
G1 X106.239 Y174.408 E6.11128
G1 X105.504 Y174.907 E6.14082
G1 X105.193 Y175.1 E6.153
G1 X104.894 Y175.279 E6.16459
G1 X100.182 Y178 E6.34556
G1 X99.427 Y178.42 E6.3743
G1 X98.588 Y178.84 E6.40551
G1 X97.716 Y179.186 E6.43671
G1 X96.818 Y179.457 E6.46791
G1 X95.901 Y179.65 E6.49907
G1 X94.97 Y179.765 E6.53028
G1 X94.033 Y179.8 E6.56146
G1 X93.476 Y179.783 E6.58
G1 X92.764 Y179.743 E6.60371
G1 X92.424 Y179.718 E6.61505
G1 X92.046 Y179.685 E6.62767
G1 X90.836 Y179.511 E6.66833
G1 X90.418 Y179.427 E6.68251
G1 X90.124 Y179.364 E6.69251
G1 X89.745 Y179.277 E6.70545
G1 X88.841 Y179.029 E6.73663
G1 X87.961 Y178.704 E6.76783
G1 X87.112 Y178.305 E6.79903
G1 X86.3 Y177.836 E6.83022
G1 X85.531 Y177.299 E6.86141
G1 X84.81 Y176.699 E6.89261
G1 X84.144 Y176.039 E6.9238
G1 X83.535 Y175.325 E6.95501
G1 X82.834 Y174.315 E6.9959
G1 X82.673 Y174.053 E7.00613
G1 X82.519 Y173.794 E7.01615
G1 X79.522 Y168.601 E7.21557
G1 X79.192 Y168.011 E7.23805
G1 X78.769 Y167.173 E7.26928
G1 X78.419 Y166.303 E7.30047
G1 X78.145 Y165.406 E7.33166
G1 X77.948 Y164.489 E7.36286
G1 X77.83 Y163.559 E7.39404
G1 X77.792 Y162.622 E7.42523
G1 X77.834 Y161.685 E7.45642
G1 X77.955 Y160.755 E7.48762
G1 X78.155 Y159.839 E7.5188
G1 X78.432 Y158.943 E7.54999
G1 X78.785 Y158.074 E7.58119
G1 X79.364 Y156.975 E7.6225
G1 X79.416 Y156.889 E7.62585
G1 X80.735 Y154.601 E7.71369
G1 X81.921 Y152.405 E7.7967
G1 X83.048 Y150.164 E7.88013
G1 X84.117 Y147.882 E7.96394
G1 X85.122 Y145.569 E8.04782
G1 X86.064 Y143.227 E8.13178
G1 X86.932 Y140.865 E8.21548
G1 X87.731 Y138.494 E8.29869
G1 X88.476 Y136.059 E8.38339
G1 X89.132 Y133.672 E8.46572
G1 X89.739 Y131.196 E8.55052
G1 X90.273 Y128.717 E8.63486
G1 X90.721 Y126.294 E8.71681
G1 X91.113 Y123.787 E8.80121
G1 X91.432 Y121.296 E8.88474
G1 X91.683 Y118.758 E8.96956
G1 X91.858 Y116.279 E9.05222
G1 X91.964 Y113.77 E9.13574
G1 X92 Y111.184 E9.22176
G1 X92 Y106.763 E9.36881
G1 X91.963 Y104.155 E9.45556
G1 X91.856 Y101.633 E9.53952
G1 X91.679 Y99.138 E9.62271
G1 X91.431 Y96.639 E9.70623
G1 X91.113 Y94.15 E9.78969
G1 X90.719 Y91.641 E9.87416
G1 X90.26 Y89.175 E9.95759
G1 X89.726 Y86.692 E10.04206
G1 X89.139 Y84.297 E10.12408
G1 X88.461 Y81.831 E10.20914
G1 X87.732 Y79.451 E10.29193
G1 X86.921 Y77.048 E10.37629
G1 X86.041 Y74.66 E10.46093
G1 X85.117 Y72.361 E10.54334
G1 X84.109 Y70.045 E10.62735
G1 X83.04 Y67.764 E10.71114
G1 X81.895 Y65.49 E10.79582
G1 X80.96 Y63.744 E10.86169
G1 X80.349 Y62.632 E10.90389
G1 X79.933 Y61.791 E10.9351
G1 X79.59 Y60.919 E10.96627
G1 X79.323 Y60.02 E10.99746
G1 X79.133 Y59.101 E11.02867
G1 X79.022 Y58.17 E11.05985
G1 X78.992 Y57.232 E11.09107
G1 X79.04 Y56.296 E11.12224
G1 X79.169 Y55.367 E11.15344
G1 X79.282 Y54.824 E11.17188
G1 X79.359 Y54.496 E11.18309
G1 X79.443 Y54.162 E11.19454
G1 X81.296 Y47.251 E11.43252
G1 X81.476 Y46.612 E11.4546
G1 X81.769 Y45.721 E11.4858
G1 X82.136 Y44.858 E11.51699
G1 X82.576 Y44.03 E11.54818
G0 F6000 X82.946 Y44.189
G1 F1200 X83.45 Y43.418 E11.57881
G1 X84.018 Y42.694 E11.60942
G1 X84.648 Y42.022 E11.64006
G1 X85.333 Y41.407 E11.67068
G1 X86.069 Y40.853 E11.70131
G1 X86.85 Y40.366 E11.73193
G1 X87.67 Y39.949 E11.76252
G1 X88.524 Y39.604 E11.79316
G1 X89.404 Y39.334 E11.82377
G1 X90.304 Y39.142 E11.85438
G1 X91.218 Y39.029 E11.88501
G1 X92.138 Y38.995 E11.91563
G1 X92.89 Y39.027 E11.94067
G1 X93.804 Y39.138 E11.97129
G1 X94.599 Y39.3 E11.99828
G1 X94.946 Y39.385 E12.01016
G1 X95.167 Y39.442 E12.01775
G1 X102.001 Y41.274 E12.25307
G1 X102.627 Y41.45 E12.2747
G1 X103.502 Y41.737 E12.30533
G1 X104.348 Y42.099 E12.33594
G1 X105.16 Y42.534 E12.36658
G1 X105.931 Y43.037 E12.39719
G1 X106.655 Y43.605 E12.4278
G1 X107.328 Y44.234 E12.45844
G1 X107.806 Y44.756 E12.48198
G1 X107.842 Y44.798 E12.48382
G1 X108.532 Y45.695 E12.52146
G1 X110.062 Y47.922 E12.61133
G1 X111.526 Y49.932 E12.69403
G1 X113.098 Y51.965 E12.77951
G1 X114.681 Y53.894 E12.8625
G1 X116.342 Y55.808 E12.94679
G1 X118.057 Y57.676 E13.03114
G1 X119.813 Y59.48 E13.11487
G1 X121.638 Y61.253 E13.1995
G1 X123.504 Y62.966 E13.28375
G1 X125.401 Y64.61 E13.36724
G1 X127.364 Y66.219 E13.45166
G1 X129.372 Y67.771 E13.53607
G1 X130.939 Y68.918 E13.60066
G1 X131.218 Y69.128 E13.61227
G1 X131.587 Y69.42 E13.62792
G1 X131.982 Y69.751 E13.64506
G1 X132.343 Y70.069 E13.66106
G1 X133.249 Y70.97 E13.70356
G1 X133.774 Y71.559 E13.7298
G1 X134.071 Y71.907 E13.74502
G1 X134.178 Y72.038 E13.75065
G1 X134.813 Y72.901 E13.78628
G1 X134.955 Y73.116 E13.79485
G1 X135.23 Y73.556 E13.81211
G1 X135.522 Y74.049 E13.83117
G1 X136.075 Y75.115 E13.87111
G1 X136.192 Y75.376 E13.88062
G1 X136.367 Y75.792 E13.89563
G1 X136.572 Y76.307 E13.91407
G1 X136.954 Y77.451 E13.95418
G1 X137.027 Y77.72 E13.96346
G1 X137.134 Y78.152 E13.97826
G1 X137.261 Y78.712 E13.99736
G1 X137.463 Y79.92 E14.03809
G1 X137.492 Y80.189 E14.04709
G1 X137.531 Y80.645 E14.06231
G1 X137.569 Y81.236 E14.08201
G1 X137.589 Y81.685 E14.09696
G1 X137.595 Y81.94 E14.10544
G1 X137.6 Y82.418 E14.12134
G1 X137.599 Y137.543 E15.95481
G1 X137.589 Y138.248 E15.97826
G1 X137.574 Y138.686 E15.99283
G1 X137.556 Y139.01 E16.00363
G1 X137.527 Y139.393 E16.0164
G1 X137.479 Y139.915 E16.03384
G1 X137.301 Y141.109 E16.07399
G1 X137.248 Y141.363 E16.08262
G1 X137.14 Y141.828 E16.0985
G1 X136.994 Y142.398 E16.11807
G1 X136.648 Y143.494 E16.15629
G1 X136.556 Y143.739 E16.165
G1 X136.361 Y144.224 E16.18238
G1 X136.132 Y144.753 E16.20156
G1 X135.61 Y145.797 E16.24038
G1 X135.465 Y146.051 E16.25011
G1 X135.222 Y146.455 E16.26579
G1 X134.924 Y146.927 E16.28435
G1 X134.211 Y147.924 E16.32512
G1 X134.044 Y148.131 E16.33397
G1 X133.756 Y148.472 E16.34881
G1 X133.437 Y148.835 E16.36488
G1 X132.526 Y149.752 E16.40788
G1 X131.939 Y150.275 E16.43403
G1 X131.496 Y150.649 E16.45331
G1 X131.348 Y150.767 E16.4596
G1 X130.567 Y151.334 E16.4917
G1 X130.03 Y151.688 E16.5131
G1 X127.876 Y153.144 E16.59957
G1 X125.825 Y154.618 E16.68358
G1 X123.84 Y156.131 E16.76659
G1 X121.837 Y157.748 E16.85221
G1 X119.919 Y159.39 E16.93619
G1 X118.058 Y161.076 E17.01971
G1 X116.233 Y162.827 E17.10383
G1 X114.447 Y164.64 E17.18847
G1 X112.726 Y166.487 E17.27244
G1 X111.085 Y168.354 E17.35511
G1 X109.443 Y170.329 E17.44054
G1 X108.311 Y171.772 E17.50154
G1 X107.954 Y172.215 E17.52046
G1 X107.346 Y172.906 E17.55108
G1 X106.68 Y173.541 E17.58168
G1 X105.961 Y174.117 E17.61232
G1 X105.293 Y174.567 E17.63911
G1 X104.982 Y174.76 E17.65129
G1 X104.694 Y174.932 E17.66244
G1 X99.821 Y177.745 E17.84959
G1 X99.233 Y178.071 E17.87195
G1 X98.409 Y178.482 E17.90257
G1 X97.553 Y178.82 E17.93318
G1 X96.67 Y179.082 E17.96382
G1 X95.768 Y179.267 E17.99444
G1 X94.854 Y179.373 E18.02505
G1 X93.498 Y179.383 E18.07015
G1 X92.786 Y179.343 E18.09387
G1 X92.459 Y179.32 E18.10477
G1 X92.081 Y179.287 E18.11739
G1 X90.915 Y179.119 E18.15657
G1 X90.497 Y179.035 E18.17075
G1 X90.213 Y178.974 E18.18041
G1 X89.834 Y178.887 E18.19335
G1 X88.947 Y178.643 E18.22394
G1 X88.084 Y178.322 E18.25457
G1 X87.252 Y177.927 E18.2852
G1 X86.458 Y177.462 E18.31581
G1 X85.707 Y176.93 E18.34642
G1 X85.004 Y176.334 E18.37707
G1 X84.357 Y175.68 E18.40767
G1 X83.768 Y174.972 E18.4383
G1 X83.175 Y174.106 E18.47321
G1 X83.014 Y173.844 E18.48344
G1 X82.865 Y173.594 E18.49312
G1 X79.942 Y168.531 E18.68756
G1 X79.541 Y167.815 E18.71486
G1 X79.127 Y166.993 E18.74547
G1 X78.785 Y166.138 E18.7761
G1 X78.52 Y165.257 E18.8067
G1 X78.332 Y164.355 E18.83734
G1 X78.222 Y163.441 E18.86796
G1 X78.193 Y162.521 E18.89857
G1 X78.243 Y161.602 E18.92919
G1 X78.373 Y160.69 E18.95983
G1 X78.582 Y159.794 E18.99043
G1 X78.867 Y158.918 E19.02107
G1 X79.228 Y158.071 E19.05169
G1 X79.706 Y157.181 E19.08529
G1 X79.796 Y157.031 E19.09111
G1 X81.076 Y154.812 E19.17631
G1 X82.272 Y152.598 E19.26001
G1 X83.403 Y150.349 E19.34373
G1 X84.494 Y148.019 E19.42931
G1 X85.489 Y145.73 E19.51232
G1 X86.442 Y143.36 E19.59728
G1 X87.304 Y141.015 E19.68038
G1 X88.117 Y138.601 E19.7651
G1 X88.849 Y136.209 E19.8483
G1 X89.522 Y133.759 E19.9328
G1 X90.13 Y131.278 E20.01776
G1 X90.664 Y128.802 E20.10201
G1 X91.116 Y126.357 E20.18471
G1 X91.511 Y123.828 E20.26984
G1 X91.829 Y121.35 E20.35294
G1 X92.081 Y118.793 E20.4384
G1 X92.256 Y116.323 E20.52076
G1 X92.364 Y113.758 E20.60614
G1 X92.4 Y111.189 E20.6916
G1 X92.4 Y106.757 E20.83901
G1 X92.363 Y104.132 E20.92632
G1 X92.256 Y101.624 E21.00981
G1 X92.078 Y99.103 E21.09387
G1 X91.828 Y96.585 E21.17803
G1 X91.507 Y94.074 E21.26223
G1 X91.12 Y91.612 E21.34512
G1 X90.651 Y89.09 E21.43044
G1 X90.119 Y86.618 E21.51454
G1 X89.519 Y84.168 E21.59844
G1 X88.852 Y81.745 E21.68202
G1 X88.107 Y79.311 E21.76669
G1 X87.289 Y76.886 E21.85181
G1 X86.428 Y74.551 E21.93458
G1 X85.479 Y72.189 E22.01925
G1 X84.48 Y69.894 E22.1025
G1 X83.388 Y67.565 E22.18805
G1 X82.271 Y65.347 E22.27065
G1 X81.344 Y63.614 E22.33602
G1 X80.699 Y62.44 E22.38057
G1 X80.292 Y61.614 E22.4112
G1 X79.957 Y60.756 E22.44183
G1 X79.699 Y59.873 E22.47243
G1 X79.517 Y58.97 E22.50307
G1 X79.415 Y58.055 E22.53369
G1 X79.393 Y57.135 E22.5643
G1 X79.451 Y56.216 E22.59492
G1 X79.672 Y54.915 E22.63881
G1 X79.749 Y54.587 E22.65002
G1 X79.829 Y54.266 E22.66102
G1 X81.681 Y47.36 E22.89883
G1 X81.861 Y46.721 E22.92091
G1 X82.149 Y45.846 E22.95155
G1 X82.512 Y45 E22.98217
G1 X82.946 Y44.189 E23.01276
G0 F6000 X83.317 Y44.348
G1 F1200 X83.815 Y43.595 E23.04279
G1 X84.378 Y42.889 E23.07283
G1 X85.002 Y42.236 E23.10287
G1 X85.68 Y41.64 E23.13289
G1 X86.409 Y41.106 E23.16295
G1 X87.182 Y40.639 E23.19298
G1 X87.993 Y40.243 E23.223
G1 X88.836 Y39.919 E23.25304
G1 X89.705 Y39.672 E23.28309
G1 X90.592 Y39.502 E23.31313
G1 X91.49 Y39.411 E23.34315
G1 X92.394 Y39.4 E23.37322
G1 X92.859 Y39.426 E23.38871
G1 X93.756 Y39.535 E23.41876
G1 X94.504 Y39.689 E23.44416
G1 X95.063 Y39.828 E23.46332
G1 X101.893 Y41.659 E23.69851
G1 X102.519 Y41.835 E23.72014
G1 X103.376 Y42.117 E23.75014
G1 X104.206 Y42.475 E23.78021
G1 X105 Y42.904 E23.81022
G1 X105.754 Y43.402 E23.84028
G1 X106.46 Y43.965 E23.87031
G1 X107.114 Y44.588 E23.90035
G1 X107.538 Y45.058 E23.92141
G1 X108.202 Y45.921 E23.95762
G1 X109.736 Y48.155 E24.04776
G1 X111.203 Y50.167 E24.13058
G1 X112.775 Y52.2 E24.21605
G1 X114.385 Y54.164 E24.30052
G1 X116.044 Y56.076 E24.38471
G1 X117.776 Y57.961 E24.46985
G1 X119.513 Y59.745 E24.55267
G1 X121.373 Y61.552 E24.63892
G1 X123.235 Y63.263 E24.72303
G1 X125.131 Y64.905 E24.80645
G1 X127.128 Y66.542 E24.89233
G1 X129.113 Y68.076 E24.97577
G1 X130.703 Y69.24 E25.04131
G1 X130.974 Y69.445 E25.05262
G1 X131.337 Y69.732 E25.06801
G1 X131.717 Y70.051 E25.08451
G1 X132.078 Y70.369 E25.10051
G1 X132.95 Y71.236 E25.14141
G1 X133.475 Y71.825 E25.16765
G1 X133.761 Y72.16 E25.1823
G1 X133.868 Y72.291 E25.18793
G1 X134.479 Y73.122 E25.22223
G1 X134.621 Y73.337 E25.2308
G1 X134.886 Y73.76 E25.2474
G1 X135.178 Y74.253 E25.26646
G1 X135.71 Y75.279 E25.3049
G1 X135.827 Y75.54 E25.31442
G1 X135.996 Y75.94 E25.32886
G1 X136.201 Y76.455 E25.34729
G1 X136.568 Y77.556 E25.38589
G1 X136.641 Y77.825 E25.39517
G1 X136.744 Y78.24 E25.40939
G1 X136.871 Y78.8 E25.42849
G1 X137.065 Y79.963 E25.4677
G1 X137.094 Y80.232 E25.4767
G1 X137.132 Y80.671 E25.49136
G1 X137.17 Y81.262 E25.51105
G1 X137.185 Y81.557 E25.52088
G1 X137.195 Y81.945 E25.53379
G1 X137.2 Y82.418 E25.54952
G1 X137.199 Y137.538 E27.38282
G1 X137.189 Y138.243 E27.40627
G1 X137.174 Y138.664 E27.42028
G1 X137.156 Y138.988 E27.43107
G1 X137.129 Y139.356 E27.44335
G1 X137.081 Y139.878 E27.46078
G1 X136.909 Y141.027 E27.49942
G1 X136.856 Y141.281 E27.50805
G1 X136.752 Y141.729 E27.52335
