;FLAVOR:Marlin
;TIME:164
;Filament used: 0.0879673m
;Layer height: 0.2
;MINX:71.477
;MINY:95.207
;MINZ:0.2
;MAXX:148.467
;MAXY:124.088
;MAXZ:1.2
;Generated with Cura_SteamEngine 4.8.0
M140 S60
M105
M190 S60
M104 S200
M105
M109 S200
M82 ;absolute extrusion mode
; Ender 3 Custom Start G-code
G92 E0 ; Reset Extruder
G28 ; Home all axes
G1 Z2.0 F3000 ; Move Z Axis up little to prevent scratching of Heat Bed
G1 X0.1 Y20 Z0.3 F5000.0 ; Move to start position
G1 X0.1 Y200.0 Z0.3 F1500.0 E15 ; Draw the first line
G1 X0.4 Y200.0 Z0.3 F5000.0 ; Move to side a little
G1 X0.4 Y20 Z0.3 F1500.0 E30 ; Draw the second line
G92 E0 ; Reset Extruder
G1 Z2.0 F3000 ; Move Z Axis up little to prevent scratching of Heat Bed
G1 X5 Y20 Z0.3 F5000.0 ; Move over to prevent blob squish
G92 E0
G92 E0
G1 F1500 E-6.5
;LAYER_COUNT:6
;LAYER:0
M107
G0 F6000 X76.142 Y101.672 Z0.2
;TYPE:SKIRT
G1 F1500 E0
G1 F1200 X76.931 Y101.165 E0.03119
G1 X77.76 Y100.728 E0.06236
G1 X78.624 Y100.362 E0.09357
G1 X79.516 Y100.072 E0.12477
G1 X80.429 Y99.858 E0.15596
G1 X81.286 Y99.73 E0.18478
G1 X81.663 Y99.689 E0.19739
G1 X81.96 Y99.661 E0.20731
G1 X135.821 Y95.278 E2.00466
G1 X136.528 Y95.23 E2.02823
G1 X137.465 Y95.207 E2.0594
G1 X138.402 Y95.263 E2.09062
G1 X139.33 Y95.399 E2.12182
G1 X140.243 Y95.613 E2.15301
G1 X141.134 Y95.905 E2.18419
G1 X141.997 Y96.271 E2.21537
G1 X142.826 Y96.71 E2.24657
G1 X143.615 Y97.217 E2.27776
G1 X144.358 Y97.79 E2.30897
G1 X145.049 Y98.424 E2.34016
G1 X145.683 Y99.115 E2.37135
G1 X146.257 Y99.857 E2.40255
G1 X146.765 Y100.645 E2.43374
G1 X147.204 Y101.474 E2.46494
G1 X147.571 Y102.337 E2.49613
G1 X147.863 Y103.229 E2.52735
G1 X148.078 Y104.141 E2.55851
G1 X148.208 Y105.008 E2.58767
G1 X148.245 Y105.346 E2.59898
G1 X148.274 Y105.649 E2.6091
G1 X148.397 Y107.173 E2.65996
G1 X148.445 Y107.894 E2.68399
G1 X148.467 Y108.832 E2.7152
G1 X148.409 Y109.768 E2.74639
G1 X148.272 Y110.696 E2.77759
G1 X148.057 Y111.609 E2.80878
G1 X147.764 Y112.5 E2.83998
G1 X147.397 Y113.362 E2.87114
G1 X146.957 Y114.191 E2.90236
G1 X146.448 Y114.979 E2.93356
G1 X145.874 Y115.721 E2.96476
G1 X145.239 Y116.411 E2.99595
G1 X144.548 Y117.045 E3.02714
G1 X143.805 Y117.617 E3.05833
G1 X143.016 Y118.124 E3.08952
G1 X142.187 Y118.562 E3.1207
G1 X141.323 Y118.928 E3.15191
G1 X140.431 Y119.219 E3.18312
G1 X139.518 Y119.432 E3.2143
G1 X138.68 Y119.558 E3.24249
G1 X138.373 Y119.592 E3.25276
G1 X138.055 Y119.623 E3.26339
G1 X84.255 Y124.005 E5.05871
G1 X83.435 Y124.062 E5.08605
G1 X82.498 Y124.088 E5.11722
G1 X81.562 Y124.033 E5.14841
G1 X80.633 Y123.898 E5.17963
G1 X79.72 Y123.685 E5.21081
G1 X78.828 Y123.396 E5.242
G1 X77.964 Y123.031 E5.2732
G1 X77.134 Y122.593 E5.30441
G1 X76.345 Y122.087 E5.33558
G1 X75.601 Y121.516 E5.36678
G1 X74.909 Y120.883 E5.39797
G1 X74.274 Y120.193 E5.42916
G1 X73.699 Y119.452 E5.46036
G1 X73.19 Y118.664 E5.49156
G1 X72.749 Y117.836 E5.52276
G1 X72.381 Y116.974 E5.55393
G1 X72.087 Y116.083 E5.58514
G1 X71.871 Y115.17 E5.61634
G1 X71.743 Y114.334 E5.64447
G1 X71.707 Y114.018 E5.65505
G1 X71.672 Y113.664 E5.66688
G1 X71.544 Y112.072 E5.72
G1 X71.499 Y111.393 E5.74264
G1 X71.477 Y110.456 E5.77381
G1 X71.535 Y109.52 E5.805
G1 X71.672 Y108.592 E5.8362
G1 X71.888 Y107.679 E5.86741
G1 X72.181 Y106.788 E5.8986
G1 X72.549 Y105.926 E5.92978
G1 X72.989 Y105.097 E5.96099
G1 X73.498 Y104.309 E5.99219
G1 X74.072 Y103.568 E6.02337
G1 X74.707 Y102.878 E6.05456
G1 X75.399 Y102.244 E6.08577
G1 X76.142 Y101.672 E6.11696
G0 F6000 X76.539 Y101.884
G1 F1200 X77.323 Y101.402 E6.14757
G1 X78.147 Y100.99 E6.17821
G1 X79.003 Y100.651 E6.20883
G1 X79.885 Y100.387 E6.23945
G1 X80.786 Y100.201 E6.27005
G1 X81.329 Y100.128 E6.28827
G1 X81.706 Y100.087 E6.30089
G1 X81.992 Y100.06 E6.31044
G1 X135.848 Y95.677 E8.10762
G1 X136.555 Y95.629 E8.13119
G1 X137.475 Y95.607 E8.1618
G1 X138.394 Y95.664 E8.19242
G1 X139.305 Y95.802 E8.22307
G1 X140.2 Y96.017 E8.25369
G1 X141.073 Y96.309 E8.2843
G1 X141.917 Y96.676 E8.31491
G1 X142.726 Y97.115 E8.34553
G1 X143.494 Y97.623 E8.37615
G1 X144.216 Y98.195 E8.40679
G1 X144.885 Y98.828 E8.43742
G1 X145.496 Y99.516 E8.46803
G1 X146.045 Y100.255 E8.49865
G1 X146.529 Y101.038 E8.52926
G1 X146.942 Y101.861 E8.55989
G1 X147.282 Y102.716 E8.59049
G1 X147.547 Y103.598 E8.62112
G1 X147.735 Y104.499 E8.65174
G1 X147.81 Y105.052 E8.6703
G1 X147.847 Y105.39 E8.68161
G1 X147.875 Y105.681 E8.69133
G1 X147.998 Y107.2 E8.74202
G1 X148.046 Y107.921 E8.76605
G1 X148.067 Y108.841 E8.79666
G1 X148.008 Y109.76 E8.82729
G1 X147.87 Y110.67 E8.8579
G1 X147.653 Y111.565 E8.88853
G1 X147.36 Y112.438 E8.91916
G1 X146.991 Y113.282 E8.9498
G1 X146.551 Y114.09 E8.9804
G1 X146.043 Y114.858 E9.01102
G1 X145.47 Y115.578 E9.04163
G1 X144.836 Y116.246 E9.07226
G1 X144.147 Y116.857 E9.10289
G1 X143.408 Y117.405 E9.13349
G1 X142.623 Y117.887 E9.16413
G1 X141.8 Y118.3 E9.19475
G1 X140.944 Y118.639 E9.22537
G1 X140.062 Y118.903 E9.256
G1 X139.161 Y119.089 E9.28659
G1 X138.636 Y119.161 E9.30422
G1 X138.329 Y119.195 E9.31449
G1 X138.023 Y119.224 E9.32472
G1 X84.098 Y123.615 E11.12421
G1 X83.408 Y123.663 E11.14721
G1 X82.487 Y123.687 E11.17785
G1 X81.568 Y123.631 E11.20848
G1 X80.658 Y123.496 E11.23907
G1 X79.762 Y123.282 E11.26971
G1 X78.889 Y122.991 E11.30032
G1 X78.044 Y122.625 E11.33095
G1 X77.234 Y122.188 E11.36156
G1 X76.465 Y121.682 E11.39218
G1 X75.743 Y121.11 E11.42281
G1 X75.073 Y120.479 E11.45342
G1 X74.46 Y119.792 E11.48405
G1 X73.91 Y119.054 E11.51466
G1 X73.425 Y118.271 E11.54529
G1 X73.01 Y117.449 E11.57592
G1 X72.668 Y116.594 E11.60655
G1 X72.402 Y115.713 E11.63716
G1 X72.213 Y114.812 E11.66778
G1 X72.14 Y114.289 E11.68534
G1 X72.104 Y113.973 E11.69592
G1 X72.071 Y113.631 E11.70735
G1 X71.943 Y112.046 E11.76024
G1 X71.898 Y111.367 E11.78287
G1 X71.877 Y110.447 E11.81348
G1 X71.936 Y109.528 E11.84411
G1 X72.075 Y108.618 E11.87472
G1 X72.292 Y107.723 E11.90535
G1 X72.586 Y106.85 E11.93599
G1 X72.954 Y106.007 E11.96659
G1 X73.394 Y105.198 E11.99722
G1 X73.903 Y104.431 E12.02783
G1 X74.476 Y103.71 E12.05846
G1 X75.11 Y103.043 E12.08907
G1 X75.799 Y102.432 E12.1197
G1 X76.539 Y101.884 E12.15033
G0 F6000 X76.935 Y102.102
G1 F1200 X77.714 Y101.645 E12.18037
G1 X78.531 Y101.259 E12.21042
G1 X79.379 Y100.947 E12.24047
G1 X80.25 Y100.712 E12.27048
G1 X81.372 Y100.526 E12.3083
G1 X81.749 Y100.485 E12.32092
G1 X82.025 Y100.459 E12.33014
G1 X135.875 Y96.076 E14.12712
G1 X136.582 Y96.028 E14.15069
G1 X137.485 Y96.007 E14.18073
G1 X138.386 Y96.066 E14.21076
G1 X139.279 Y96.204 E14.24082
G1 X140.155 Y96.421 E14.27083
G1 X141.01 Y96.714 E14.30089
G1 X141.834 Y97.082 E14.33091
G1 X142.623 Y97.521 E14.36094
G1 X143.371 Y98.028 E14.39099
G1 X144.07 Y98.6 E14.42104
G1 X144.716 Y99.231 E14.45107
G1 X145.304 Y99.916 E14.4811
G1 X145.829 Y100.651 E14.51114
G1 X146.286 Y101.43 E14.54118
G1 X146.673 Y102.246 E14.57122
G1 X146.987 Y103.093 E14.60126
G1 X147.224 Y103.964 E14.63128
G1 X147.412 Y105.095 E14.66942
G1 X147.449 Y105.433 E14.68073
G1 X147.476 Y105.714 E14.69011
G1 X147.598 Y107.226 E14.74057
G1 X147.646 Y107.947 E14.7646
G1 X147.667 Y108.85 E14.79464
G1 X147.607 Y109.751 E14.82468
G1 X147.467 Y110.644 E14.85474
G1 X147.249 Y111.52 E14.88477
G1 X146.955 Y112.374 E14.91481
G1 X146.586 Y113.198 E14.94483
G1 X146.146 Y113.987 E14.97488
G1 X145.638 Y114.733 E15.0049
G1 X145.065 Y115.432 E15.03496
G1 X144.434 Y116.077 E15.06497
G1 X143.747 Y116.664 E15.09503
G1 X143.011 Y117.188 E15.12508
G1 X142.232 Y117.645 E15.15512
G1 X141.416 Y118.03 E15.18513
G1 X140.568 Y118.343 E15.21519
G1 X139.697 Y118.579 E15.2452
G1 X138.592 Y118.763 E15.28246
G1 X138.285 Y118.797 E15.29274
G1 X137.99 Y118.825 E15.30259
G1 X84.07 Y123.216 E17.10192
G1 X83.38 Y123.264 E17.12492
G1 X82.477 Y123.287 E17.15496
G1 X81.576 Y123.23 E17.18499
G1 X80.683 Y123.093 E17.21504
G1 X79.806 Y122.878 E17.24507
G1 X78.951 Y122.586 E17.27512
G1 X78.126 Y122.22 E17.30514
G1 X77.336 Y121.782 E17.33519
G1 X76.588 Y121.276 E17.36522
G1 X75.888 Y120.706 E17.39525
G1 X75.241 Y120.076 E17.42528
G1 X74.652 Y119.391 E17.45533
G1 X74.126 Y118.657 E17.48536
G1 X73.667 Y117.879 E17.51541
G1 X73.278 Y117.064 E17.54544
G1 X72.964 Y116.217 E17.57549
G1 X72.725 Y115.346 E17.60553
G1 X72.538 Y114.244 E17.64271
G1 X72.502 Y113.928 E17.65328
G1 X72.469 Y113.599 E17.66428
G1 X72.342 Y112.02 E17.71697
G1 X72.297 Y111.341 E17.7396
G1 X72.278 Y110.438 E17.76964
G1 X72.338 Y109.537 E17.79968
G1 X72.477 Y108.644 E17.82974
G1 X72.695 Y107.768 E17.85976
G1 X72.99 Y106.914 E17.88981
G1 X73.359 Y106.09 E17.91984
G1 X73.8 Y105.302 E17.94987
G1 X74.308 Y104.555 E17.97992
G1 X74.881 Y103.857 E18.00996
G1 X75.513 Y103.212 E18.03999
G1 X76.199 Y102.625 E18.07002
G1 X76.935 Y102.102 E18.10005
G1 F1500 E11.60005
;MESH:joint9_11_scaled.STL
G0 F6000 X82.821 Y109.962
G0 X82.909 Y111.035
G0 X83.212 Y112.452
;TYPE:WALL-INNER
G1 F1500 E18.10005
G1 F1200 X83.126 Y111.404 E18.13503
G1 X83.11 Y111.206 E18.14163
G1 X83.308 Y111.19 E18.1459
G1 X136.732 Y106.841 E19.92867
G1 X136.818 Y107.887 E19.96358
G1 X136.834 Y108.085 E19.97019
G1 X136.636 Y108.101 E19.97446
G1 X83.212 Y112.452 E21.75723
G0 F6000 X82.845 Y112.883
;TYPE:WALL-OUTER
G1 F1200 X82.679 Y110.84 E21.8254
G1 X137.099 Y106.41 E23.64141
G1 X137.265 Y108.451 E23.70952
G1 X82.845 Y112.883 E25.52552
G0 F6000 X83.092 Y112.592
G0 X83.29 Y112.055
G0 X83.568 Y112.033
;TYPE:SKIN
G1 F1200 X83.53 Y111.563 E25.54121
G1 X136.376 Y107.26 E27.30469
G1 X136.414 Y107.728 E27.32031
G1 X83.568 Y112.033 E29.08379
G0 F6000 X83.968 Y111.686
G1 F1200 X84.108 Y111.827 E29.0904
G0 F6000 X84.491 Y111.644
G1 F1200 X84.632 Y111.785 E29.09704
G0 F6000 X85.014 Y111.601
G1 F1200 X85.155 Y111.742 E29.10367
G0 F6000 X85.537 Y111.558
G1 F1200 X85.678 Y111.699 E29.1103
G0 F6000 X86.06 Y111.516
G1 F1200 X86.201 Y111.657 E29.11693
G0 F6000 X86.583 Y111.473
G1 F1200 X86.724 Y111.614 E29.12356
G0 F6000 X87.107 Y111.431
G1 F1200 X87.247 Y111.572 E29.13017
G0 F6000 X87.629 Y111.388
G1 F1200 X87.77 Y111.529 E29.13681
G0 F6000 X88.152 Y111.345
G1 F1200 X88.293 Y111.486 E29.14344
G0 F6000 X88.676 Y111.303
G1 F1200 X88.816 Y111.444 E29.15005
G0 F6000 X89.199 Y111.261
G1 F1200 X89.34 Y111.401 E29.15666
G0 F6000 X89.722 Y111.218
G1 F1200 X89.862 Y111.358 E29.16324
G0 F6000 X90.245 Y111.175
G1 F1200 X90.385 Y111.316 E29.16985
G0 F6000 X90.768 Y111.133
G1 F1200 X90.909 Y111.273 E29.17646
G0 F6000 X91.291 Y111.09
G1 F1200 X91.432 Y111.231 E29.18309
G0 F6000 X91.814 Y111.048
G1 F1200 X91.954 Y111.188 E29.18968
G0 F6000 X92.337 Y111.005
G1 F1200 X92.478 Y111.145 E29.19628
G0 F6000 X92.86 Y110.962
G1 F1200 X93.001 Y111.103 E29.20292
G0 F6000 X93.384 Y110.92
G1 F1200 X93.524 Y111.061 E29.20952
G0 F6000 X93.907 Y110.877
G1 F1200 X94.047 Y111.017 E29.21611
G0 F6000 X94.43 Y110.835
G1 F1200 X94.57 Y110.975 E29.2227
G0 F6000 X94.953 Y110.792
G1 F1200 X95.093 Y110.933 E29.2293
G0 F6000 X95.476 Y110.749
G1 F1200 X95.617 Y110.89 E29.23594
G0 F6000 X95.999 Y110.707
G1 F1200 X96.139 Y110.847 E29.24252
G0 F6000 X96.522 Y110.665
G1 F1200 X96.662 Y110.805 E29.24911
G0 F6000 X97.045 Y110.621
G1 F1200 X97.186 Y110.762 E29.25574
G0 F6000 X97.568 Y110.579
G1 F1200 X97.709 Y110.72 E29.26237
G0 F6000 X98.091 Y110.537
G1 F1200 X98.231 Y110.677 E29.26896
G0 F6000 X98.615 Y110.494
G1 F1200 X98.755 Y110.634 E29.27554
G0 F6000 X99.138 Y110.452
G1 F1200 X99.278 Y110.592 E29.28213
G0 F6000 X99.661 Y110.409
G1 F1200 X99.801 Y110.549 E29.28871
G0 F6000 X100.184 Y110.366
G1 F1200 X100.324 Y110.506 E29.2953
G0 F6000 X100.707 Y110.324
G1 F1200 X100.847 Y110.464 E29.30188
G0 F6000 X101.23 Y110.281
G1 F1200 X101.37 Y110.421 E29.30847
G0 F6000 X101.753 Y110.238
G1 F1200 X101.894 Y110.379 E29.3151
G0 F6000 X102.276 Y110.196
G1 F1200 X102.416 Y110.336 E29.32168
G0 F6000 X102.799 Y110.153
G1 F1200 X102.939 Y110.293 E29.32827
G0 F6000 X103.323 Y110.111
G1 F1200 X103.463 Y110.251 E29.33485
G0 F6000 X103.846 Y110.068
G1 F1200 X103.986 Y110.208 E29.34144
G0 F6000 X104.368 Y110.025
G1 F1200 X104.508 Y110.165 E29.34803
G0 F6000 X104.892 Y109.983
G1 F1200 X105.032 Y110.123 E29.35461
G0 F6000 X105.415 Y109.94
G1 F1200 X105.555 Y110.08 E29.3612
G0 F6000 X105.938 Y109.898
G1 F1200 X106.078 Y110.038 E29.36778
G0 F6000 X106.461 Y109.855
G1 F1200 X106.601 Y109.995 E29.37437
G0 F6000 X106.984 Y109.812
G1 F1200 X107.124 Y109.952 E29.38095
G0 F6000 X107.507 Y109.77
G1 F1200 X107.647 Y109.91 E29.38754
G0 F6000 X108.031 Y109.728
G1 F1200 X108.171 Y109.868 E29.39412
G0 F6000 X108.554 Y109.685
G1 F1200 X108.693 Y109.824 E29.40066
G0 F6000 X109.076 Y109.642
G1 F1200 X109.216 Y109.782 E29.40724
G0 F6000 X109.6 Y109.6
G1 F1200 X109.74 Y109.74 E29.41383
G0 F6000 X110.123 Y109.557
G1 F1200 X110.263 Y109.697 E29.42041
G0 F6000 X110.646 Y109.515
G1 F1200 X110.785 Y109.654 E29.42695
G0 F6000 X111.169 Y109.472
G1 F1200 X111.309 Y109.612 E29.43354
G0 F6000 X111.692 Y109.429
G1 F1200 X111.832 Y109.569 E29.44012
G0 F6000 X112.215 Y109.387
G1 F1200 X112.355 Y109.527 E29.44671
G0 F6000 X112.738 Y109.344
G1 F1200 X112.878 Y109.484 E29.45329
G0 F6000 X113.262 Y109.302
G1 F1200 X113.401 Y109.441 E29.45983
G0 F6000 X113.784 Y109.259
G1 F1200 X113.924 Y109.399 E29.46642
G0 F6000 X114.308 Y109.216
G1 F1200 X114.448 Y109.356 E29.473
G0 F6000 X114.831 Y109.174
G1 F1200 X114.97 Y109.313 E29.47954
G0 F6000 X115.354 Y109.132
G1 F1200 X115.493 Y109.271 E29.48608
G0 F6000 X115.877 Y109.088
G1 F1200 X116.017 Y109.228 E29.49266
G0 F6000 X116.4 Y109.046
G1 F1200 X116.54 Y109.186 E29.49925
G0 F6000 X116.923 Y109.004
G1 F1200 X117.062 Y109.143 E29.50579
G0 F6000 X117.446 Y108.961
G1 F1200 X117.586 Y109.1 E29.51235
G0 F6000 X117.97 Y108.919
G1 F1200 X118.109 Y109.058 E29.51889
G0 F6000 X118.492 Y108.876
G1 F1200 X118.632 Y109.016 E29.52547
G0 F6000 X119.015 Y108.833
G1 F1200 X119.155 Y108.972 E29.53203
G0 F6000 X119.539 Y108.791
G1 F1200 X119.678 Y108.93 E29.53857
G0 F6000 X120.062 Y108.748
G1 F1200 X120.201 Y108.888 E29.54513
G0 F6000 X120.585 Y108.705
G1 F1200 X120.725 Y108.845 E29.55172
G0 F6000 X121.108 Y108.663
G1 F1200 X121.247 Y108.802 E29.55826
G0 F6000 X121.631 Y108.62
G1 F1200 X121.77 Y108.76 E29.56482
G0 F6000 X122.154 Y108.578
G1 F1200 X122.294 Y108.717 E29.57138
G0 F6000 X122.678 Y108.535
G1 F1200 X122.817 Y108.675 E29.57794
G0 F6000 X123.2 Y108.492
G1 F1200 X123.339 Y108.632 E29.5845
G0 F6000 X123.723 Y108.45
G1 F1200 X123.863 Y108.589 E29.59107
G0 F6000 X124.247 Y108.407
G1 F1200 X124.386 Y108.547 E29.59763
G0 F6000 X124.77 Y108.365
G1 F1200 X124.909 Y108.504 E29.60417
G0 F6000 X125.292 Y108.322
G1 F1200 X125.432 Y108.461 E29.61073
G0 F6000 X125.816 Y108.279
G1 F1200 X125.955 Y108.419 E29.61729
G0 F6000 X126.339 Y108.237
G1 F1200 X126.478 Y108.376 E29.62383
G0 F6000 X126.862 Y108.195
G1 F1200 X127.002 Y108.334 E29.63039
G0 F6000 X127.385 Y108.152
G1 F1200 X127.524 Y108.291 E29.63693
G0 F6000 X127.908 Y108.109
G1 F1200 X128.047 Y108.248 E29.64346
G0 F6000 X128.431 Y108.067
G1 F1200 X128.571 Y108.206 E29.65003
G0 F6000 X128.955 Y108.024
G1 F1200 X129.094 Y108.164 E29.65659
G0 F6000 X129.478 Y107.982
G1 F1200 X129.616 Y108.12 E29.66308
G0 F6000 X130 Y107.939
G1 F1200 X130.14 Y108.078 E29.66964
G0 F6000 X130.524 Y107.896
G1 F1200 X130.663 Y108.036 E29.6762
G0 F6000 X131.047 Y107.854
G1 F1200 X131.186 Y107.993 E29.68274
G0 F6000 X131.57 Y107.811
G1 F1200 X131.709 Y107.95 E29.68928
G0 F6000 X132.093 Y107.769
G1 F1200 X132.232 Y107.908 E29.69582
G0 F6000 X132.616 Y107.726
G1 F1200 X132.755 Y107.865 E29.70236
G0 F6000 X133.139 Y107.683
G1 F1200 X133.279 Y107.823 E29.70894
G0 F6000 X133.662 Y107.641
G1 F1200 X133.801 Y107.78 E29.71548
G0 F6000 X134.186 Y107.599
G1 F1200 X134.324 Y107.737 E29.72197
